/* XPM */
static char * 256_test_xpm[] = {
"172 30 109 2",
"  	c None",
". 	c #FF0000",
"+ 	c #FF1F00",
"@ 	c #FF3F00",
"# 	c #FF5F00",
"$ 	c #FF7F00",
"% 	c #FF9F00",
"& 	c #FFBF00",
"* 	c #FFDF00",
"= 	c #FFFF00",
"- 	c #BF0000",
"; 	c #BF1700",
"> 	c #BF2F00",
", 	c #BF4700",
"' 	c #BF5F00",
") 	c #BF7700",
"! 	c #BF8F00",
"~ 	c #BFA700",
"{ 	c #BFBF00",
"] 	c #7F0000",
"^ 	c #7F0F00",
"/ 	c #7F1F00",
"( 	c #7F2F00",
"_ 	c #7F3F00",
": 	c #7F4F00",
"< 	c #7F5F00",
"[ 	c #7F6F00",
"} 	c #7F7F00",
"| 	c #400000",
"1 	c #400800",
"2 	c #401000",
"3 	c #401800",
"4 	c #402000",
"5 	c #402800",
"6 	c #403000",
"7 	c #403800",
"8 	c #404000",
"9 	c #D4FF00",
"0 	c #AAFF00",
"a 	c #7FFF00",
"b 	c #55FF00",
"c 	c #2AFF00",
"d 	c #00FF00",
"e 	c #00DF00",
"f 	c #00BF55",
"g 	c #009F55",
"h 	c #008080",
"i 	c #007FAA",
"j 	c #2A5FAA",
"k 	c #2A3FAA",
"l 	c #9FBF00",
"m 	c #7FBF00",
"n 	c #5FBF00",
"o 	c #40BF00",
"p 	c #1FBF00",
"q 	c #00BF00",
"r 	c #00A700",
"s 	c #008F40",
"t 	c #007740",
"u 	c #006060",
"v 	c #005F7F",
"w 	c #1F477F",
"x 	c #1F2F7F",
"y 	c #6A7F00",
"z 	c #557F00",
"A 	c #3F7F00",
"B 	c #2A7F00",
"C 	c #157F00",
"D 	c #007F00",
"E 	c #006F00",
"F 	c #005F2A",
"G 	c #004F2A",
"H 	c #004040",
"I 	c #003F55",
"J 	c #152F55",
"K 	c #151F55",
"L 	c #354000",
"M 	c #2B4000",
"N 	c #204000",
"O 	c #154000",
"P 	c #0B4000",
"Q 	c #004000",
"R 	c #003800",
"S 	c #003015",
"T 	c #002815",
"U 	c #002020",
"V 	c #00202B",
"W 	c #0B182B",
"X 	c #0B102B",
"Y 	c #0000FF",
"Z 	c #2A00FF",
"` 	c #2A00AA",
" .	c #5500AA",
"..	c #800080",
"+.	c #0000BF",
"@.	c #1F00BF",
"#.	c #1F007F",
"$.	c #40007F",
"%.	c #600060",
"&.	c #00007F",
"*.	c #15007F",
"=.	c #150055",
"-.	c #2A0055",
";.	c #400040",
">.	c #000040",
",.	c #0B0040",
"'.	c #0B002B",
").	c #15002B",
"!.	c #200020",
". . . . . + + + + + + + @ @ @ @ @ @ # # # # # # # $ $ $ $ $ $ $ % % % % % % % % % % & & & & & & & & & & & * * * * * * * * * * = = = = = = = = = = 9 9 9 9 9 9 0 0 0 0 0 a a a a a b b b b b c c c c c c d d d d d d d e e e e f f f f g g g g h h h h h i i j k k k k Y Y Y Y Y Y Y Y Y Y Y Y Y Y Y Y Z Z Z Z Z ` ` ` ` ` ` ` `  . . . . . . . . . . ...",
". . . . . + + + + + + + @ @ @ @ @ @ # # # # # # # $ $ $ $ $ $ $ % % % % % % % % % % & & & & & & & & & & & * * * * * * * * * * = = = = = = = = = = 9 9 9 9 9 9 0 0 0 0 0 a a a a a b b b b b c c c c c c d d d d d d d e e e e f f f f g g g g h h h h h i i j k k k k Y Y Y Y Y Y Y Y Y Y Y Y Y Y Y Y Z Z Z Z Z ` ` ` ` ` ` ` `  . . . . . . . . . . ...",
". . . . . + + + + + + + @ @ @ @ @ @ # # # # # # # $ $ $ $ $ $ $ % % % % % % % % % % & & & & & & & & & & & * * * * * * * * * * = = = = = = = = = = 9 9 9 9 9 9 0 0 0 0 0 a a a a a b b b b b c c c c c c d d d d d d d e e e e f f f f g g g g h h h h h i i j k k k k Y Y Y Y Y Y Y Y Y Y Y Y Y Y Y Y Z Z Z Z Z ` ` ` ` ` ` ` `  . . . . . . . . . . ...",
". . . . . + + + + + + + @ @ @ @ @ @ # # # # # # # $ $ $ $ $ $ $ % % % % % % % % % % & & & & & & & & & & & * * * * * * * * * * = = = = = = = = = = 9 9 9 9 9 9 0 0 0 0 0 a a a a a b b b b b c c c c c c d d d d d d d e e e e f f f f g g g g h h h h h i i j k k k k Y Y Y Y Y Y Y Y Y Y Y Y Y Y Y Y Z Z Z Z Z ` ` ` ` ` ` ` `  . . . . . . . . . . ...",
". . . . . + + + + + + + @ @ @ @ @ @ # # # # # # # $ $ $ $ $ $ $ % % % % % % % % % % & & & & & & & & & & & * * * * * * * * * * = = = = = = = = = = 9 9 9 9 9 9 0 0 0 0 0 a a a a a b b b b b c c c c c c d d d d d d d e e e e f f f f g g g g h h h h h i i j k k k k Y Y Y Y Y Y Y Y Y Y Y Y Y Y Y Y Z Z Z Z Z ` ` ` ` ` ` ` `  . . . . . . . . . . ...",
". . . . . + + + + + + + @ @ @ @ @ @ # # # # # # # $ $ $ $ $ $ $ % % % % % % % % % % & & & & & & & & & & & * * * * * * * * * * = = = = = = = = = = 9 9 9 9 9 9 0 0 0 0 0 a a a a a b b b b b c c c c c c d d d d d d d e e e e f f f f g g g g h h h h h i i j k k k k Y Y Y Y Y Y Y Y Y Y Y Y Y Y Y Y Z Z Z Z Z ` ` ` ` ` ` ` `  . . . . . . . . . . ...",
"- - - - - ; ; ; ; ; ; ; > > > > > > , , , , , , , ' ' ' ' ' ' ' ) ) ) ) ) ) ) ) ) ) ! ! ! ! ! ! ! ! ! ! ! ~ ~ ~ ~ ~ ~ ~ ~ ~ ~ { { { { { { { { { { l l l l l l m m m m m n n n n n o o o o o p p p p p p q q q q q q q r r r r s s s s t t t t u u u u u v v w x x x x +.+.+.+.+.+.+.+.+.+.+.+.+.+.+.+.@.@.@.@.@.#.#.#.#.#.#.#.#.$.$.$.$.$.$.$.$.$.$.$.%.",
"- - - - - ; ; ; ; ; ; ; > > > > > > , , , , , , , ' ' ' ' ' ' ' ) ) ) ) ) ) ) ) ) ) ! ! ! ! ! ! ! ! ! ! ! ~ ~ ~ ~ ~ ~ ~ ~ ~ ~ { { { { { { { { { { l l l l l l m m m m m n n n n n o o o o o p p p p p p q q q q q q q r r r r s s s s t t t t u u u u u v v w x x x x +.+.+.+.+.+.+.+.+.+.+.+.+.+.+.+.@.@.@.@.@.#.#.#.#.#.#.#.#.$.$.$.$.$.$.$.$.$.$.$.%.",
"- - - - - ; ; ; ; ; ; ; > > > > > > , , , , , , , ' ' ' ' ' ' ' ) ) ) ) ) ) ) ) ) ) ! ! ! ! ! ! ! ! ! ! ! ~ ~ ~ ~ ~ ~ ~ ~ ~ ~ { { { { { { { { { { l l l l l l m m m m m n n n n n o o o o o p p p p p p q q q q q q q r r r r s s s s t t t t u u u u u v v w x x x x +.+.+.+.+.+.+.+.+.+.+.+.+.+.+.+.@.@.@.@.@.#.#.#.#.#.#.#.#.$.$.$.$.$.$.$.$.$.$.$.%.",
"- - - - - ; ; ; ; ; ; ; > > > > > > , , , , , , , ' ' ' ' ' ' ' ) ) ) ) ) ) ) ) ) ) ! ! ! ! ! ! ! ! ! ! ! ~ ~ ~ ~ ~ ~ ~ ~ ~ ~ { { { { { { { { { { l l l l l l m m m m m n n n n n o o o o o p p p p p p q q q q q q q r r r r s s s s t t t t u u u u u v v w x x x x +.+.+.+.+.+.+.+.+.+.+.+.+.+.+.+.@.@.@.@.@.#.#.#.#.#.#.#.#.$.$.$.$.$.$.$.$.$.$.$.%.",
"- - - - - ; ; ; ; ; ; ; > > > > > > , , , , , , , ' ' ' ' ' ' ' ) ) ) ) ) ) ) ) ) ) ! ! ! ! ! ! ! ! ! ! ! ~ ~ ~ ~ ~ ~ ~ ~ ~ ~ { { { { { { { { { { l l l l l l m m m m m n n n n n o o o o o p p p p p p q q q q q q q r r r r s s s s t t t t u u u u u v v w x x x x +.+.+.+.+.+.+.+.+.+.+.+.+.+.+.+.@.@.@.@.@.#.#.#.#.#.#.#.#.$.$.$.$.$.$.$.$.$.$.$.%.",
"- - - - - ; ; ; ; ; ; ; > > > > > > , , , , , , , ' ' ' ' ' ' ' ) ) ) ) ) ) ) ) ) ) ! ! ! ! ! ! ! ! ! ! ! ~ ~ ~ ~ ~ ~ ~ ~ ~ ~ { { { { { { { { { { l l l l l l m m m m m n n n n n o o o o o p p p p p p q q q q q q q r r r r s s s s t t t t u u u u u v v w x x x x +.+.+.+.+.+.+.+.+.+.+.+.+.+.+.+.@.@.@.@.@.#.#.#.#.#.#.#.#.$.$.$.$.$.$.$.$.$.$.$.%.",
"- - - - - ; ; ; ; ; ; ; > > > > > > , , , , , , , ' ' ' ' ' ' ' ) ) ) ) ) ) ) ) ) ) ! ! ! ! ! ! ! ! ! ! ! ~ ~ ~ ~ ~ ~ ~ ~ ~ ~ { { { { { { { { { { l l l l l l m m m m m n n n n n o o o o o p p p p p p q q q q q q q r r r r s s s s t t t t u u u u u v v w x x x x +.+.+.+.+.+.+.+.+.+.+.+.+.+.+.+.@.@.@.@.@.#.#.#.#.#.#.#.#.$.$.$.$.$.$.$.$.$.$.$.%.",
"- - - - - ; ; ; ; ; ; ; > > > > > > , , , , , , , ' ' ' ' ' ' ' ) ) ) ) ) ) ) ) ) ) ! ! ! ! ! ! ! ! ! ! ! ~ ~ ~ ~ ~ ~ ~ ~ ~ ~ { { { { { { { { { { l l l l l l m m m m m n n n n n o o o o o p p p p p p q q q q q q q r r r r s s s s t t t t u u u u u v v w x x x x +.+.+.+.+.+.+.+.+.+.+.+.+.+.+.+.@.@.@.@.@.#.#.#.#.#.#.#.#.$.$.$.$.$.$.$.$.$.$.$.%.",
"] ] ] ] ] ^ ^ ^ ^ ^ ^ ^ / / / / / / ( ( ( ( ( ( ( _ _ _ _ _ _ _ : : : : : : : : : : < < < < < < < < < < < [ [ [ [ [ [ [ [ [ [ } } } } } } } } } } y y y y y y z z z z z A A A A A B B B B B C C C C C C D D D D D D D E E E E F F F F G G G G H H H H H I I J K K K K &.&.&.&.&.&.&.&.&.&.&.&.&.&.&.&.*.*.*.*.*.=.=.=.=.=.=.=.=.-.-.-.-.-.-.-.-.-.-.-.;.",
"] ] ] ] ] ^ ^ ^ ^ ^ ^ ^ / / / / / / ( ( ( ( ( ( ( _ _ _ _ _ _ _ : : : : : : : : : : < < < < < < < < < < < [ [ [ [ [ [ [ [ [ [ } } } } } } } } } } y y y y y y z z z z z A A A A A B B B B B C C C C C C D D D D D D D E E E E F F F F G G G G H H H H H I I J K K K K &.&.&.&.&.&.&.&.&.&.&.&.&.&.&.&.*.*.*.*.*.=.=.=.=.=.=.=.=.-.-.-.-.-.-.-.-.-.-.-.;.",
"] ] ] ] ] ^ ^ ^ ^ ^ ^ ^ / / / / / / ( ( ( ( ( ( ( _ _ _ _ _ _ _ : : : : : : : : : : < < < < < < < < < < < [ [ [ [ [ [ [ [ [ [ } } } } } } } } } } y y y y y y z z z z z A A A A A B B B B B C C C C C C D D D D D D D E E E E F F F F G G G G H H H H H I I J K K K K &.&.&.&.&.&.&.&.&.&.&.&.&.&.&.&.*.*.*.*.*.=.=.=.=.=.=.=.=.-.-.-.-.-.-.-.-.-.-.-.;.",
"] ] ] ] ] ^ ^ ^ ^ ^ ^ ^ / / / / / / ( ( ( ( ( ( ( _ _ _ _ _ _ _ : : : : : : : : : : < < < < < < < < < < < [ [ [ [ [ [ [ [ [ [ } } } } } } } } } } y y y y y y z z z z z A A A A A B B B B B C C C C C C D D D D D D D E E E E F F F F G G G G H H H H H I I J K K K K &.&.&.&.&.&.&.&.&.&.&.&.&.&.&.&.*.*.*.*.*.=.=.=.=.=.=.=.=.-.-.-.-.-.-.-.-.-.-.-.;.",
"] ] ] ] ] ^ ^ ^ ^ ^ ^ ^ / / / / / / ( ( ( ( ( ( ( _ _ _ _ _ _ _ : : : : : : : : : : < < < < < < < < < < < [ [ [ [ [ [ [ [ [ [ } } } } } } } } } } y y y y y y z z z z z A A A A A B B B B B C C C C C C D D D D D D D E E E E F F F F G G G G H H H H H I I J K K K K &.&.&.&.&.&.&.&.&.&.&.&.&.&.&.&.*.*.*.*.*.=.=.=.=.=.=.=.=.-.-.-.-.-.-.-.-.-.-.-.;.",
"] ] ] ] ] ^ ^ ^ ^ ^ ^ ^ / / / / / / ( ( ( ( ( ( ( _ _ _ _ _ _ _ : : : : : : : : : : < < < < < < < < < < < [ [ [ [ [ [ [ [ [ [ } } } } } } } } } } y y y y y y z z z z z A A A A A B B B B B C C C C C C D D D D D D D E E E E F F F F G G G G H H H H H I I J K K K K &.&.&.&.&.&.&.&.&.&.&.&.&.&.&.&.*.*.*.*.*.=.=.=.=.=.=.=.=.-.-.-.-.-.-.-.-.-.-.-.;.",
"] ] ] ] ] ^ ^ ^ ^ ^ ^ ^ / / / / / / ( ( ( ( ( ( ( _ _ _ _ _ _ _ : : : : : : : : : : < < < < < < < < < < < [ [ [ [ [ [ [ [ [ [ } } } } } } } } } } y y y y y y z z z z z A A A A A B B B B B C C C C C C D D D D D D D E E E E F F F F G G G G H H H H H I I J K K K K &.&.&.&.&.&.&.&.&.&.&.&.&.&.&.&.*.*.*.*.*.=.=.=.=.=.=.=.=.-.-.-.-.-.-.-.-.-.-.-.;.",
"] ] ] ] ] ^ ^ ^ ^ ^ ^ ^ / / / / / / ( ( ( ( ( ( ( _ _ _ _ _ _ _ : : : : : : : : : : < < < < < < < < < < < [ [ [ [ [ [ [ [ [ [ } } } } } } } } } } y y y y y y z z z z z A A A A A B B B B B C C C C C C D D D D D D D E E E E F F F F G G G G H H H H H I I J K K K K &.&.&.&.&.&.&.&.&.&.&.&.&.&.&.&.*.*.*.*.*.=.=.=.=.=.=.=.=.-.-.-.-.-.-.-.-.-.-.-.;.",
"| | | | | 1 1 1 1 1 1 1 2 2 2 2 2 2 3 3 3 3 3 3 3 4 4 4 4 4 4 4 5 5 5 5 5 5 5 5 5 5 6 6 6 6 6 6 6 6 6 6 6 7 7 7 7 7 7 7 7 7 7 8 8 8 8 8 8 8 8 8 8 L L L L L L M M M M M N N N N N O O O O O P P P P P P Q Q Q Q Q Q Q R R R R S S S S T T T T U U U U U V V W X X X X >.>.>.>.>.>.>.>.>.>.>.>.>.>.>.>.,.,.,.,.,.'.'.'.'.'.'.'.'.).).).).).).).).).).).!.",
"| | | | | 1 1 1 1 1 1 1 2 2 2 2 2 2 3 3 3 3 3 3 3 4 4 4 4 4 4 4 5 5 5 5 5 5 5 5 5 5 6 6 6 6 6 6 6 6 6 6 6 7 7 7 7 7 7 7 7 7 7 8 8 8 8 8 8 8 8 8 8 L L L L L L M M M M M N N N N N O O O O O P P P P P P Q Q Q Q Q Q Q R R R R S S S S T T T T U U U U U V V W X X X X >.>.>.>.>.>.>.>.>.>.>.>.>.>.>.>.,.,.,.,.,.'.'.'.'.'.'.'.'.).).).).).).).).).).).!.",
"| | | | | 1 1 1 1 1 1 1 2 2 2 2 2 2 3 3 3 3 3 3 3 4 4 4 4 4 4 4 5 5 5 5 5 5 5 5 5 5 6 6 6 6 6 6 6 6 6 6 6 7 7 7 7 7 7 7 7 7 7 8 8 8 8 8 8 8 8 8 8 L L L L L L M M M M M N N N N N O O O O O P P P P P P Q Q Q Q Q Q Q R R R R S S S S T T T T U U U U U V V W X X X X >.>.>.>.>.>.>.>.>.>.>.>.>.>.>.>.,.,.,.,.,.'.'.'.'.'.'.'.'.).).).).).).).).).).).!.",
"| | | | | 1 1 1 1 1 1 1 2 2 2 2 2 2 3 3 3 3 3 3 3 4 4 4 4 4 4 4 5 5 5 5 5 5 5 5 5 5 6 6 6 6 6 6 6 6 6 6 6 7 7 7 7 7 7 7 7 7 7 8 8 8 8 8 8 8 8 8 8 L L L L L L M M M M M N N N N N O O O O O P P P P P P Q Q Q Q Q Q Q R R R R S S S S T T T T U U U U U V V W X X X X >.>.>.>.>.>.>.>.>.>.>.>.>.>.>.>.,.,.,.,.,.'.'.'.'.'.'.'.'.).).).).).).).).).).).!.",
"| | | | | 1 1 1 1 1 1 1 2 2 2 2 2 2 3 3 3 3 3 3 3 4 4 4 4 4 4 4 5 5 5 5 5 5 5 5 5 5 6 6 6 6 6 6 6 6 6 6 6 7 7 7 7 7 7 7 7 7 7 8 8 8 8 8 8 8 8 8 8 L L L L L L M M M M M N N N N N O O O O O P P P P P P Q Q Q Q Q Q Q R R R R S S S S T T T T U U U U U V V W X X X X >.>.>.>.>.>.>.>.>.>.>.>.>.>.>.>.,.,.,.,.,.'.'.'.'.'.'.'.'.).).).).).).).).).).).!.",
"| | | | | 1 1 1 1 1 1 1 2 2 2 2 2 2 3 3 3 3 3 3 3 4 4 4 4 4 4 4 5 5 5 5 5 5 5 5 5 5 6 6 6 6 6 6 6 6 6 6 6 7 7 7 7 7 7 7 7 7 7 8 8 8 8 8 8 8 8 8 8 L L L L L L M M M M M N N N N N O O O O O P P P P P P Q Q Q Q Q Q Q R R R R S S S S T T T T U U U U U V V W X X X X >.>.>.>.>.>.>.>.>.>.>.>.>.>.>.>.,.,.,.,.,.'.'.'.'.'.'.'.'.).).).).).).).).).).).!.",
"| | | | | 1 1 1 1 1 1 1 2 2 2 2 2 2 3 3 3 3 3 3 3 4 4 4 4 4 4 4 5 5 5 5 5 5 5 5 5 5 6 6 6 6 6 6 6 6 6 6 6 7 7 7 7 7 7 7 7 7 7 8 8 8 8 8 8 8 8 8 8 L L L L L L M M M M M N N N N N O O O O O P P P P P P Q Q Q Q Q Q Q R R R R S S S S T T T T U U U U U V V W X X X X >.>.>.>.>.>.>.>.>.>.>.>.>.>.>.>.,.,.,.,.,.'.'.'.'.'.'.'.'.).).).).).).).).).).).!.",
"| | | | | 1 1 1 1 1 1 1 2 2 2 2 2 2 3 3 3 3 3 3 3 4 4 4 4 4 4 4 5 5 5 5 5 5 5 5 5 5 6 6 6 6 6 6 6 6 6 6 6 7 7 7 7 7 7 7 7 7 7 8 8 8 8 8 8 8 8 8 8 L L L L L L M M M M M N N N N N O O O O O P P P P P P Q Q Q Q Q Q Q R R R R S S S S T T T T U U U U U V V W X X X X >.>.>.>.>.>.>.>.>.>.>.>.>.>.>.>.,.,.,.,.,.'.'.'.'.'.'.'.'.).).).).).).).).).).).!."};
