/* XPM */
static char * 3floppy_mount_xpm[] = {
"32 32 15 1",
" 	c None",
".	c #000000",
"+	c #FFFFFF",
"@	c #CCCCCC",
"#	c #CCCCFF",
"$	c #999999",
"%	c #0000FF",
"&	c #9999FF",
"*	c #333399",
"=	c #9999CC",
"-	c #005600",
";	c #00C000",
">	c #009300",
",	c #00FF00",
"'	c #000066",
"                                ",
"    ....                        ",
"   .++++...                     ",
"   .++@@+++...                  ",
"   .+##@$$@+++...               ",
"   .+##$%%$$$@+++...            ",
"   .+##$%%%%%$$$++++...         ",
"   .+##$%%%%%%%%$$$++++.        ",
"   .+##$++%%%%%%%%%$$@++.       ",
"   .+##$+++++%%%%%%%$&&*.       ",
"   .+##$++++++++%%%%$&&*.       ",
"   .+##$++++++++++$$$&&*.       ",
"   .+##$++++++++++++$&&*.       ",
"   .+##$++++++++++++$&&*.       ",
"   .+##$++++++++++++$&&*.       ",
"   .+##$++++++++++++$&&*.       ",
"   .+###$$++++++++++$&&*.       ",
"   .+#&&&#$$$+++++++$&&*.       ",
"   .+##&++##&$$$++++$&&*.       ",
"   .+#&&$$+++&&&$$$+$&&*.       ",
"   .+&#&$$$$$+++&&&$$&&*.       ",
"   .+##&=$$++$$$++&&&&&*...     ",
"   .+#&&$$$++++$$$+&&&&*......  ",
"   .+&#&$$$+@@@$$$+&&&&*........",
"   .*&&&$$$+@@@$$$+&&&&*........",
"    .***$$$+@@@$$$+&&&&*....... ",
"........$$$$@@@$$$+&&&&*......  ",
".-----;....$$$@$$$+&&&&*.....   ",
".->>>>;.  ....$$$$+&&&&*....    ",
".->,,>;.      ...$+&&&&*...     ",
".-;;;;;.         ....***'.      ",
"........            ....        "};
