/* XPM */
static char * 3floppy_unmount_xpm[] = {
"32 32 11 1",
" 	c None",
".	c #000000",
"+	c #FFFFFF",
"@	c #CCCCCC",
"#	c #CCCCFF",
"$	c #999999",
"%	c #0000FF",
"&	c #9999FF",
"*	c #333399",
"=	c #9999CC",
"-	c #000066",
"                                ",
"    ....                        ",
"   .++++...                     ",
"   .++@@+++...                  ",
"   .+##@$$@+++...               ",
"   .+##$%%$$$@+++...            ",
"   .+##$%%%%%$$$++++...         ",
"   .+##$%%%%%%%%$$$++++.        ",
"   .+##$++%%%%%%%%%$$@++.       ",
"   .+##$+++++%%%%%%%$&&*.       ",
"   .+##$++++++++%%%%$&&*.       ",
"   .+##$++++++++++$$$&&*.       ",
"   .+##$++++++++++++$&&*.       ",
"   .+##$++++++++++++$&&*.       ",
"   .+##$++++++++++++$&&*.       ",
"   .+##$++++++++++++$&&*.       ",
"   .+###$$++++++++++$&&*.       ",
"   .+#&&&#$$$+++++++$&&*.       ",
"   .+##&++##&$$$++++$&&*.       ",
"   .+#&&$$+++&&&$$$+$&&*.       ",
"   .+&#&$$$$$+++&&&$$&&*.       ",
"   .+##&=$$++$$$++&&&&&*...     ",
"   .+#&&$$$++++$$$+&&&&*......  ",
"   .+&#&$$$+@@@$$$+&&&&*........",
"   .*&&&$$$+@@@$$$+&&&&*........",
"    .***$$$+@@@$$$+&&&&*....... ",
"     ...$$$$@@@$$$+&&&&*......  ",
"        ...$$$@$$$+&&&&*.....   ",
"          ....$$$$+&&&&*....    ",
"              ...$+&&&&*...     ",
"                 ....***-.      ",
"                    ....        "};
