/* XPM */
static char * adddir_x_xpm[] = {
"24 24 10 1",
" 	c None",
".	c #DDDDDD",
"+	c #B2B2B2",
"@	c #C0C0C0",
"#	c #777777",
"$	c #CCCCCC",
"%	c #CBCBCB",
"&	c #FFFFFF",
"*	c #808080",
"=	c #999999",
"                        ",
"                        ",
"   ....                 ",
"  +@+....               ",
"  ++@++.......#         ",
"  +@@@@+++++..# #       ",
" ###########+.# ##      ",
" @..........#######     ",
"  +@@@@@....#@#.##.$    ",
"  +++@@++@..###.#.$%#   ",
"   ++++++++..##...%##&  ",
"    ###########.$%###&  ",
"   &&&&&........%####&  ",
"        *@@=....#####&  ",
"        @@**=$$@########",
"        @@*&*=$@########",
"        *$=*=$$@########",
"        $$$=$$$%########",
"        ++$$$$$+#######&",
"       &**++$$++######& ",
"        &&**++++#####&  ",
"          &&**+&####&   ",
"            &&**&&&&    ",
"              &&        "};
