/* XPM */
static char * adddir_xpm[] = {
"24 24 11 1",
" 	c None",
".	c #000000",
"+	c #FFFFFF",
"@	c #CCCCFF",
"#	c #9999FF",
"$	c #CC0033",
"%	c #CCCCCC",
"&	c #003333",
"*	c #C0C0C0",
"=	c #666666",
"-	c #999999",
"                        ",
"   ......               ",
"  .++++..               ",
" .+@@@@@+......         ",
" .+@@@@@++++++.         ",
" .+##########@..$       ",
"............#@.%$$      ",
".++++++++++.$$$$$$$.    ",
" .##########.#.%$$%%.   ",
" .##########&..*$%%+=.  ",
"  .##########&.%%%+==.  ",
"  .............%%+===.  ",
"       .***%%%+%+====.  ",
"       .***-%%%+=====.  ",
"       .**..-%%+=====.==",
"       .**.+.-%+=====.==",
"       .%%-.-%%+=====.==",
"       .%%%-%%%+=====.==",
"       .%%%%%%%+====.== ",
"        ..%%%%%+===.==  ",
"          ..%%%+==.==   ",
"            ..%+=.==    ",
"              ...       ",
"                        "};
