/* XPM */
static char * addfile_x_xpm[] = {
"24 24 6 1",
" 	c None",
".	c #FFFFFF",
"+	c #C0C0C0",
"@	c #F5F5F5",
"#	c #C0C0C0",
"$	c #808080",
"                        ",
"   $$$$$$$              ",
"  $$#...$$              ",
" $.$#$$$#$ $$           ",
"$$$$#...#$$$$$$         ",
"$$###$#$#$$##$#$$       ",
"$.......#$##$##$$$$     ",
"$.#$$.$$#$##$$####$$    ",
"$......$$$$$$$$###.$$   ",
"$.$$#$$$#$.#$$###.$$$   ",
"$....@@##$#.$###.$$$$   ",
"$.$#$$$$#$###.#.$$$$$   ",
"$.@#@@#@#$$###.$$$$$$   ",
"$########$$$##.$$$$$$$$ ",
"$$$$$$$$$$.$##.$$$$$$$$$",
"......$$$$$$##.$$$$$$$$$",
"      $$##$###.$$$$$$$$.",
"      $#######.$$$$$$$. ",
"      .$$#####.$$$$$$.  ",
"       ..$$#@#.$$$$$.   ",
"         ..$$#.$$$$.    ",
"           ..$$$...     ",
"             ...        ",
"                        "};
