/* XPM */
static char * icon_32_xpm[] = {
"32 32 19 1",
" 	c None",
".	c #FFFFFF",
"+	c #C0C0C0",
"@	c #CCCCFF",
"#	c #9999FF",
"$	c #6666FF",
"%	c #660066",
"&	c #3333FF",
"*	c #3333CC",
"=	c #333366",
"-	c #333333",
";	c #330066",
">	c #330033",
",	c #0000FF",
"'	c #0000CC",
")	c #000099",
"!	c #000066",
"~	c #000033",
"{	c #000000",
"                                ",
"           {{{{{{{{{{           ",
"           {...#$&,'{           ",
"           {...#$&,'{           ",
"           {.@$&,''){           ",
"     {{{{{{{@#&''')!{{{{{{{     ",
"      {{{...@$&'))!!!~~{{>      ",
"        {{=#$*')!!~~!{{;        ",
"          >{{)!~~~~{{>          ",
"            >{{~{{{>            ",
"              %{{>              ",
"                                ",
"   {{{{{{{{{{{{{{{{{{{{{{{{{{   ",
"   {........................{   ",
"   {..{{{{{{{{{{{{{{{{{{{{..{   ",
"   {........................{   ",
"   {..{{{{{{{{{{{{{{{{{.....{   ",
"   {........................{   ",
"   {........................{   ",
"   {{-{{{{{{{{{{{{{{{{{{{{{{{   ",
"                                ",
"              {{{{              ",
"            {{{..{{{            ",
"          >{{.....@{{{          ",
"        {{{....@@###*~{>        ",
"      {{{.....@##$$*)~{{{>      ",
"     {{{{{{{..@$$**){{{{{{{     ",
"           {@@#&*)!~{           ",
"           {@#$')!~~{           ",
"           {**)~~{{{{           ",
"           {{{{{{{{{{           ",
"                                "};
