/* XPM */
static char * binary_xpm[] = {
"32 32 7 1",
" 	c None",
".	c #000000",
"+	c #9C9CFF",
"@	c #FFFFFF",
"#	c #CECEFF",
"$	c #3100CE",
"%	c #9C9C9C",
"                                ",
"                                ",
"         ...                    ",
"        .++@..                  ",
"       ..+@@@@..                ",
"      .@.+@@@@@@..              ",
"     .@@.+@@@@@@@#.             ",
"     ..@@.@@@@@@@#.             ",
"     .@...@@@@@@@#.             ",
"     .@@@@@@@@@@@#.             ",
"  $$$$$$$$$$$$$$$$.             ",
"  $$@@@$$$@$$@@@$$.             ",
"  $@$$$@$$@$@$$$@$.             ",
"  $@$$$@$$@$@$$$@$.             ",
"  $@$$$@$@@$@$$$@$.             ",
"  $@$$$@$@@$@$$$@$. .           ",
"  $@$$$@$@@$@$$$@$.....         ",
"  $$@@@$$@@$$@@@$$.......       ",
"  $$$$$$$$$$$$$$$$.........     ",
"     .%%%%%%%%%%%%...........   ",
"     .############............. ",
"     .@###########..............",
"     .%%##########............. ",
"      ..%%########...........   ",
"        ..%%######.........     ",
"          ..%%####.......       ",
"            ..%%##.....         ",
"              ..%%...           ",
"                ...             ",
"                                ",
"                                ",
"                                "};
