/* XPM */
static char * c_src_xpm[] = {
"32 32 9 1",
" 	c None",
".	c #000000",
"+	c #9999FF",
"@	c #FFFFFF",
"#	c #CCCCFF",
"$	c #3300CC",
"%	c #3300FF",
"&	c #999999",
"*	c #CCFFFF",
"                                ",
"                                ",
"                                ",
"         ...                    ",
"        .++@..                  ",
"       ..+@@@@..                ",
"      .@.+@@@@@@..              ",
"     .@@.+@@@@@@@@.             ",
"     ..@@.@@@@@@@@.             ",
"     .@...@@@@@@@@.             ",
"     .@@@@@@@@@@@#.             ",
"     .@@@@@@@@@#@#.             ",
"  $$$$$$$$$$$$$$$#.             ",
"  $$@@@$%$$$$$$$%&.             ",
"  $$@$$$$$@$$$@$$&.             ",
"  $$@$$$$@@@$@@@$&.             ",
"  $$@$$$$$@$$$@$$&. .           ",
"  $$@@@$$$$$$$$$$&.....         ",
"  $$$$$$$$$$$$$$$&.......       ",
"     .&&&&&&&&&&&&.........     ",
"     .#@##########...........   ",
"     .##*#######*#............. ",
"     .@###########..............",
"     .&&##########............. ",
"      ..&&########...........   ",
"        ..&&######.........     ",
"          ..&&####.......       ",
"            ..&&##.....         ",
"              ..&&...           ",
"                ...             ",
"                                ",
"                                "};
