/* XPM */
static char * Calendar32_xpm[] = {
"32 32 7 1",
" 	c None",
".	c #000000",
"+	c #CCCCCC",
"@	c #999999",
"#	c #FFFFFF",
"$	c #FF0000",
"%	c #FEFFFF",
"             .....              ",
"            .......             ",
"          ...++@+....           ",
"        ....+++@+++....         ",
"      ..@.+++++@+++#+.+..       ",
"    ..@..++++++@++#+#+..+..     ",
"   .@@.++++++@+@+@##+#++.+@.    ",
"   .@.++++++@++@++@#####+.@.    ",
"   .@.++++@@+++@++#@@###+.@.    ",
"   .@.+++@+++@+@+@###@##+.@.    ",
"   .@.++@+++@++@++@###@#+.@.    ",
"   .@.++++@@+++@++#@@###+.@.    ",
"   .@.+++@+++@+@+@###@##+.@.    ",
"   .@.++@+++@++@++@###@#+.@.    ",
"   .@.++++@@+++@++#@@###+.@.    ",
"   .@.+++@++......###@##+.@.    ",
"   .@.++@++.###.##.###@#+.@.    ",
"   .@.+++..####.###..###+.@.    ",
"   .@.+++.#.########.@##+.@.    ",
"   .@.++.###.##.###.#.@#+.@.    ",
"   .@.+.#######.######.@+.@.    ",
"   .@.+.#######.#$####.@+.@.    ",
"   .@.+.#######.$#####.@+.@.    ",
"   .@.+....####....#...@+.@.    ",
"   .@.+.#####%$#######.@+.@.    ",
"   .@.+.#####$########.@+.@.    ",
"    ..++.############.@@+..     ",
"     .++..###.#.##.#.@.@+.      ",
"     ... ..#.##.###.@@ ...      ",
"           .###.##.@@           ",
"            ......@             ",
"                                "};
