/* XPM */
static char * cdrom_mount_xpm[] = {
"32 32 32 1",
" 	c None",
".	c #000000",
"+	c #999999",
"@	c #CCCCCC",
"#	c #333333",
"$	c #669999",
"%	c #FFFFCC",
"&	c #FFFFFF",
"*	c #CCCCFF",
"=	c #CC9999",
"-	c #99CCCC",
";	c #FFCCCC",
">	c #FFCCFF",
",	c #CCFFFF",
"'	c #99FFFF",
")	c #CCFFCC",
"!	c #99CCFF",
"~	c #CC99CC",
"{	c #666666",
"]	c #CC99FF",
"^	c #9999CC",
"/	c #FF99FF",
"(	c #CCCC99",
"_	c #999966",
":	c #99CC99",
"<	c #996699",
"[	c #005600",
"}	c #00C000",
"|	c #009300",
"1	c #00FF00",
"2	c #330033",
"3	c #003300",
"                                ",
"             .......            ",
"           ..++@@@@+.#          ",
"          .$@%&*@@@@=-..        ",
"         .+@&&&@%@@@@@@..       ",
"        .@%%&&&&*@@@@&&;.       ",
"       .+%%&%&&>@@@@;@,&@.      ",
"       .%@%%%&&,@@@@,>&&&@.     ",
"      .,%%@%%%&&@@@@;&&&&@+.    ",
"      .',%%@%%&&)@@@)&&&&&@.    ",
"     .=,''%%%%%&;@@@&&&;@@@.    ",
"     .!,,,'%)%@+++=>&&)*&**+.   ",
"     .*,,,,'%@@@@@-@&@>@***+.   ",
"    #+**,,,'@@@@*@&&@,@*,>>~.   ",
"    {~*****,-=@$##&@@>**>~>].   ",
"    .^]*****+@+.&&.@+@>>/>*~.   ",
"    .^,~***>~^(+&&.@(*]>**]!.   ",
"    .^**]>/>+(^+&&.@+******@.   ",
"    .^~>>*~*(*&@_.@@~@******.   ",
"    .+*@]**@&@&&*@@+@'',,**!.   ",
"     .]***;,&@@@(@@@@&,',,,+.   ",
"     .:*,&@&&&+<^$+&%)%,,,@.    ",
"     .~@&@&&&&@@@@&&%%@%'',.    ",
"      .&@&&&@@@-@;&&%%%%%,;{    ",
"      .@&&&&@&@@@@&&&%%%@;+#    ",
"       .@&&@&@&@@@*&&%%%&-...   ",
"........@@&&@@@@@%@%&&%%@#.#..  ",
".[[[[[}..@@&@&@~^@@&&&&@#....   ",
".[||||}. .@@@@@@-@*&&&@{....    ",
".[|11|}.  #.@@@@@@@&^+.....     ",
".[}}}}}.    ..:@~@+{.....       ",
"........      #2#3###.          "};
