/* XPM */
static char * collabra_xpm[] = {
"47 47 15 1",
" 	c None",
".	c #0000FF",
"+	c #008183",
"@	c #C5C2C5",
"#	c #000000",
"$	c #6265CD",
"%	c #313062",
"&	c #FFFFFF",
"*	c #FF0000",
"=	c #838183",
"-	c #FFFF00",
";	c #008100",
">	c #9C99FF",
",	c #4199A4",
"'	c #202020",
".+.+.+.+.+.+.+.+.+.+.++.+.+.+.+.+.+.+.+.+.@#   ",
"+.+.+.+.+.+.+.+.+.+.+..+.+.+.+.+.+.+.+.+.@#    ",
".+.+.+.+.+.+.+.+.+.+.++.+.+.+.+.+.+.+.+.@#     ",
"+.+.+.+.+.+.+.+.+.+.+..+.+.+.+.+.+.+.+.@#      ",
".+.+.+.+.+.+.+.+.+.+.++.+.+.+.+.+.+.+.@#       ",
"+.+.+.+.+.+.+.+.+.+.+$$$$$$$$$$$$$$$$$$$$$$$%  ",
".+.+.+.+.+.+.+.+.+.+.&.&@@*&@@.&@@*&@@.&@@*$%  ",
"+.+.+.+.+.+.+.+.+.+.+&&&&*&&&.&&&*&&&.&&&*@$%= ",
".+.+.+.+.+.+.+.+.+.+..&&&&&&&&&&&&&&&&&&&&@$%= ",
"+.+.+.+.+.+.+.+.+.+.$$&-;;;-&-&-&-&-&-&-&-@$%= ",
".+.+.+.+.+.+.+.+.+..>>&&;;;&&&&&&&&&&&&&&&.$%= ",
"+.+.+.+.+.+.+.+.+.+>>&$-;;;-&-&-&-&-&-&-&.@$%= ",
".+.+.+.+.+.+.+.+.+>>&&$$&&&&&&&&&&&&&&&&&&@$%= ",
"+.+.+.+.+.+.+.+.+>>&&&&$$-&-&-&-&-&-&-&-&-@$%= ",
".+.+.+.+.+.+.+.+>>&&&&&&$$&&&&==&&==&&&&&&*$%= ",
"+.+.+.+.+.+.+.+>>&&&&&&&&$$-&-==&-==&-&-&*@$%= ",
".+.+.+.+.+.+.+>>&&&&&@&&&&$$&&==&&==&&&&&&@$%= ",
"+.+.+.+.+.+.+>>&&&-&@=&-&&&$$-==&-==&-&-&-@$%= ",
".+.+.+.+.+.+>>&&&&&@=&&&&&&&$$==&&==&&&&&&.$%= ",
"+.+.+.+.+.+>>&&&-&@=-&@=&-&&&$$-&-==&-&-&.@$%= ",
".+.+.+.+.+>>&-&&&@=&&&=&&&&&&&$$&&==&&-&-&@$%= ",
"+.+.+.+.$>>&-&-&@=-&-@&-&@=-&-&$$-==&-&&&&@$%= ",
"+.+.+.+.+>>>>>>>>>>>>>>>>>>>>>@-&$$@&-&@&*@$%= ",
".+.+.+.++.%%%%%%%%%%%%%%%%%%%%#@&&$$@&@&-&@$%= ",
"+.+.+.+$.%$>>>>>>>>>>>>>>>>>$$%#@-&$$@&-&-@$%= ",
".+.+.+.$%$>@@@@@@@@@@@@@@@@@@$$%#@&&$$@&@&.$%= ",
"+.+.+.+$%>@@-&-&&-&&&&&&&&&&@>$%#=---$$@&.@$%= ",
".+.+.+.$%>@-&-&-&&-&&&&&&&&&&@$%#=@-@-$$@&-$%= ",
"+.+.+.+$%>@&&&,++&+++&++&&&&&@$%#=-@-$$@&@@$%= ",
".+.+.+.$%>@&&&,++&++'&'%&&&&&@$%#=@-$$@&-&*$%= ",
"+.+.+.+$%>@-&&&-&&&&&&&&&&&&&@$%#=-$$@&@&*@$%= ",
".+.+.+.$%>@-&-&&&&-&&&&&&&&&&@$%#=$$@&@&-&-$%= ",
"+.+.+.+$%>@&-&++''@@+'@+''@&&@$%#=$@&@&-&-@$%= ",
".+.+.+.$%>@&&&++%'@@+%@+%'@&&@$%#=@&@&-&-&.$%= ",
"+.+.+.+$%>@&-&&&&&-&&&&&&&&&&@$%#=&@&@&@&.@$%= ",
".+.+.+.$%>@&&&-&&&&&&&&&&&&&&@$%#=@&-&-&-&-$%= ",
"+.+.+.@$%>@--&+'''@'''&+''%@&@$%#=@*&@.@&-*$%= ",
".+.+.@#$%>@-&-+%'%@%'%&+%''@&@$%#=*&@.-&-*@$%= ",
"+.+.@# $%>@--&-&-&-&-&&-&&&&&@$%#=###########= ",
".+.@#   %>@@&-&-&-&-&--&-&&&@>$%#============= ",
"+.@#    %+>@@@@@@@@@@@@@@-&@>$%%==             ",
".@#      %%>>>>>>>>>>>>>>>->$%%==              ",
"@#         %%%%%%%%%%%%%%.@$%%==               ",
"#                        %$$%==                ",
"                          %$%=                 ",
"                           %%=                 ",
"                                               "};
