/* XPM */
static char * composer_xpm[] = {
"47 47 15 1",
" 	c None",
".	c #008183",
"+	c #0000FF",
"@	c #C5C2C5",
"#	c #000000",
"$	c #FFFF00",
"%	c #838183",
"&	c #313062",
"*	c #FFFFFF",
"=	c #838100",
"-	c #202020",
";	c #000083",
">	c #830000",
",	c #FF65CD",
"'	c #00FFFF",
".+.+.+.+.+.+.+.+.+.+.+..+.+.+.+.+.+.+.+.+.+.+@#",
"+.+.+.+.+.+.+.+.+.+.+.++.+.+.+.+.+.+.+.+.+.+@# ",
".+.+.+.+.+.+.+.+.+.+.+..+.+.+.+.+.+.+.+.+.+@#  ",
"+.+.+.+.+.+.+.+.+.+.+.++.+.+.+.+.+.+.+.+.+@#   ",
".+.+.+.+.+.+.+.+.+.+.+..+.+.+.+.+.+.+.+.+@#    ",
"+.+.+.+.+.+.+.+.+.+.+.++.+.+%#.&.+.+.+.+@#     ",
".+.+.+.+.+.+.+.+.+.+.+..+.+@$%#.&.+.+.+@#      ",
"+.+.+.+.+.+.+.+.+.+.+.++.@@$@*%#.&.+.+@#       ",
".+.+.+.+.+.+.+.+.+.+.+..@$*@*@%%#.&.+@#        ",
"+.+.+.+.+.+.+.+.+.+.+.+@**@$@*@%%#.&@#         ",
".+.+.+.+.+.+.+.+.+.+.%@**$***@*@%%#@#          ",
"+.+.+.+.+.+@&=+.+.+.%@*$**@$@*@*@%%#%%         ",
".+.+.+.+.+.%$=-=-;%@**$**$***@$@*@%%#%%        ",
"+.+.+.+.+.+=@$===>-*$**$**@$@*@*@@@%%#%%       ",
".+.+.+.+.+.+%*===>-***$**$***@*@*@@@%%#%%      ",
"+.+.+.+.+.+.=$,-==-=@**$**@$@*@*@$@@@%%#%%     ",
".+.+.+.+.+.+=$*>==>-*@$**$***@$@*@*@@@%%#%%    ",
"+.+.+.+.+.+@=@$**==>;@*@**@$@*@*@*@@@@@%%#%%   ",
".+.+.+.+.+@*%@@$$*=%-;;**@*@*@$@*@*@@@@@%%#%%  ",
"+.+.+.+.+@**==%%*$*=-;-*@*@*@*@*@*@*@@@@@%%#%% ",
".+.+.+.@*******=%$$.-##@*@*@$@*@*@*@@@@@@@%%#%%",
"+.+.+.*********@%%.-###-@*@*@*@*@*@*@@@@@*%##%%",
".+.+@**$****$***@#;..###-@*@*@*@*@*@@@@@*%##%%@",
".+.#-@*******$**$**.%'.###-@*@*@*@*@@@*%##%%@  ",
"+.+.#-@$****$**$*$*$.%*####-@*@*@@@@@*%##%%@   ",
".+.+.#-@$*$*****$*$*$.%.####-@*@*@@@*%##%%@    ",
"+.+.+.#-@$*$*$***$*$**.*.####-@*@@@*%##%%@     ",
".+.+.+.#-@$*$*$*$*$*$**%*.####-@*@*%##%%@      ",
"+.+.+.+.#-@$*$*$*$*$*$*.%*.####-**%##%%@       ",
".+.+.+.+.#-@$*$*$*$*$*$$.%*.####-@##%%@        ",
"+.+.+.+.+.#-@$*$*$*$*$**$.%*.####-#%%          ",
".+.+.+.+.+.#-@$*$*$*$*$$*@.%*.####-%           ",
"+.+.+.+.+.+.#-@$*$*$*$**$**.%*.####-           ",
".+.+.+.+.+.+@#-@$*$*$*$$*@*@.%*.###+# ##       ",
"+.+.+.+.+.+@# %-@$*$*$**@*@*#.%*.#+-## ##      ",
".+.+.+.+.+@#   %-@$*$*$@*@*##%.%@;-#### ##     ",
"+.+.+.+.+@#     %-@$*$**@*##%%%.'%###### ##    ",
".+.+.+.+@#       %-@$*@@*##%%% +%..###### ##   ",
"+.+.+.+@#         %-@@**##%%%% @.*..######@##  ",
".+.+.+@#           %-@@##%%%%   %.*..######@## ",
"+.+.+@#             %-*#%%%%     %.*..######@# ",
".+.+@#               %-%%%%       %.'..####### ",
"+.+@#                 %%%%         %.'..####%# ",
".+@#                   %%           %.*..###%# ",
"+@#                    %             %.*.@#### ",
"@#                                    %.%'###% ",
"#                                      %####%  "};
