/* XPM */
static char * login_xpm[] = {
"396 134 18 1",
" 	c None",
".	c #75A3C2",
"+	c #A3C2D7",
"@	c #4885AD",
"#	c #D8DEDF",
"$	c #CDD3D3",
"%	c #E6EAEA",
"&	c #F3F5F5",
"*	c #C3C7C4",
"=	c #9FA09F",
"-	c #B7B9B6",
";	c #ACACAB",
">	c #24201C",
",	c #4A4643",
"'	c #767473",
")	c #FFFFFF",
"!	c #909090",
"~	c #000000",
"                                                                                                                                                                                                                                                                                                                                                                                                            ",
"                                                                                                                                                                                                                                                                                                                                                                                                            ",
"                                                                                                                                                                                                                                                                                                                                                                                                            ",
"                                                                                                                             #           ##          #          ### #       # #         # # #      # $ #                                                                      #                      $      #                                                     #                                         ",
"                                                                                                                                       #            #         #      ## # #     # # # ##   #  # # * *    # # # #          #          # # #                         $ * *             $              $  * $    # # # # % &             &   % % % # %  %    # # #    $ # # $                                  ",
"                                                                               * *                   # #          # #    #  # *## # #$  # # #   % #   $## # # # # $#$ $# *#$$### $ # * $$$# *# * *# ***$  $ $   $           $ $ $ *$ $ *  *     # # $ *  $ ** *$ *  * * -******- $     $     $ *$ *  * ;- - $  # # # % %  &  & %    &  #%  % # # # #  # # # * $##   $  *  * - * # #                         ",
"                            $                     %   % #                 *  *     * * ** * * $ $ $$$ *  $ # ###$* $  # # #$ $#  * $ #*#$* $ ### * ### # ## #$#$#$$  * $* $ $ $ $#$$###* $ #$ $$* *$$ * ** * $*  - $ $ $ $ * ; * *  * - ** **$*    * - *-    ; - * * - *  -    *; *-; * ***** ; -; *; ;  = - $#$ # # %  % % % # %# %  %% ## #  %# ##### #  * $ # $$* - * * - * #     #                      ",
"                     * * * * * *        *   #  # #  ## #  #           * * - ; ; --;  * - - - ** $ *  * $*#* * * * * **$* $* ** $*$$#* #* ##$*$# ######$$** $#* #* #$*$$$#$$*$$$$* * * * $$** ** #*** * $* * $- $; - * * * **;-;-- *! -**- +- * ***; = *; *--; ; ; ;;= -+-! +;-=  -;  ; ; - *  * ; -; --;;--*- # # %%# %%%# %% % % # %## ## ##### ### # * #* $#*$*$+ **-*-*---*#$ #$ #                       ",
"                 * * * - *  -    * *  *   *  #  # # # # $# #$## -*-*** ; = ; = !* ;;; ; - =-* -** - -$$$ $ *## *$*****$$** **$**$$*$ *$ **$$$$*## # #$###$**# *$#*$$#$$$$$$#$#$##*$***$$*$$$*$#**$$$**** **** -* =*******-- ! ; ==; !; ; ;**--;* - !-;+ -+ ; =;--;; ;== ;-;* ; !;+ ;- =;;-- =;+*-;- =; ; ; ;*$##### #%# #%%# #%#%#%#%% #%%## %%%## $##*$####$ * * **** - ; - # *$$ * $# $#                  ",
"               *   * ;- ; ;  - -    *   *   # $ # #  $ $ $* * -* * * **-; = =;; =; =-; =-; ;-; ;*-** * **$$# *$ *$$ ** *$$*#$$$$*$$**$**$$***$$******$*$$**$*$$$##$$$$$$$$$$$$$$#$###*$$$$*$$*$$$* ******$ ****-;*$ ******-=;==!;;;;+;;-;-; ;- ;--;=; =;+--;!-- ;-;;- !;* ;;;+;+*-;+*;+ ; !;+ - ; !;-;=;!==; ; $# $$##$$# #%#% #% #& #%%% #%#% ###$# $$*# *#$**-*-** ;--;--$$$$#$**$* *  $ $                ",
"             *   - - ; ;;--;= ; * *- * -  $  # #$$$$$#$$- *-*; *****- * !=;!; ;;;;== ==--;;= -! - *****$$$$**$$$$$-***;*#*$$$**$$$$#$#$#$$*###$$$$$$$$$$$$$$$$****$*$*$**$*$$$#$$$$$$$#$$$#$$#*$***********$$*;;;*--+*-*+-----;--+---;+;;;!!;;;;-+;=!!=-;;-;;+;;+*+-;;*-;;*+-***--; -*-;;;--;;;==;;= ;;;;;;=!;*$$*#$* $$$$##%%#%##%##%%%##%%%### ####* $$$$$$******--**-**######$#+ $*$***** #              ",
"              * * ; ;;;! ; ; ; -    - ; *- #*#*$$ * $* --;-***-- ***$**-!;;;;!!;;;;;!=-= -*;!;+;;;-******$*$$#*$$$**$******$$$$*$$$*$$$$**$*$**#$$$$$$#$$$$$$$$$#$$$$**$$*$*$***$**$*$**$*$***$*$***$*********;=;*******-+;;;;;;==;!;!;--+-*+-+-;;=!;;-=;;;;-**--***+---;;;--;---;;;;-;;;+;;;;;;+;;;!=;;;;;;;-*$$#$$$**$$$$###%%%%%#%%#%###%#%%######$**$$$**********--*$######$$$#**+ * *  $ #             ",
"          # *  ; ; =- =-;;=!;;; --;; = =- **#$ $#***--=;*****-**;-* **$*;=;;;!;;!;;==;=;==-;=;**-;;;+$*****$$$*$$#***$$**$**$$$*$*$$$$$$$$$$$$#$$$$$$$$$$$$$$$*$$$$$*$$$$#$#$$$$$$$***$*********************--;!=--**-;;;;;!=!!!!;=;=;;;;--;*-*--;;=+-;=;;-;;;;;----;;--;+;;;;;;;;+-;;;;;;;;;;;;;;;;;;;;;;==;;-$$$$$$$#$$$$$$##%#%#%####%%%#%#####%##$$#$$*********---*$######$$$$***#+*-+$*$* $            ",
"             ; =- !-;!;;;;;;; !-*;-=!!!--*$#$***$-;;;;**---*;********$**;!=;=!;!!=!!=;=;;;;;!;;;;;;**********$$*$$$-**$$****$$$**$*$$$*$$$$$$$*$$$$$#$$$$$$$$$$$**$$$$*$$*$*$*$*$$$$#$$$$$$**#**********-**--;!!=-;-;=!=;;!;!;;;!;;;=;=!-;;;;*;-;;;;;;;+-;;;;;+*;;;;;====;;;+;+;.-;==!;.;;;;+;.-;;.;;.;==;=!!=;**$$$$$$$$$$#####%#%#######%#%###%%%####$$#$**-**-----*$######$#$$*$*$$$*$$** *              ",
"           - *! ;! ; -! -;=!!!-*;==;=!=-**$******;;-------*-;*-***-*****-!!===!=;!!;==;==;;;=;;;-+-****$*$**$*$***#**$*******$$$*$$$$$$$$$$$*$$$$$$$$$$$$$$$$$*$$$****$*$$$$*$$$$*$$$*$*****$#*********-*--*;;!!;;--;;;-+;;-.;+;.=;-+;;;.;-+;-;;-.!!=!=!=!!;@;;;-+;*.=;+;;+;;!=;;!=;.!;;====;;;=!;;=;;;;.!==!==-**$$$$$$$$$#$##$#%#%##%%#%#%#####%########$**--------$########$$$$+*********+**$ #          ",
"          * -   * ; ;= =;=!;=;*;====!;;-*****;;--;;--------;*-***;--***--=!!!!;======;;===;;!=;;-*****+**$***$$$$$#**$*$$$***$$$***$*$$$****$$$$$$$$$$$$$$$$$$**$$$$*$$*******$*$$$**$$**$$$#*********$$*;*;=!!!;-;--==!;;!==!=!;!!!!=!!!!=-;;;-+-!!!==;=!!==!!!!!!!==;;-.;;=;.=!=+;;;=====;=;;;;====!==;;!=!==;*###*$$$$$$$##$$###%#######%#%#$*$$*$#$$#$$+*-----;*$###$$####$$$*$****+*+ *$* $            ",
"              -  ; ; ;;;;!;=!-*;!==!=;;;*-;;=;--;;;;;;----;;-*--;-****-;-;'!!=!!!!==!=!;===;!;;;;-;;--********$*$$$#******$***$$*$$*$$$$$$$$$$$$$$#####$$$$$$$$*$$$**$$$$$$$$$$$$*$$$*$$*$$$$**$**-**$**$*;-;.!!=;*;=====!==!!!====!====!!=;;!;+-=!=;!;;;;;=;=!!!!!!!!!!!!!!.====.;!=.=!!;.;;;;=!=.;==!=!!=!=!=;*$$$$$#$#$$$#$$#######$#$#%#%###***###$$$***----;;*$#$$$#$$##$$$***+$+****-+ +$ $ *         ",
"           *   - ;  = = '=;!;*;==!=!=;====;=;;;;;=;;;-;---;-*-*--***----;;!'!=!'==='!!!=!==;!;;;+---+**;*-******$*$$$***-*****$$$*$*$$$$$$**$$$$#$$$$$##$$$$$$$*$$$*$$$$$$$$$$*$*$****-*;*********$*;-****;=;-!'--*;-+-+-;;+-+-;;+;+-++-+=;+--!;;!.-+;;.;+;=;=;;=!;;;.;;;=!==!!!!=!!!!!!!=;!;;.;=;;=======!==!!;;*$$$###*$$$###$$#$##%##########$**###*$*-----;;**#$$$$$$##$##$*$*$***+**-*** *     #       ",
"            *     -   -;;===--;!!==!=!!!==;;=;;;=;;;;;-;-;----;;-*******-;=!!!=!!!!!!===!==;!=;;--+;**--*-**-**$$*$#*---*****$*$$$*$$$$$$*$*$$$$$$#$##$$#$$$$$$*$$$*$$$$$$$$$$$$$$$$**;*****$**$-*#******--;==!=-;;----;!====!===========!=---=-+-;!==;===!!====+;==--=;;;;=======!=!!!!=====;;====;.=====;!;.!=;**$#####$$$$##$$$#####$##%######$$$***---;;-;**$###$$$$*$###$$*$+$+***;*+* ** *$$          ",
"                 *  -;= =;=;*-=!==!!=!!;;;;==;;;=;;;;;;-;;;;;;--**-******-;!!!!!!!!!!!!=!!=;==;;;;----;*+-***+*$$$****$$$**$*$*$$$$$$*$$*$$$*$#$#$#$#$##$$$$$$$*$$$*$$$$$$$$$$$$$$$$$*;--**$**$****$$$+**$*+-+==---*--;;!=;-;=!===!'==!=;=;--;;+--!!=!!!!!!!=!==;;==;;+=+;;=========!=========;;;;;=;;=;;;;;=;;.=;*####$#$######$#$$#$#%###%######$**$-;--***$$##$$#$##$$$$$$*$******-**+**; $ *  $         ",
"             * *  *  ; !!;!;;;!=!=!===;;;;==;!;=;;;;;;-;-;;----*-*******-;==!=!====!=;=!===;==;;+;;-+*;+-*--$$*$*$*-*$$#$#****#*$$*$$$$*#$$$**$$$$$$$$$*$$$$$$$*$$$*$$$$$$$$$$*$**$$$*;==****$****-**$**-*-;--=;+----------;;;-==-======;-------;=!!========!===;;.=;=;====.===.=======!=====;;;;==;==;;.;;====;;;*#$############$##$###%##%####%#******$####%##$*-##$##$$*$****+**-+*** $ ** *             ",
"       #        -  =;;=;;!;-;!=!=!!==;;========;=;;;-;;;;------------*-*----!!==!====!=;==;;==+;-;+--;****-+***$$*-*#$#$$$#$$$#$*$$*$$***$$##$*$*$$$$*$**$$*$$$*$$$*$$$$$$$$*$$*$**$**;-*!*$*********-*$**+;+-;=----**----=!=-;;=;='===;;-;-;=---;==;=+;;;==+;+=.-;+-+;;=;;==.=======!=.=;=;;=;;;.;=;;;;;=;;;====-*$$##$##########$#$##$##$########$#$$####$#$$$$*-***$#$*********+******+**$ +* $          ",
"                 ; ; ; =;=;*;!!=!===;;=;;;=====;;=;;=;=;;-;;;-***--*;*****-;!!!!!==!=======;=;;;;-;-;;*;-*-*-***$**$$$$##$$$##$#$*$$****$$$$$$#$$$$$##$#$$$$$**$$$$*$$$$$$$$$*$*$$*$$*;-#;;*$*********-***$*-+-=---+***-;--;==;-;!!'==---;;--;=-+;=-+-;---;+--+---+-*-++-.-+=!!=====.==;;=;;;;;;;=;;=;;===;;;=====-*#$$##############$#$$#########$#####$*$$####$$$$**$$************+***#$+*+*              ",
"               *;  - ;!!;=*-!=!!!!==;=;==;==;=;;;;=;;-;;;;;;****-****-*$*-;=!'!=========!====;;;+;;-+;-;*--*-+*$***$$$$$$$###$#$$*$$$**$$$$*$$$$$$$$$$$$$$#$$$$$$$$*****$$$$$$$*$******------**************-;-;=--*--+*-;-;!!'=!.==;;;---;-;--=;-+=!!=!!=.!===!============!!!!!=!==!!=;;=====;.-;==;;-;=;=;=;====;**$########%%######$#####$##%#######$$$$*$$**####$$$$$********+*+***** $   #             ",
"           * *    ; ;; =!-*;!!!!!==;;;;=;;;!=;;+;=;;-;+-------+*-******$**;===!!=!===!====!;!;;;;;+-;-;+**--***$*+$$$$$$$#$$$*$$*$$$$$$$$$$$*$*$$$$**$$$$$$$$$$$$$$$$*$$**$*$*;*;;*-**-;-;;;=;---*-*********;--=-----*-;;;-.;-;;;--;=-;;;-;.;-==+;;!==;===;;====!!!!==!!!!'!!!!.=.====!==.=;;;;;;;;;;;-;;;;;;=;=;;;-$#$######%#############$###$**#####$$$*$$$$####$*******-+*+*+****+***+*$* * $           ",
"               -     !; =*-!=!==!;=;;;;;!'',,,,,!=;+------+--**-!',,,>,'!-;--;!!==!!!!'!'!!!'!!!=;-;;+**;!!!!!=!=!=!!=!===**$-!=;*$*$$$$*!!;*$$$$$$$**$**$***$*$$$$$$$*$$**;-*--***$$**#*;=!;**-**--;---****-;-!=------------.-.=!-+==--.+;;---;-+-!!+-------+-;-=;;=;;;;====!=----===.=====;===;-;-;;.;;-;;.;;====;*###%###%#%%#%%#####$$$$$$$#$**$#$#%#$*$*$##$$$$******+$*****---**+* *  *               ",
"                *- -= -!**-=!==!!=;;;==',>~>>~>>>>';*-*+;-;;**!,>>>>>>>>>,!-*-!!=!=,>>>>>>>>>>>>,';;**-*=>>>>>>>>>>>>>>>>,*##'>>>;#$$$*-',','*$$$$$$$$$$$$$$$$$$$$$$$****=;*$**--;-$$***#-==;-*******;;--;----+==;;+-+----;===---.--;=----*-+-+;;-+==--+---+---+--.---;-==;;==-.--.-;;;=;;=;=;===;==;==;;=;;=;;;===;*$##%%%%%%#%%%%%###$$#$$$*$##$$*$$$****$$$$$***$$$$$$$$***+*+*+--**-;*-- $$             ",
"            - - -  = ==-**;===!!=;;;;=>>~>>>>>>>>>>>-+-*;--;;,>>>>>~>>>>>>>,**;====,>>>>>>>>>>>>>>>;+-*-=>>>>>>>>>>>>>>>>,$##'>>>-#$$$*,'>,,''$$$#$$$$$$$$$$$$$$$$$$$$*;;*$$**=;;-;*$$****;;;**$*****-;--*---;-==-;--+--+-.--.--;;=;-!;----+----;-+;=;---+--+-+--;;+-.--=.;-==;--;-;.;;--;;;;;=;==.;;=;;;;=;;=.=====;*###%%%##%##$%#%%###$#$$$$$$##$$$**$$$$$*$*$*$$$$$$$$$$$$*****---***+- **  #           ",
"          *    - ;=;=;; --=;==!===;==,>>>>''!!''>>>>,-$*-;-;,>>>>,!;;=',>>>>'-;;==!'>>>,,,,,,>>>>>>,***-;~>>>>>>>>>>>>>>>,#$$'>>>-#%$*-'!,'>!,*##$$$$$$$$$$$$$$$*$$$$*;*$$$$*$*=*--;*$$$$$*;;-$*******;;****-;;=!+*-+--+----;==!=!=.-=;--+----+--+*+==+-+-+-----+----*-;.;;=;=;;=;;;;-;-;;;.;;--+-;-----=========!==;-*########%$##%###$####$$$*$$##$$$#$$#$***$$*$$$$$$$$$******---+*+* * $  $             ",
"            ;-  ; - =;=-*;;=;==!;;;;,>>>,=*$$#$$-,>>>,$*;;;'>>>,-#######-'>>>'--;==,>>,-*$$**$*=,>>>=$*-;>>>!$$*#$$##$#$#####'>>>-###$;'!>>,;'*####$$$$$$$$$$$$$$$$$--**$$$$$$$*--;--*$***--;;*********=-***-+*+=;-**---+-;;!!=;----+-=---+---*--;-*-=;-*----+-+--+;+------;==-.;--;====;;;=;=!==--==.-+--.======!==;-*$######%$#%%#%#######$$$$$$$$$**$$$$***$$$$$*$$$$$$$$$***-+***-*--*-*--**            ",
"               *  -' ;-*-;==;===;;;'>>>,-$$#$$$$#$,>>>-$*-!>>>>;###%#%###->>~>;-;;=,>>,*$$$$*$*$=>>>'#**;>>>!############%###'>>>-%%%#-'!,!,!'$###$#$$$$$$$$$$$$#$$;-$;;$$$$$$$$*;-;-********--*----*--;-*-*****;---+------==.-.;.==-==.----+--+---++=;--+*.--*-+---------;===-;=;.--;====;=!.==!=======;+========!=-=;*$########$####$#$$$#$#$##$*****************$**$**$$***+****-*****$*                 ",
"            ; ;  == ;' -;======;;;=,>~,;$$$#$$$$$$->>>'#**,>>>;###%#%#%###!>>>'**;!'>>,*$$$$*$$$*,>~,$*$;~>>=##%######%#%%###'>>>*%%%##!',=,,*###$$#$**$***$*$*$$$--$;*;;*#$$$$*-*******$*$*$**$****-*-;;*$**-+*+=;-;;+--.---;=====--+=;---+----*;--*+=;+*-----+--+----.-.--;;--;--;;;;;========;;;====!;-='!==!=;===----*$$$$$##$#$$#$$##$*$$$#$$$$*$**$****$******$$*$$$******-*---**+** **$              ",
"                - -;;-=;=;!!!;;;;;!>>>'*###$$$*$***,>>'$*->>>,$##%#%######*,>>>-*-;,>>,*$##$*$*$-,>>,$#$;>>>!%###%$$##%######'>>>*%%%###;''';#%###$$*$$**$*$**$$#-;$**;*-;****-**$$$**$$$$$$*$************-+---*-;;+-;;----;----+-;==-==;--;-;=-;-;----=---+-+-------+-----;;;-.;-;;;=.;==.=;;;--+--;--=;=''''===!==;=*$$$*****$$*$$$$*$$*$$*$$$$$$$$**$*******$*$$$*$$$*$*$******-+*+**$*;** $$            ",
"            * -  ; - ;-;;==!===;;;'>>>=$$#$$$*--;**$$$*$*!>>~!###%%#######$'>>>=$*;,>>,*$$$*****;,~>,##$;>>>!##%##$*#########'>>>-%%%####$$#%%####$#$$$$$$$$$$$$*;*$*$*;-*;--*$$$$$$$**$$$$$*$***$****$***$*--+-+;=;-;--;-;;-;;=!!===-=!;-.--;;.;---+-+==----------.----+---=---;.---;;====;;;;;;;;;-==!!!'!''!==='!=--$##$$$$***--**$$$***$$**$$$#$**$*$**$*$*$$*$$$*$$$$$*****+*****$* * * $              ",
"             -  ; ;;=**;==!==;;;-;,>>>*$###**;;----*$$#**'>>>;##%####$$$$$#=>>>!$*;'>>,*$$*--;-;!>>>!$$$=>>>!#$$$*******$$#$$'>>>-%%%######$$#%##$$$$$$$$$$$$$$$;*$$$$$$;;*;*$**$**$$$**$***$*******$$$$+***$----==-;=-;.----====;+-+-+;=-----;;--;;---+=;+--++.---+----;+---;--;;-+.-;-;=;-+---===;=!'!='!!!==;;!!!!!-*####$$$$$$******$$******$$*$$$$$*$$$+*$$$$$*$$$$$$$********--**-;--*- $#$           ",
"            ;  ! ;! *- ;====;;;-;;,>>>$#$#*-;;;;;-;-*$$**,>>,*#%%###$$$$*$$->>>'$$*,~>,-***;;=!'>>>,*$$#;>~>,',',',',',''$$$#'>>>*%%%###$##%#$$$###*$$$$$$$$$$$--*$$$$$$$**$**$$$$$$$$$**$$$$***-*$$$**$**$$*--*.;=-;;-----------;====--;=----;-------+-==;-+-----+----;-;---;;;------.;=;=;;;-.;=-.;!!=======;;!!!!!!'-$##%####$$$$*************$$$$$$$*$$*$*$$$$*$$$$$*$$$$******+*****$$$ #              ",
"          *  ;;;=; '**!!!;=;;;;-+-,~>,#$#$*-;;+;;+-*****-,>>,*#%###$$$$$$$$->>>'$$-'>>>>,>,>,>>>>>,-$###=>>>>>>>>>>>>>>>>###$'>>>*%%%##########$*$$#$*$*$$$$$$*-**$$$*$****$$**$$$$$$$$$**$****$$*$*$**$**$**--***;;------+-----;!!==;-+;!;--.;---+------!=-;-+-+---+-+;;;-------;=-----+-;==-;;;;--*--;;;;=;-;!!=====!=*####%%%%###$*---*******$$*$$$**$$*$$$$$$$$$#$$$$$$*$*$**+*****$$ * $  #            ",
"        *  ;; ; =;=$ ==!==;=;;+--;,>>,$$$**;+-;;;-;--**--,>>,*%####$$$*$$$*->>~'$$*,>>>>>>>>>>>>>>'####$=>>>~>>>>>>>>>>>,##$#'>>>-%%####$#$######$**$$$$$*$$$$***-*$$$$$-$$*$$***$$$*$$$$****$$$**$**$$*$**-**-**-+=----------;-.---+-+;!!;+;-----------+-=---;;-+;-+;-+=-;---;---=.-;=;-;;==-+-----+-+--==--=!!==;-;==-+-*##*$#########$$**$********$$$$$$$$$$$$$$$$#$$$$$*$*******+$* *$ $ $              ",
"             ; =; -*;;!!===;;--;;;,>>>$$$*+-;;;;;;+--*+--,>>,*####$$$$$$$$*;>>>'$$*'>>>>>>>>>>>>>>>'##$$=>>>'!!!!!!!!!!!=####'>>>-%%%###$$#########$$**$$$$$$*;-*-;;*$***$$$$$$$**$*$**$*$*$#$$$$-*$$**$*-****--*--=;-;.-------;+----;=!.---------*------+-;;+-+-;--;+-+;-;--+;;;--;--;--+---;;;;;;-----+;=-;!!==---==;===*##***********$$$************$$$##$$$$#$$$#$$#$$$$$$$*****$$**$$*#* $#            ",
"           -! ;= == -=====;;;;--;;,>>>$$$#*-;;;---*;;;;;='>>>-#%##$$$*$$$$*=>>>'$#$,~>,;-----;='>>>,*##*=>>>!##%###$$$#######'>>>-%%%##$###$#$#$#$####$$*$$$#-**$$$*;;-*$$$$$$$$$**$*$$$$$#**$$***-**$***-***-;--+-;=--;--++--;-;=.==.;-;--=--;-------;-+-+-;--;+-+---;-=---+---;--;-;-+--;.;=;-;--==+----=.!!==;--;;==!!-*###$*---;-----$$$*-*******$*$$####$$#$$##$#$$$$$$$*****$+*** $$$$#$              ",
"          *   ; =;*;=;====;;;==;+-'>>>-$$$*-;-==;;='>>,;;'>>>;%###$$$$$$$$-'>>>!##$'>>,*$###$***,>>>*#$*!>>~!%%#%#$#$$$######'>>>*%%#####$###$###########$$**--*$$$$#*-**$$$$$$$*$$*$$#$$$$$*$*$**+*********-**----;.=-----;-----+--+;--=!.;;-.=;.----;;---+-;+--+;+-+-+;---+---;;+-+;-;-;---+---;------*-='!==;--.;-=!'=-*$###*-----+$*---*;;;********$$$$$$##$$#$$#$#$$$*$$*$***+*$**-+$ $  #             ",
"           - = = ; =;;= !;;;;+;--;!~>>'##$*-;+;;+;;,>>,--=>>>'####$$*$$$$*-'>>>-##*,>>,*$%#$$***'>>>;#$-=>>>!##%####$##$####$'>>>-%%%#####$#$#$#$#$###$#$#$#**-**$$*$*******$$$$$$#$*$$#$#$#$*$**$*---*********---;=;=----;-+---;-*;'!!.+=;+;;;;=;-----=;----;=*--------++-+;*-;;;;--+-+--+--;-;-+---;;-+--=!=;==;;;.''!==+*$#*-*--*$#*;;;--;;-***$$$$*$$$$$####$$$$#$$$$$$*$$*********$$$$ *      #        ",
"               = *-= =!!=;;;-;;;;;=,>>,-#$*---+---;>>>'$**>>>,$####$$$$$$#;>>>,$##*'>>,*$###*$*$=>>>=$$*=>>>!###%$$$$$$$$*$*$'>>>-%%%###$$##########$#######*$**$$###**##$$*$$$#$#$##$*$#$$$$**$**-;-*-**--*****-+;;;----=-;-.---+-=!=;-**+-+==+==--=---;;--+-;-***-+-+-------+-;--;=---;-;----+-;;-;;;--;;=!=;==;;=!'!!==;-**----*$#*;;;----*$$$$$$$$$*$$$$$$$$###$#$$$$$#$$$*********$$$ # $ #            ",
"            -  - * ;!!==;;;;;;;;;;;,>>>'#$#+;;;---'>>>;$$$'>~>'###$$*$$$$$'>>>!%##$,~>,*$#$***-*=>~>!#**=>>>!###$$$*$$$$$$$$*'>>>-%%%###$#$#$#$$$$#$##$####$*-**;**$$*##$$##$$#$##$$$##**$#$$#***---;$***********-;;.-=-;------+-;=.----;;=!;!!=;-;.-;+-;;;----;--+*-----**-+*------;--=---++.--;--+-;.;;;;;!=;;.-=''!!!=!==---**$$$*-;;-***#%%#+$$**$$$$$$$$$$$$$#####$##$$$$$*$******$$ $$*##  #          ",
"          *   ; - =;;==;;;-;+;=!;.;;>>>>;$**--;;-!>>>,*$$#*,>>>=###$$$$$*'>>>>$###*'>>,*$$$*--;-=>>>'$$$=>>>!##$$$***********'>>>-%%%%###$###$#####$#####$#***--;;--**#$$#$$$#$$$$##$#$#*$$$$*$****$***$**-**$*$*;;-==;=--+--;----;;--=!!!!=;=;--;=-;--*-==-----;--*+*+---+----*-----;;;+++;;;=-+----;--;;.===;--!!'!!!!@!!!;--*$#$*;;;-*$$#%%%#*#$-*$$$*$$$*$$$$#$$$#$#$$$$$$********$$ *$#$$              ",
"           -   - -- !;;;;;+*-=;;;;=;'>>>>,*-;;=='>>>>=$#$$*'>>>>'-##$$$;,>>>>;#%##*,>>,*$$*--=;;=>>>'$$$=>>>'!!!!!'!!'!'!!-**'>>>'!!!!'!!!'!=#$##$#####$###$-***$**;-*#$##$$#$#$$*$$#$###********#**$***$**+$****;;-+;===-----;----;-=@!-;-;;----;;;;;-+*-;--.---;--*--*---***+-+----;--;;;-;--+-+--;;;;==!==;-=!''!'!!!''!!;-$$#$*-;;**$$*$**$#$$%%#$**$*$***$$$$$$#$$$$$$$$$$$****+***+## # *#            ",
"            ;;-***=!==;;;*-;-;;+;;;--,>>>>>>,>>>>>>>!$#$#$$#'>>>>>>,',>>>>>>!##%#$$'>>,*$$*--=;=!,>>'*$$=>>~>>>>>>>>>>>>>>-$$'>>>>>>>>>>>>>>,#######$#$####*-***$*-;-**$$$#$##$###$*$#$$$**-*$$$#*$#$**$*$******--;=--.;-=+=.--------==-;--;;-;===--=.-*-+;--;+.;;=;-+*-+--+*--*------;---;;-------.========;+=!'!'!!!!!!!!=;-$$$*-;-**$$$$**--$$$$#%%#$$$$$*$$*$$$$$##$$$$$$$***$*$*+*$*$#* #  # #         ",
"       *  - -  * = ;! ;;;-;;;;;--+;---'>>>>>~>>>>>>=###$$$$$$;>>>>>>>>>>>>,=#%%##$$,>~,*$***;====,~>>;$$=>>>>~>>~>>~>>>>~>*$$'>>>>>>~>>>~>>>,###$$$$$######*-*;*;;+***#$*$*$#$$#$$$#$*****$$$*$#$$**$$+*$*******--==--;=;=;;=;--.------;--;;;-.!=;.--;--+*;--;;--.;;-;--+--*-+**-+----------;;;---=!====;;=-+=!'!!!!!=!=!!!!=*$$*-;--**$*$$**$$$#%#$#%##$*$*$$*$$$$###$$#$$$$$*$$$**$*$*$* # #              ",
"        * ; !=-*-;!!;!;=!;;;+-+-;-;+-**;,>>>>>>>,'######$$$$$#*',>>>>>>>,'*#%####$*',,'-***-;====',,,!**;,,,,,,,,,,,,,,,,,*$$!,,,,,,,,,,,,,,'###$$$*$*$$$$#*--=+*###+*####$$$*$*$$*****-*$$$***$$$$**$***$*-****--==;+-+;.=----;;---;----;------.;-;.-+---------*--;;-----;-+---+-;;-------;----=!===;;-;;--=!!!=!!!!!=!!!!!;+*-*$-**$$$$$$$$$%#$$##$####*$$$**$$$##%#$$$$$***$$$****$$$ **$$# $#           ",
"           ; ; - !; !;;;;;+*---;;;;---+$*-=!''!-*$#####$$$**$$#$**!''!!-$###%###$$******-**-;====;---*$**---**$$$$**$**$$$$$$$$*$$$#$$$$$$$$$#$##$$$$$$**$$*;*;$##$#**#$$$$*$*****$$$$***$**$$**$$$$***-********---;=;--;=;---.;-----------.=.====;;=;+--.-.--+--+;;.-.------+**-+-;-----.----.====---;;;.-=!!=.==!!!=!!!!!.==-*$$*$#$#$$$$$#*$%#$$#%###%#*$$*$$$$$$###$$*$$$$*$$$+******$#$$$*#            ",
"          -  - -! =!;---;;-;;;;+-+;;;-***$$###########$$$****$$####%%#%#%##%###$$*$$$$$*-**;====!;;;-*-*-**-$$#####$$##$#%#$$$$#$##%%%%%##%#%##$$$#***$#$$$*=;;*#####**$$$*$$$$$$$******#$***$*$**$$****-**----------;=--+-.----------+;=-+=!======.-;;+-+-------;--;+*+--.---++---;;-+--*--;;;-;=-----;--.!!=!==.!@!=!=!.==!!-$#$$#$$%#$$$%%#$$##########$**$$*$$$$$$#$$$$$$$*$+$#$$+****$#$ # # %         ",
"  *  * - ;- ; *= ==;;;=;-=;+-+;-;-;-+;-*+$$$####$#$$$$$*******$$######%##$####$$*$$$$$**---;;!===;;---------**###$#$$#$#%##$$$$$$########%##%%%$$$**##*$$$$*;*;;**$*$*-$$$$$$$$$$$$$**-*#$#*****#$+*$*-**-*--*------+;;;+--;;------+.---.;;!=;==;=;=;-=-**-+-+--+-==;;-+----;;---.-----.--++-;=;-;-.-;.-;=!==.;===!'!!!!=;='!!-$*$$#$#%##$$#%%###%#####%%#%#$$*$$*$$$#$##$$$*$$**$$#$*****$* ##      ##     ",
"            -** '!== '; =;;;;-;;;;+;;-;-****$$$$#$$$$*****+****$$####%##$#$$$$$*$$*$$**$--;;!====;;;------;--**$#$#$$$*$$#$$*$$$$$########%##$#%##*$$$$$*$*$-;*--;**---$$$$$$$$$$*$$***;**#*****-$*******-*--*--;--;;-=;-+--;=;----;;----;===;.-.;===.!-+*+*+-*---;=;;--++--=-;;--+--.-------+-;=.;-;--;=!.==;;.;=!!!=!.==!!!=+-*$$###%#%#$##%####%###$#%%###$**$$$$$$$$#$$****$****$$*+*$ $#  $#  ##       ",
"         - -   = ; !=-;=;;;=;+;+;;;;+;+;-+*+*+*$+$*+*+*+*********$#######$$*$***#$$$$$$**=!!=;;;;=------;;-;--;*$*******$******$$**$$$$#$#$#$##$#######$*$*$*;*--;*+*;-*$*$$$$$$*$*$$$#*****$*$*-***++*-+*-+-+-;-;-----;----;;;--------+-+-.--+--.-+--+-*+***+*+-+--;.-+-+++-.-.-+-+--.-.;----+--;;-.-;.==;.-;;;.=!!=.=;.=!.===+-$#$####%#########%###$$#%%####$$**$$$$$$##$*$*$***+*$$#**$ **$             ",
"       -     -  ; ;-; *+;;+;--;-;;..@.@..@@@.@.@.@.@.@+****+****$*$$$###*******#$$$**$$*-!..@@@@@.@@@@@.@@.@..;*$$*--**+.@.@.@@.@@.@.@.@.@.@.@.+$$#$*#$#$#$$*;*-**.@.@.@.@.@.@.@.@.@@+#$****$*-..@.@.@.@.@.@.@.@@.@+----;;---.;;;------.@@@.@@@@@.@@@@@@@.@+*****.@@@.@@@@@@@.@.@.@@.@.@..;-;;----;;--..@.@.@@.@.@@.@@@@.@@@@..-*###$!!!*#%##%%#$##$###$$#######$#$*$$$$$$$$$**$$$$**+$#$$** #$*$$          ",
"          * - ;! =! -;-;;;;=;-+;;;.@@@@@@@@@@@@@@@@@@@+$***$***$$*$$$$$$;*****#$$$**$$$*;!@@@@@@@@@@@@@@@@@@@@-***---*;+@@@@@@@@@@@@@@@@@@@@@@@@$####$*$$$$$*;-*--.@@@@@@@@@@@@@@@@@@+##$$*$$**.@@@@@@@@@@@@@@@@@@@+-*-;;=;;-;;;--;----.@@@@@@@@@@@@@@@@@@@+*$**+*.@@@@@@@@@@@@@@@@@@@@@@.+--;;.-.-.-..@@@@@@@@@@@@@@@@@@@@@@.-**##*,,''''#%####$$%#$$%#$$$$#######$$$$$$$$$$$$$$$*$****$ #***#             ",
"             *  - ;=; ;;;;;=;;--+;.@@@@@@@@@@@@@@@@@@@+$$$$*******$**$*--****$$$$**#$$*-;;.@@@@@@@@@@@@@@@@@@.--**-;-;-+@@@@@@@@@@@@@@@@@@@@@@@@.#####$#$$$**-;***.@@@@@@@@@@@@@@@@@@+##$****$$.@@@@@@@@@@@@@@@@@@@+****;==---;;;;.----.@@@@@@@@@@@@@@@@@@@***+***+@@@@@@@@@@@@@@@@@@@@@@@.*-;=;---;;.@@@@@@@@@@@@@@@@@@@@@@.$$--$*,!'''''!###%##$###$##%##$$$##%###$*$$$$#$$$#$$$$$$**-*$$# $  #           ",
"            *    ; ;-;+;;;.;;;;;-;.@@@@@@@@@@@@@@@@@@@+##$$*****$**-*$*---***$$$*#$$$*--;+@@@@@@@@@@@@@@@@@@@@+*$*-;;;-+@@@@@@@@@@@@@@@@@@@@@@@@@+##########$*;-*-.@@@@@@@@@@@@@@@@@@+####$**$*.@@@@@@@@@@@@@@@@@@@*$$$**;=!.;--.;;----.@@@@@@@@@@@@@@@@@@@+$*$$$**+@@@@@@@@@@@@@@@@@@@@@@@+**-;--.=.@@@@@@@@@@@@@@@@@@@@@@.**$*-$'==>!'>='*%#%####%%##$#%%####$$$$*--*$$$$##*$$##$$$*****###$** $          ",
"      *      ;==;;;*+; ; -;=;;+;;-.@@@@@@@@@@@@@@@@@@@+##$$*******-***-----*$#$$*$$$#*-**-@@@@@@@@@@@@@@@@@@@.$##$*-;=;+@@@@@@@@@@@@@@@@@@@@@@@@@@$#####$##$$$-;*;.@@@@@@@@@@@@@@@@@@+%%%####$#.@@@@@@@@@@@@@@@@@@@+#$$**-=!!=;--;;--+-.@@@@@@@@@@@@@@@@@@@$##$-+***+@@@@@@@@@@@@@@@@@@@@@@.$*+-----@@@@@@@@@@@@@@@@@@@@@@@$$$+---,-=,''>-'!##%%%%#$#%%########*-$$--;*$######*$$$$#$$*$$$* #   $ %         ",
"            ;    - ; +;;;=;-+;--+-.@@@@@@@@@@@@@@@@@@@$###$$****$$+;;**--*$#$#**#$#**--**-@@@@@@@@@@@@@@@@@@@.$##$--;==+@@@@@@@@@@@@@@@@@@@@@@@@@@.%%#####$#*$*;*-.@@@@@@@@@@@@@@@@@@+%%###$***.@@@@@@@@@@@@@@@@@@@$##$**-====;;;-;;;--.@@@@@@@@@@@@@@@@@@@$#$$---*$*.@@@@@@@@@@@@@@@@@@@@@@+$*-+.;.@@@@@@@@@@@@@@@@@@@@@@$%#$*---,-;>,>=$!!%%#%%%###%##$$$%##*-*$*-**$###$%##**$$$$#$$**$**$##$     #      ",
"          $   -;;-;;=-*+-;;=---;-;.@@@@@@@@@@@@@@@@@@@$&###*******-;-**-*$$$$*$##$****-**-@@@@@@@@@@@@@@@@@@@@###$**-;;;@@@@@@@@@@@@@@@@@@@@@@@@@@@+%####$#$$**-;-.@@@@@@@@@@@@@@@@@@+%%%$$***-.@@@@@@@@@@@@@@@@@@@+%#$$*--==!=;--+;;--@@@@@@@@@@@@@@@@@@@@$#$$+$++*$$.@@@@@@@@@@@@@@@@@@@@@@$$**-.@@@@@@@@@@@@@@@@@@@@@@+&%%#$*--'=;,$''#'=%$$$$###$$$$$**$#$**$$*$$######$%##**$$$$#$$$$ *     #          ",
"      *    - ;  ; - =* ;-;+;-+-;;-.@@@@@@@@@@@@@@@@@@@+&###$*+***-;-****#$$$$$#$#$$*--****@@@@@@@@@@@@@@@@@@@.%##$--;=-+@@@@@@@@@@@@@@@@@@@@@@@@@@@@$&#######**$=-.@@@@@@@@@@@@@@@@@@+&%%##****.@@@@@@@@@@@@@@@@@@@$%##**---=;=!=;--.;-.@@@@@@@@@@@@@@@@@@@$%##$*-;-+*$.@@@@@@@@@@@@@@@@@@@@@.$$*+@@@@@@@@@@@@@@@@@@@@@@+&&%##**--='!,#*,!'$%%###$$$$$$$$$$$$$$$#$#########$#%#$**$#$####$*$** #            ",
"            = =;-;-;-;;*+*;;---+--.@@@@@@@@@@@@@@@@@@@$%%#$$*--**;***-*$$$$$*$$#$$**-;;*-*.@@@@@@@@@@@@@@@@@@@#%#$*-;;-+@@@@@@@@@@@@@@@@@@@@@@@@@@@@.#%####$$*$$-;@@@@@@@@@@@@@@@@@@@+&%%#****$.@@@@@@@@@@@@@@@@@@@$%##**--;--==!=;;--;.@@@@@@@@@@@@@@@@@@@#%##*;==-*$*+@@@@@@@@@@@@@@@@@@@@@@+$*.@@@@@@@@@@@@@@@@@@@@@.&%%%#$*-+--!,!*-',*&&%&%%%%#################%%#%%###$###**$#$$##$ * $$- #           ",
"           ;  ; ; ; ; -; -=;+-;--;.@@@@@@@@@@@@@@@@@@@$&%#$**+-$$***-****$$*#$#$****--;-**@@@@@@@@@@@@@@@@@@@.%%#**-;;*-@@@@@@@@@@@@@@@@@@@@@@@@@@@@@.%%####*$**-;.@@@@@@@@@@@@@@@@@@+&%##$**--.@@@@@@@@@@@@@@@@@@@+%#$$**-----;=!;.---.@@@@@@@@@@@@@@@@@@@$%#*-;-+-+--*$@@@@@@@@@@@@@@@@@@@@@@+.@@@@@@@@@@@@@@@@@@@@@.%&%%#$*--;;*$=','!#&%%%%%%%%%%#%%%#%%%%%%&%%%%%%%#%#$$$###***$$#$#* *   $            ",
"         $  ; ; ;;-;+;;+;;;;--+-;;.@@@@@@@@@@@@@@@@@@@+%##****-+$*******$*$#$#**$**--*--**@@@@@@@@@@@@@@@@@@@@%%$**-;--+@@@@@@@@@@@@@@@@@@@@@@@@@@@@@@$%###$***$$-.@@@@@@@@@@@@@@@@@@+%%%#$**-$.@@@@@@@@@@@@@@@@@@@$&%#$*--*--*--===-.-.@@@@@@@@@@@@@@@@@@@#%$***+*;!=--++@@@@@@@@@@@@@@@@@@@@@.@@@@@@@@@@@@@@@@@@@@@@%&%%#$***-;;-*####%%%%%%%%%%#%#%%%%%%%%%%%%%%%###%%####$$%##**$$* $ $#$*              ",
"          - ;; = - ;*+**-+*--;;-+-.@@@@@@@@@@@@@@@@@@@$%##***;*--**;-*$***$$$$$$***;-**-**@@@@@@@@@@@@@@@@@@@.#%#**-;;-+@@@@@@@@@@@@@@@@@@@@@@@@@@@@@@@%%##$$*$$$-.@@@@@@@@@@@@@@@@@@+%%#$$$$$*.@@@@@@@@@@@@@@@@@@@+%#$$$**-**----;==-+@@@@@@@@@@@@@@@@@@@@#%%$$$-==;+-*-$.@@@@@@@@@@@@@@@@@@@@@@@@@@@@@@@@@@@@@@@@@@%&&%##$**-----*$#%%%%%%%%%#%##%%%%%%%%#%####%#%%#%#%%##$#$$##$$$#$*$#                  ",
"              ---+;; *; **+;;=;;--.@@@@@@@@@@@@@@@@@@@$%%#$----*--*$;-$-*$$#***-******-***@@@@@@@@@@@@@@@@@@@.##$$**---+@@@@@@@@@@@@@@@@@@@@@@@@@@@@@@@.%####$*$$*.@@@@@@@@@@@@@@@@@@+%%###$*$$.@@@@@@@@@@@@@@@@@@@$%%#$$****--*--*-;=;.@@@@@@@@@@@@@@@@@@@$%##$-=+*+*-+-*$.@@@@@@@@@@@@@@@@@@@@@@@@@@@@@@@@@@@@@@@@+&%%##$*-+--;;--*#%%%%%%%%%%#%%##########%#%%%%%#%#%%%##$$$*###$* * ***##*              ",
"           ;;-; * - ;;-;! -;;;=;--.@@@@@@@@@@@@@@@@@@@+&###*;***;-$*#+-*#*$*-$-****-*-**#*@@@@@@@@@@@@@@@@@@@@%##*--;;*;@@@@@@@@@@@@@@@@@@@@@@@@@@@@@@@@+%###$*$$-.@@@@@@@@@@@@@@@@@@+%%##$****.@@@@@@@@@@@@@@@@@@@$%#$$******+*-*---=!.@@@@@@@@@@@@@@@@@@@#%#$-;+**-=--$*+*@@@@@@@@@@@@@@@@@@@@@@@@@@@@@@@@@@@@@@@+)&%%#$***--.-;;-*$%%%%%%%%%#%%%#%#%%%%#%%#%%%%#%%%%%#%#$##$$*$##******$#   $#           ",
"         * ;   ; =-;+* ;+;;;;=;=;;.@@@@@@@@@@@@@@@@@@@$&##$*;*-;;;-$***$***********-***#$*@@@@@@@@@@@@@@@@@@@.###**;;;;+@@@@@@@@@@@@@@@@@@@@@@@@@@@@@@@@.#%##$$*$*.@@@@@@@@@@@@@@@@@@+&%#$*$$*-.@@@@@@@@@@@@@@@@@@@+&##$**-***$$*-+----.@@@@@@@@@@@@@@@@@@@#%#$$*-*+-;;+----+@@@@@@@@@@@@@@@@@@@@@@@@@@@@@@@@@@@@@.&&%%#$$*+------;--$#%%%%%%%%%#%#%#%###%%###%#%%#%#%%#%%###$$$*$##$*$#     #        %     ",
"           ;-;; =* ;*;;+*-+*==;===.@@@@@@@@@@@@@@@@@@@$%#$$*-;;--;+$**$***$$*-****---*#$$*.@@@@@@@@@@@@@@@@@@@%#$**-;;-+@@@@@@@@@@@@@@@@@@@@@@@@@@@@@@@@@.%%##*$$$.@@@@@@@@@@@@@@@@@@+%%#$$$***.@@@@@@@@@@@@@@@@@@@$%%$#$***+****$*----.@@@@@@@@@@@@@@@@@@@$%#$$*--*+-+-=;-*$+@@@@@@@@@@@@@@@@@@@@@@@@@@@@@@@@@@@.&&%##$***-------;--*$%%%%#%#%%%#%%#%%%##%#%##%##%#%%%%%%%%##$$$**### ****$# #             ",
"          =    ; +;-= **-*--;=.;==.@@@@@@@@@@@@@@@@@@@$%##$*-=-$+*$*-**$$*$*-$****--*$$$$+@@@@@@@@@@@@@@@@@@@.##$**-;;-+@@@@@@@@@@@@@@@@@@@@@@@@@@@@@@@@@@+##$$$$*.@@@@@@@@@@@@@@@@@@+&%##$***$.@@@@@@@@@@@@@@@@@@@+%%#*$+*****-***$*+-.@@@@@@@@@@@@@@@@@@@#%#$$+*-----==+--**+@@@@@@@@@@@@@@@@@@@@@@@@@@@@@@@@@.%&%%##$*+--.------;--$###%%%%%#%%%%%#%#%%#%#%%%%%%%%#%%%%%#%##$$$$##$*#### #               ",
"         -  ;;-+-*- ;;=! --*+=;-;;.@@@@@@@@@@@@@@@@@@@$%#$$*;;;-*;**+*#**$*-******-**$**$*@@@@@@@@@@@@@@@@@@@.##$*--=---@@@@@@@@@@@@@@@@@@@@@@@@@@@@@@@@@@@##$$$**.@@@@@@@@@@@@@@@@@@+%%##$****.@@@@@@@@@@@@@@@@@@@$&###******$+---**$*.@@@@@@@@@@@@@@@@@@@#%#$**----+-;----***.@@@@@@@@@@@@@@@@@@@@@@@@@@@@@@@@#%%###**+-----.--.--;-*$#%%%#%#%%%%%#%%%##%#%#%#%#%#%%%#%#####$$#$$$$$###$ *  #             ",
"           =  * * ;;;+;-!;;;-;=-;+.@@@@@@@@@@@@@@@@@@@+&#$*-;+*;=;*#$$$**$****$**-***-**$*@@@@@@@@@@@@@@@@@@@@##$$*--;-+@@@@@@@@@@@@@@@@@@@@@@@@@@@@@@@@@@@.#$$$*$.@@@@@@@@@@@@@@@@@@+%%#$#$$$$.@@@@@@@@@@@@@@@@@@@+&%#$$****-***+*-***.@@@@@@@@@@@@@@@@@@@$%#$***+-*--+**-+-*+$.@@@@@@@@@@@@@@@@@@@@@@@@@@@@@@+)&%#$*--;;-.------;;;;+$#%####%#####%%##%#%####%#%#%%#%###%######$$$**** * $ $  #           ",
"        * - - - ;+ + ;*+;=+;;;=;;=.@@@@@@@@@@@@@@@@@@@$%##***-*+**#*#*****-*****$-***--*-*@@@@@@@@@@@@@@@@@@@.##$**-;;-+@@@@@@@@@@@@@@@@@@@@@@@@@@@@@@@@@@@@+##$$$.@@@@@@@@@@@@@@@@@@+%###*****.@@@@@@@@@@@@@@@@@@@$%###***-*****$***-*.@@@@@@@@@@@@@@@@@@@#%#$**--*-*-*-*-*-**$*.@@@@@@@@@@@@@@@@@@@@@@@@@@@@+&%%%#$**-;======.=;;;==-*##%%%#%%#%%%#########%######%#%%####$$$***-*** ;*                   ",
"              * * **! ; ;;-;;+;;=;.@@@@@@@@@@@@@@@@@@@$%%*******$$$$**$*-******$*;**-*****@@@@@@@@@@@@@@@@@@@@%#$**-=;*+@@@@@@@@@@@@@@@@@@@@@@@@@@@@@@@@@@@@@#%##$.@@@@@@@@@@@@@@@@@@+%####$**$.@@@@@@@@@@@@@@@@@@@+%%##$***+*********-.@@@@@@@@@@@@@@@@@@@$%##+**-+*+**-+*-+****+@@@@@@@@@@@@@@@@@@@@@@@@@@@+&&&###$*-+---;;;=========-*$$$##$#####%###$#$#$#$$####$$$$$******-----**; ***$$$       #      ",
"         * * * - -; -;;;!-+;;;;;;;.@@@@@@@@@@@@@@@@@@@$%##**$+-$$$$$*$*;--**$**$*****-*$**@@@@@@@@@@@@@@@@@@@.##$**-;--+@@@@@@@@@@@@@@@@@@.@@@@@@@@@@@@@@@@@@.##$$.@@@@@@@@@@@@@@@@@@+%%#*$$$$$.@@@@@@@@@@@@@@@@@@@$&###$$*-**$*****$**.@@@@@@@@@@@@@@@@@@@###$$*+-*-***+**+*--*--+@@@@@@@@@@@@@@@@@@@@@@@@@.%&%%#$$*+*--+-+----;=;=;==;*$###$$#$$$$$*$$*$$*$$*$***$$$****$*****$$$$$ #* #  #               ",
"        *    *  - ;;; ;+*+*;;=;+-;.@@@@@@@@@@@@@@@@@@@+%####**$$$$****;****-**---*********@@@@@@@@@@@@@@@@@@@@%#$*--=--+@@@@@@@@@@@@@@@@@@++@@@@@@@@@@@@@@@@@@+##$.@@@@@@@@@@@@@@@@@@+#%%#***$$.@@@@@@@@@@@@@@@@@@@+&%#$$*$*-********$*.@@@@@@@@@@@@@@@@@@@$%$**--*+*+***---*-*-**$+@@@@@@@@@@@@@@@@@@@@@@@.%&%%##$*+-+-+;+;+---------;-*$%%%%%%####$$$$$$$$$$$$$$#$$#####$$$##$$$$ $# ## #                 ",
"           *  * -+ ;;;+--*;;+-;-;;.@@@@@@@@@@@@@@@@@@@$&%##**$**$*-*-;*-*-*****-;-********.@@@@@@@@@@@@@@@@@@.###*--;*-+@@@@@@@@@@@@@@@@@@+%.@@@@@@@@@@@@@@@@@@##$.@@@@@@@@@@@@@@@@@@+%%##$*-**.@@@@@@@@@@@@@@@@@@@$%%#$$$***-**$******.@@@@@@@@@@@@@@@@@@@$%#$*-;*****+*+*+*+-+-**+.@@@@@@@@@@@@@@@@@@@@@@+&&%#$$***-+------+----------*$#%%%%%%%%%%########################$###$$*$$$ $# $%     # #       ",
"            *     -; -; ;*+---+;;=.@@@@@@@@@@@@@@@@@@@$%##$$$*$**$*;--*-;;**$***-*$*******@@@@@@@@@@@@@@@@@@@@##$**;;---@@@@@@@@@@@@@@@@@@+&%@@@@@@@@@@@@@@@@@@.##.@@@@@@@@@@@@@@@@@@+%%%#$*;-;.@@@@@@@@@@@@@@@@@@@+&%#$$*****-******-*.@@@@@@@@@@@@@@@@@@@$%##+-=--*+*****-*-*--+*.@@@@@@@@@@@@@@@@@@@@@@@@#%##$*+;--;+-+-+---+------;;-*##%#%#%%%%%#%%#%%##########%%%%%%%########$$$* #      #$          ",
"              * *;*+;;-;;-------;!.@@@@@@@@@@@@@@@@@@@+&%#$#****$*-***-;-*******-*$****$**@@@@@@@@@@@@@@@@@@@.%#$**;;;;+@@@@@@@@@@@@@@@@@@.&&+@@@@@@@@@@@@@@@@@@+#.@@@@@@@@@@@@@@@@@@+%%%#$;-=*.@@@@@@@@@@@@@@@@@@@$%%#$*$*$***-*$*$**-.@@@@@@@@@@@@@@@@@@@$%#**-=-+--*-**+-+-*-+-+@@@@@@@@@@@@@@@@@@@@@@@@@.%##*-=!;*+==;----;;-.-------*$#%##%%####%%%%%#%%%####%%%%%%%%%%####$$$$$###* $ %      #        ",
"            * - ; ! ;+ ;+*--;;;+;=.@@@@@@@@@@@@@@@@@@@#%###$**;*--**;--******-*--*****$***@@@@@@@@@@@@@@@@@@@@%#$**;-;=+@@@@@@@@@@@@@@@@@@+&%&+@@@@@@@@@@@@@@@@@@+.@@@@@@@@@@@@@@@@@@+%%#$;-;-;.@@@@@@@@@@@@@@@@@@@+&%##********-*****$.@@@@@@@@@@@@@@@@@@@$#$$-;==-+--+-+-*--+--.@@@@@@@@@@@@@@@@@@@@@@@@@@@.##*=;;;-'!;-+-==;------;-;;!',,>,,'!*%%%#%#%#%####;'>>>>>';*######**##$*#####$ *              ",
"          $    * !;=*-;+*;;.;+--;-.@@@@@@@@@@@@@@@@@@@$%%##$*--;;***;********$-********$*$@@@@@@@@@@@@@@@@@@@.##$**;-=;+@@@@@@@@@@@@@@@@@@+%&%#.@@@@@@@@@@@@@@@@@.@@@@@@@@@@@@@@@@@@@+%%#$*;;*;.@@@@@@@@@@@@@@@@@@@+&##$$*********+***+@@@@@@@@@@@@@@@@@@@@#%*--==!;-------*+---+@@@@@@@@@@@@@@@@@@@@@@@@@@@@@.#-;---==----==;-;=;--.;-!,>>>>>>>>>>'*%%%#%%##$*'>>>>>>>>>,-$#%%#-*##** #    * $ *#          ",
"           - -  -; = +**----;-;;;-.@@@@@@@@@@@@@@@@@@@+&%##**;;************-$*-*-*****$***@@@@@@@@@@@@@@@@@@@.###*-;+;=+@@@@@@@@@@@@@@@@@@+&%%%$@@@@@@@@@@@@@@@@@@@@@@@@@@@@@@@@@@@@@+%%$$*;-*;+@@@@@@@@@@@@@@@@@@@+%%##***************@@@@@@@@@@@@@@@@@@@@#%#*-=====;-+-----*-+@@@@@@@@@@@@@@@@@@@@@@@@@@@@@@@+-*---;+-=;-=;--='!=--;'>>>>>>>>>>>>>,-##%#$##*>>>>>>>>>>>>,=$#%#$*##*-*$*$* #               ",
"            - +;; =;;; -*+;;;;-;;;.@@@@@@@@@@@@@@@@@@@$&##$--;***************----*$***-***@@@@@@@@@@@@@@@@@@@@##$**;;;=+@@@@@@@@@@@@@@@@@@+%%%##+@@@@@@@@@@@@@@@@@@@@@@@@@@@@@@@@@@@@+%##$*--;;.@@@@@@@@@@@@@@@@@@@.&%##$*-***********+@@@@@@@@@@@@@@@@@@@@%%$#+;!!!=;==--.---+.@@@@@@@@@@@@@@@@@@@@@@@@@@@@@@@@+**-++;'=-;=-+.!==;;+'~>>>,'---!,>>>>,$%%$*$$'>>,,!;-=!'>>>>*##%#$###$$*#  * #              ",
"     -- * *  - * !+*+*;;;*;-;+;!=!.@@@@@@@@@@@@@@@@@@@$%%#$***********;**-*$*$$$**********@@@@@@@@@@@@@@@@@@@.%##*--=;;+@@@@@@@@@@@@@@@@@@.&%###$.@@@@@@@@@@@@@@@@@@@@@@@@@@@@@@@@@@@+%#$*$*-;-+@@@@@@@@@@@@@@@@@@@.#%##$*************+@@@@@@@@@@@@@@@@@@@@%%#$$-;!!!!==;;---..@@@@@@@@@@@@@@@@@@@@@@@@@@@@@@@@@@+$*-=';+-.=+--==;;+'>>>>!*$#&##%*'>>~,$%#*$!>>>!%&%#%%$'>>>'##%#**###$##**                 ",
"              ;;- - ---+*;;;-;;;;;.@@@@@@@@@@@@@@@@@@@$%%#******-****--*-**-+##$*********$@@@@@@@@@@@@@@@@@@@@###*--===+@@@@@@@@@@@@@@@@@@+%%#####.@@@@@@@@@@@@@@@@@@@@@@@@@@@@@@@@@@+%#$*--**--@@@@@@@@@@@@@@@@@@@@$##$**--********--.@@@@@@@@@@@@@@@@@@@.%%#$$*-;==!!==.-.-.@@@@@@@@@@@@@@@@@@@@@@@@@@@@@@@@@@@.$$*;=+-+;=;-+;---=,>>>!***%%##%%*'>>>!%%*#,>>,%%&%#%&%*,>>,$#%%**$##$ -* *# #             ",
"        * * ; - +--;*+-*;;+;;;*+-*.@@@@@@@@@@@@@@@@@@@$%#$$$**-****-*--**$*$$$$**$*-******.@@@@@@@@@@@@@@@@@@.###**-;==-@@@@@@@@@@@@@@@@@@+%%#$#$$+@@@@@@@@@@@@@@@@@@@@@@@@@@@@@@@@@@+&%#$--;--+.@@@@@@@@@@@@@@@@@@@+%##***;-+-***---;.@@@@@@@@@@@@@@@@@@@.%%#$**-----==!!=;.@@@@@@@@@@@@@@@@@@@@@@@@@@@@@@@@@@@@@.$$*-----=;---.-='~>>'*-*$#%##%%%*>>>>%%##,>>'%&%##&&%%!>>>*%#$**#* $* #                  ",
"              -! - ;; --;;;-*+;--;.@@@@@@@@@@@@@@@@@@@+&##$****---**-***$$$$*$$--*********@@@@@@@@@@@@@@@@@@@.###*--==;+@@@@@@@@@@@@@@@@@@+%%%#$**$+@@@@@@@@@@@@@@@@@@@@@@@@@@@@@@@@@+%%%#$--;-;.@@@@@@@@@@@@@@@@@@@@####$*;;;*****+-+@@@@@@@@@@@@@@@@@@@@+&%#$**--------==.@@@@@@@@@@@@@@@@@@@@@@@@@@@@@@@@@@@@@@@.$$$-*-+----+-==,>>>-**$$##%##%&%'>>>-%%$,>>>#%%#%%##%-,,,*###$###$$#* ## #              ",
"            * = =-====;+;;-;;;;--;.@@@@@@@@@@@@@@@@@@@$%##******;**-**$$***$**********-$*;@@@@@@@@@@@@@@@@@@@@%%$$*;===+@@@@@@@@@@@@@@@@@@+%%##$*#$#.@@@@@@@@@@@@@@@@@@@@@@@@@@@@@@@@+%%#$$*-;--.@@@@@@@@@@@@@@@@@@@@.###$*-;;;****$+@@@@@@@@@@@@@@@@@@@@@$&##$**---*-----+@@@@@@@@@@@@@@@@@@@@@@@@@@@@@@@@@@@@@@@@@.$***+--------=>>>'*$$$$$$#$#%%%;>>>'%#$,>>>,*%#%%###%%%&&%%%%########                  ",
"        * *  =--- ;; =--;-;;;;;;;;.@@@@@@@@@@@@@@@@@@@++++++;++;++.+;+;++++++++;+;+;+-*#*+@@@@@@@@@@@@@@@@@@@.###$*;===;@@@@@@@@@@@@@@@@@@+%%#$**$*$$.@@@@@@@@@@@@@@@@@@@@@@@@@@@@@@@+&%##$****-+@@@@@@@@@@@@@@@@@@@@@.##$$+;;;****-.@@@@@@@@@@@@@@@@@@@@.#&#$$*-------$*+@@@@@@@@@@@@@@@@@@@@@@@@@@@@@@@@@@@@@@@@@@@+$**-+-------'>>>'###$$$*##%%%%*,>>,%%&!>>>>,'-#%%%%%%&&%&%%########## #               ",
"              ; ;! ;!;;;--;--;;;=;.@@@@@@@@@@@@@@@@@@@@@@@@@@@@@@@@@@@@@@@@@@@@@@@@@@**$**.@@@@@@@@@@@@@@@@@@@###$-;;=;+@@@@@@@@@@@@@@@@@@+%%##$$***$+@@@@@@@@@@@@@@@@@@@@@@@@@@@@@@@+&%%#*$$$$$*@@@@@@@@@@@@@@@@@@@@@@@.+**+;;;++.@@@@@@@@@@@@@@@@@@@@@@.&%%#**--------*@@@@@@@@@@@@@@@@@@@@@@.@@@@@@@@@@@@@@@@@@@@@@+$**-++---.-'>>>=$#$$***$%%%%%$,>>,#&&#'>>>>>>,,!!$%%%%%%%#%####$ $ ## # %            ",
"            ;= ;-+;;+;;*+;-;;;;==-.@@@@@@@@@@@@@@@@@@@@@@@@@@@@@@@@@@@@@@@@@@@@@@@@@.**#**@@@@@@@@@@@@@@@@@@@.%#$*--==;+@@@@@@@@@@@@@@@@@@+%%#$#******+@@@@@@@@@@@@@@@@@@@@@@@@@@@@@@+%%###**$**$.@@@@@@@@@@@@@@@@@@@@@@@@.@....@@@@@@@@@@@@@@@@@@@@@@@@@$&%#$**-----;;+.@@@@@@@@@@@@@@@@@@@@@.%.@@@@@@@@@@@@@@@@@@@@@@+$**----+--'>>>;##$$*--*$#####,>>,#&&&#'>>>>>>>>>,'-%%%%%%######$$$$ # #             ",
"           *  ; - ;-- =*;--;-;=!;=.@@@@@@@@@@@@@@@@@@@@@@@@@@@@@@@@@@@@@@@@@@@@@@@@@@$##*$@@@@@@@@@@@@@@@@@@@@%#$**-===;@@@@@@@@@@@@@@@@@@+%##$$**$**##.@@@@@@@@@@@@@@@@@@@@@@@@@@@@@+%%##$#*****+@@@@@@@@@@@@@@@@@@@@@@@@@@@@@@@@@@@@@@@@@@@@@@@@@@@@@@.%&##$**---;---.@@@@@@@@@@@@@@@@@@@@@@#%%@@@@@@@@@@@@@@@@@@@@@@.$$+*+-----'>>>-#$$$*--*$##%%$,>>,$&%%&%$!,>>>>>>>~>'#%%######$$$ + * #  #           ",
"            ;+ ;-; ===;;;-;;;;;=!;.@@@@@@@@@@@@@@@@@@@@@@@@@@@@@@@@@@@@@@@@@@@@@@@@@.$##$#@@@@@@@@@@@@@@@@@@@.##$**-=;=+@@@@@@@@@@@@@@@@@@.&%##***#**$#$@@@@@@@@@@@@@@@@@@@@@@@@@@@@@+&%##$*$$****.@@@@@@@@@@@@@@@@@@@@@@@@@@@@@@@@@@@@@@@@@@@@@@@@@@@@@+&%#$$*-------.@@@@@@@@@@@@@@@@@@@@@@+&%%+@@@@@@@@@@@@@@@@@@@@@@.$$*-+--;-'>>>;##$*--;-*$%%%$,>>,#&&&%%%%#-!''>>>>>>'$%%%##### *#                   ",
"              -- =;+-;-;-;;;=;;=;;.@@@@@@@@@@@@@@@@@@@@@@@@@@@@@@@@@@@@@@@@@@@@@@@@@@#####@@@@@@@@@@@@@@@@@@@.##$*-;===+@@@@@@@@@@@@@@@@@@+%%##*$$$$**##+@@@@@@@@@@@@@@@@@@@@@@@@@@@@+&%#$#$***--*$@@@@@@@@@@@@@@@@@@@@@@@@@@@@@@@@@@@@@@@@@@@@@@@@@@@@.&&%##**------.@@@@@@@@@@@@@@@@@@@@@@.&%###.@@@@@@@@@@@@@@@@@@@@@@.**+---.-'>>>=##$**;;;*$#%%$,>>,#&&%&%%&%&&%#;'>>>>>=%%######+ #**- #              ",
"           * *- ;;-= +;;;=;;==;;;-.@@@@@@@@@@@@@@@@@@@@@@@@@@@@@@@@@@@@@@@@@@@@@@@@@.%%%#$@@@@@@@@@@@@@@@@@@@@#$$$--==;;@@@@@@@@@@@@@@@@@@+%%##*#$*$$$$*$.@@@@@@@@@@@@@@@@@@@@@@@@@@@+%###$**-*#$$*+@@@@@@@@@@@@@@@@@@@@@@@@@@@@@@@@@@@@@@@@@@@@@@@@@@@#&%##$**-----+@@@@@@@@@@@@@@@@@@@@@@@#&&%#$*.@@@@@@@@@@@@@@@@@@@@@@+*---.;=!>>>'$$$*+-;--$#%%->>>'%&$$$$%%%%%&%&%*!~>>,%%##$* $ $* * *               ",
"       #  $ ;  =+ =;;=;-+*=;;;---;.@@@@@@@@@@@@@@@@@@@@@@@@@@@@@@@@@@@@@@@@@@@@@@@@@@%&%$$@@@@@@@@@@@@@@@@@@@.##$**;=;;.@@@@@@@@@@@@@@@@@@+%%#$$$*****$###.@@@@@@@@@@@@@@@@@@@@@@@@@@+&%#$**$$*$$$**.@@@@@@@@@@@@@@@@@@@@@@@@@@@@@@@@@@@@@@@@@@@@@@@@@+&&%#$**-----+@@@@@@@@@@@@@@@@@@@@@@@$&&%%##$+@@@@@@@@@@@@@@@@@@@@@@@+*+;===!,>>,*$$*-;.=;-$$$!>>>!%%'>>,*%%%%%%%%%#,>>,###$$$**** *                  ",
"            ;;; ;; =;-;;--+;;;;-;;.@@@@@@@@@@@@@@@@@@@@@@@@@@@@@@@@@@@@@@@@@@@@@@@@@.#%%##@@@@@@@@@@@@@@@@@@@@%#$**;==;+@@@@@@@@@@@@@@@@@@+%%#$****-*$*$$#$@@@@@@@@@@@@@@@@@@@@@@@@@@+%####**$****-**.@@@@@@@@@@@@@@@@@@@@@@@@@@@@@@@@@@@@@@@@@@@@@@@+)&%##$*-----+@@@@@@@@@@@@@@@@@@@@@@@.&&%%$$$$$.@@@@@@@@@@@@@@@@@@@@@@@+*--===,>>>;$*--=====-**,>>>*%%!>>>-$$$#$#####,>>,###$** * -* $    $            ",
"          *  * ;*;!=;! -;--;;--;;-.@@@@@@@@@@@@@@@@@@@@@@@@@@@@@@@@@@@@@@@@@@@@@@@@@@%%###.@@@@@@@@@@@@@@@@@@.##$*--;=;-@@@@@@@@@@@@@@@@@@+%##$***-***$*$$#+@@@@@@@@@@@@@@@@@@@@@@@@@+%%%#$$-*-***-**$.@@@@@@@@@@@@@@@@@@@@@@@@@@@@@@@@@@@@@@@@@@@@@+&%%##$**--;--@@@@@@@@@@@@@@@@@@@@@@@@%&%%#$$***$@@@@@@@@@@@@@@@@@@@@@@@@+--;;=!>>>,$$*-;==!=;*'>>>,%%%;>>>!#####$$$#$,>>,%%###***                      ",
"         *  - ; ; ; ;;==;;;;--;;;*.@@@@@@@@@@@@@@@@@@@@@@@@@@@@@@@@@@@@@@@@@@@@@@@@@.%%%#$@@@@@@@@@@@@@@@@@@@.##$$*;;=;+@@@@@@@@@@@@@@@@@@+%%#$#****+**$$$$#.@@@@@@@@@@@@@@@@@@@@@@@@+&%#$**$$$**--****+@@@@@@@@@@@@@@@@@@@@@@@@@@@@@@@@@@@@@@@@@@@$&%%%#$**--;--.@@@@@@@@@@@@@@@@@@@@@@@$&&%%#$****$+@@@@@@@@@@@@@@@@@@@@@@@.*-;===,>>>!---;==!=;!>>>>*%%%#>>>>*####$$$$'>>>'%####* *-**  #                ",
"        $  - ; =-;;;;;;-;;;--;;;--.@@@@@@@@@@@@@@@@@@@@@@@@@@@@@@@@@@@@@@@@@@@@@@@@@@#%##$@@@@@@@@@@@@@@@@@@@@%#$**;;==;@@@@@@@@@@@@@@@@@@.%%###$*****$*$$$#$.@@@@@@@@@@@@@@@@@@@@@@@+%####*$*$$*-;;-***+.@@@@@@@@@@@@@@@@@@@@@@@@@@@@@@@@@@@@@@@.%&&%%#$***-;--.@@@@@@@@@@@@@@@@@@@@@@@.)&%%#$$**-**$.@@@@@@@@@@@@@@@@@@@@@@@.+*;;;;,>>>,=;;==!!'>>>>'#%%%%!>>>>!$#$$$*'>>>,*%%%## *   # $                 ",
"              -  ;;;;;--;;;-;;;-;-.@@@@@@@@@@@@@@@@@@@@@@@@@@@@@@@@@@@@@@@@@@@@@@@@@.#%#%#@@@@@@@@@@@@@@@@@@@.##***;;=;.@@@@@@@@@@@@@@@@@@+%%###*-****$**$$$#+@@@@@@@@@@@@@@@@@@@@@@@+%###$#$$$#*;----**$$+.@@@@@@@@@@@@@@@@@@@@@@@@@@@@@@@@@@@+#&&&%##$***-;--.@@@@@@@@@@@@@@@@@@@@@@@.%&&%#$$****-**$.@@@@@@@@@@@@@@@@@@@@@@@.$$*--;>>>>>>>,>>>>>>>!#%%%%##'>>>>>>>>>>>>>>;&&&&%#####     #               ",
"            *  ;= ; ; ;=;;-;;;-;-*.@@@@@@@@@@@@@@@@@@@@@@@@@@@@@@@@@@@@@@@@@@@@@@@@@@%%#$#@@@@@@@@@@@@@@@@@@@.##$*;--=;-@@@@@@@@@@@@@@@@@@+&%##$-**-*$*$***$$#+@@@@@@@@@@@@@@@@@@@@@@+%###$$$$$**;----*$**##$.@@@@@@@@@@@@@@@@@@@@@@@@@@@@@@@+#&&&%##$$***----+@@@@@@@@@@@@@@@@@@@@@@@@$&&%##$***-*****+@@@@@@@@@@@@@@@@@@@@@@@@+$$***=>>>>>>>>>>>>>!%&))&&&&%'>>>>>>>>>>>,;&&&&&&%%# ## #                  ",
"         *    ;; ;;=;;=-;-;;;-+--*++.+.++++++++++++++++++++++++++++++++++++++++++++++%%##$+++.++++++++++++++++##*$-==-=;+.+.++++++++++++++$%###$$-;*+-*$+*$$$$$+.++++++++++++++++++++$#%%#$#$***;------****####$...@@@@@@@@@@@@@@@@@@@@@..+#%&&%%####***---;--.+.+.++.++++++++++++++++$&&%%#$$*****--***++.++++++++++++++++++++++$$$**$*!,>>>>>>>,'*&)))&)&)&)&;',>,>>>>,,*&&&&&&%% %## ## #                ",
"                =; ;;;;--;;-;;*-**;-$*###%#%%%##%%%%%#%%%%%%%%%%%%%%%%%%%%%%%%%%%%%%%%###*$#$%%%&%%&%%%%%%%%%##$***;===-;-$###%%%%#%%#%%%%%##$*$**-*****$$**$*$$$##%%%%%%%%%&%%&%%#%%#####$***+*--+*----*****#####$$$+....@.@.@.....+$#%%%&%%%####$$***---;---*-**$$###%#%%%%%%%%%%%%%%%%###$****--+*-**$$$##%#%%%%%%%%%%%%%%####$$*****$*-=!''!=-*#%&&)&)&&&)&&%**;!;**#&)&&&&&&%%#% ##  #                 ",
"            **;; ;;;;-*-;;+-;--*---***$$###%%###%####%%%#%%%%%%%%%%#%%#%##%%#%#%%%%%%##$$*$##%%%%&%%%&%#%%%%%#$$*---===-;-*$$#####%#%%#%#####$#$**---*$***$*$*$$**#%%%%%%%%%#%%%%&##%#$$$$$**#$$-*-------*--$*$$###%%%%%%%&%&%&%%%&%%%%%%%#%####$$***----------***$$$#$####%##%%%%%%%%%###$$$**-*-**---**$$$####%############%##$$$*****$$$$$##$$$$#%&)&)&))&&))&&)&))&&&&&&)&&&%&%%##% $#   %              ",
"         * * ; -;;;;;--;;*;;+---;;---***$#$$#$############%#%#%%%#####$##$##%##%#%%##$*$$$#*###%#%%%%%###%$###*-----;=;--;**$$###*#######$$#*****--+*$+$**+*$*-*$$#######%#$##%%%#%#$$######$$$*-;*----=----****$$#####%#%#%#%%#%###%%#######$$$****---;------*-***$$$$$#$#$##$##########$$$*****+-**+-***$*$$$$$############$$#$$****-***$$$$$$$$$$#%&)&)&)&)&&))&)&)&)&&)&&&&&&%%%%%##%  %  # %           ",
"            ; ;! -+;;-;-+;;***-;;;;----*$$**-****$$##*$*$########$$$$*$$$#$$#$##$###***$**$$#*$###%#%%##$$#$$$*--;;;;=;-;=-******$$$$$$$$$$*$**+-;;;**$*$----;*#*$*##$####*-*$####$*#####$$$**$---***---;---;-****$$$$#$#$####$######$##$$$$******--------------**$***$$$$$$#$#$$$$#$#$#$****+--***--**-******$$$$$$$$$$$$$$$$$$$$***---***$$$$$$$*$$#&&)&)&)&&)&&)&)&)&&)&&&&&&%%%%%# # ##                 ",
"          * ;--+;; ;-;;*-**-*-;-;;;*;-;--***;****$*$-*$*###$####$*$$$$$$$$$$$$$$$$$$**##$*#$$####%####%#$##****;;;;;;=--;+---*+***-**$*-********;--+$****+;;-+*$*$*$$$*$$**+-*$$$*$##$$$$$$$$$**+*-------;------**$*$*$$$$$$*$$$$*$$$$$*********--;-;--;+*----**-******$$$$$$$$$$***$*$********+***-*---*-**-***********************-----*****$$*****$%&&)&)&)&)&)&)&)&)&&&&&&&%&%%% #% #% # %              ",
"       $ * - - ;;;=-;-+;-*-*;-;;;--;==-;;---+$*;*-**;*$***$$$*$$**$$$$*****$*$$*$$$$*$#$$-$#$###########$$$$***;=;=;;==-;--+;------+*-**-**-***;;-*$***+**+*********#****;$$;---**#$#$*#$$$*$$+***-+-----+;-----*-*************************-*---------;;*--+*--;--***************$**-************--------*-*------********-**-**-*----------**-***---*#&)&)&)&)&)&)&)&)&)&&&&&&&%&%%# ## #                  ",
"            ; ;; -*;;**-**+;;+;;;--==;;;*+******+-;;;**-*$*$*;$****$$$$**$**$******$$*$$$$$$$#$#$#$#$$$$$*$$*$**!==;;-==--;;-;;-=;;---*+;-+----=-$****+**$$*--******$*-;+;;*+=-+$$$$$**$$$$$*$*-*-*----;;-;+---*--*-------------------------------;-+-;;;-*-;;--*+****************-*----***--*----*+-*+---*--;-;---*-*----------------------;---;;;;;-$%&)&)&)&))&)&)&&&&&&&&&&&&%%%%# %####                ",
"           * *! ;;;-+--*-*-;*-;;;-;!;;---*****+**;-=-+*******+**$$$$$$$$$$$$$*-****$***$$$#$#$$#$*$**###*$$$****==;=;;=;-;;--=;==;;---***--*-**--*$+*+*$$*$********-#-;**#+;---$#$$$$$*$*$**$*-**+-;-----;-----------*--------;-------;---;---------;;;;;;;*+**+*****************-*-**--;-*+---**+-*****+-----;--;--*--*--*--*------------------;-;;;-*#&&)&)&)&&)&)&)&)&&&&&&&%&%&%%%%#        %           ",
"        **- ; -;-; ;-**-;-;*;;;;;;-;;;==---+--*$*;;=*****;;;;*$$$$*$$$*$$$$$$$****$$*$#*$*$**$$#$$$###$$$*$$****;!;=;-=;--;-=;-;+-+-+*-;-;----;*---***$*****;*-**---**-$**$#;+**$$$$$$**$$*$$*---**-*-----------------;----;-;-----------;-----*---;;;;;;--+*********+**+***+**+*+***-+**-;****-****---****-+*;----------*--------------------;--;;;=;*#%)&)&)&))&)&)&&&&&&&&&&&%&%%%## ## #  %             ",
"           ;*; ;;==;**+*;+*==;;;-;;;-;;;;=-**+**;;==**--;--*;*$***$*$*$$$$$$$--$*-*$$*#$*$*$#*$##$$#$*#$$*$$$*$**==;=;;=-;+;=-==------+;-----;;-;+-+$**+$+*-****-+$*;*$*****+$*-#$$$*$+#$*$**+*+****-*-*--------+----+*;;-------------------------;;;;;;;-*******-******************+***-+*-;--+**------*-+**-------*-*-*----*-----------------;-;-;;;;*#&)&)&)&&)&&&)&&&&&&&%&&%%%% % # #  %               ",
"          -   -= ;*+***;;;==;;;;;;*;;-=;=;;;-**---!;-;=;***;;+*$*$*$$$*$$$$**;-$$$$$$$$$*$*#$**$#$$$#$#$#$$$$**$*;!;=;;=-;;-=;-;;-----*-+;--+;+;-*$*+*$*$*--**$;*$$*;*#**$--#***$$$$$$***$*$$***-*--**---------------;---;----------------*----;-*+*;;;;;--**+*+*+-*******+************-**-*+;*--*--**+--*****-;----*--*-------------+-------;----;;;;;*#&)&)&)&)&)&)&&&&&&&&&%&&%&%# # # #                 ",
"         - -;;; !;*- +;;;=;;-;-=!;;;--;--+-;;;;=-==---------*$$*$$$*$*$*****$$$$#$$$$*#*$#$$$$###$#######$$$$$*$--!==;-=;--;;-;-;;---+----+---**-****$*$$*-*-**-$$$*;**$**-*#****$$$$$**$*$**--*****+--------;---------;-+--------------------*+****--*+$+--*********************--**-**-******-----*-***-------------**-*+-----------------;-;-;;;;;;;-$%&)&)&&&)&&&&&&&&&&&&&&%&% &%%# #   %              ",
"             * =+* ---;;;;=;--;!;;;;+-;;;;----==+=-*+*;;-*****--*$*$$**-+**$$$$$#$*$$##$#$$####$#########**$$$***-==;=;;=-;-=;--=---+----+--+*-;+*+***+**;-*-*-*$$*;;;-*$;***#*$**$$$$**$*$$+**-+**+**--+-----------;-------------------+-*+***************-******+**+********--**-+*****-*-*****----+*--*-*-+*------------*-------;-------;---;-;-;;;;-*#&&&&&)&&&&&&&&&%&&&&&%&%%#% # # #%                ",
"          * * ; *-;-;-;+-+-;;=!;+*;;-;-+;-===;=-;--**-;--****+*-+$**+*+*$#$$$$$#$###$$$#$##$$###$##$#####$*$$$**$+-===;;==-;;=;;;-----+-;-;**-+******$$*-*-*****$$*-;;;;*-****#*-+$$$$**$*$$*-+*****----*------;-;-+---+---------+*;---+*****+*****+******--+***+*******-**-*+***+****-**-+**-*-*-----***-+****----------*---;-+-;-------;--;-;-;;;;;;;;*$%&&&&&&&&&&&&%&&&&&&&&%&%%%#%##%  # #             ",
"     * *- - ; -; - ;;;;--;;;!;;-*-+;;;;;;;;;-+--;;*--**;!**+$*+-*--**$*#$$$$#$#$#$$$$$#$#$####$#######$###**$$#*$*-=!=;;;=;-;;;=;;--;;-+;*+--****+*$+**$+****-*$$$*+*+;!;$****$*$**$$$$*$$$*-*****-*-----*+----------------*+------**+$*************+-********************+***********+*******-**+-*--;;***-*-*+------------;-;---;;;+----;-;;-;;-;;;;;;-*#%&%&%&%&&%&&&&&&&&&&&&%%%% %   #                 ",
"              + *+;! ;;;-;!;;-+;;-*--+;=;;+---;-;*--***-;********+*$$$#*****$$#$$#$###$####$#$##$###$####$;*$$$****;=!;--=;;;;;-;;;-+;;-****+*+*+*$*******-**-$$$*-;--+;;*$***$#***#$#$+$$$*--**------------+;;-;;;-;-;----;-;;-***+*****+***$*********+*+-;********+**+*******+****-******-*-**-**-**+---***-***-;--;----;-;-;;-;-;;--;-;--;-;-;-;-;;;;-*#%%&%&&&&&&&&&&&&&&&&%&%&%%%#### # %              ",
"           * - ** -+;!;=;;;;+**;;+--+-;+*+**;;*;;*-****-**-****-******$**-**#$#$#$#$#$##$###########$####$**#$$$*#*-;;=;-;;--;;;-;-;;;-+*-*****$*$*+$$******-$$*$*----**--*$**$$****$$$*$$$**+***-*+*+**+***$ *$+**---+-;----***+*********$*********-;;-----*+**********************+***-*-*+******+*****--;-*-*------;--------;--;-;-*-------------;-;;;*$%&&&& &&&  &&& & &&&&&% % # # %                  ",
"         *  * * =; ;;;; ; ;+*;;+;;;-*-****-+-;;;*******-***;;;;---;;*$#$$$-$#####$########$#######$######$*$$$$$*#**;;;;-;---*;;;;;;=;+**--+****$*****-**-*-*$$$#*+#$#$*$*-*$-*##**-**$*#$$***-;+***$ * * $*** *****;-**-+****+***********************------****+*+*$**********$*********-+****-********+***---**------------;-;-----;-----------;---;-;;-*#&& &&  &&  && & & && %%%%%# # # #               ",
"               -  -    ==;- -;;--;*+;---*-**-+;=-*****;**;;;--;---*-*$##*$###$#$###$##############$#####$#$*$$$#*##*-;;;-;;---;;-;=;-***--*-**$***$*****-***#$$$**$$$$$*$$**$**$$**$****$#$+**--**$* * *          **+-**$$***$*$*$*$+****--**+********+**$+*******$**$******************+******+****+*******-**;*+-------*------;------*-*---------------**#% &&  & ) &  & & && &&% % %# # # %              ",
"              *  *   * ;   ; ; *+;;-*+*+*+*-;*;---;;;-;-*-;;--****$$###$##########################$###$ ###* #$ *##**---;**;;-----*+;******-****$$$$*$$*$**$$$#$$*$$$#$*##$*$***$$$##$ $ # * * - * * $    $ * $* ** $$*****************+*****$$*$*$****$*$*****$*$*$****$****$$*****************************+*+**---**--+*-*-*--*-*---***-**********------*$ &     &    &    &  %  %                        ",
"           $ *     *  * =;* =;-;**-;**----*=;;;----;;*-;--$$$$$$$#$* *# $# $# $# $# $# $ # # # # * # *$#* ##*$ ** $ -* ;- ;* =- =* ;* ; ;* - ;* * * -* *** ***$$$*####$*#$$**#** *  * * # **-**-* $     *          *$**+**+***+****$$$$$ *#$#$$$$$$****$$$**$$$***$**$$$*$$$$**$********$*********$*$*************----*-********--***-**********-*****- ; - # && &  & &   & & && &% % % # #                 ",
"                    -       * + ; ; ; ; ; ; -+*- =-- ;+* ; * ** - -*$ $# $# $# $# $# $$#########$#### $ #$ $ $$#$*$$ ;; ;; ;; != ;* ;=;; ;-** **$*$* ;* * * * * * - * * $ # $  * $        *         $        #  # * * -*$ * * * * * *  $$ $  * * * $ * $ *** * $ $ * $ $ *$$ *$$ *$ *$$ * $  $ * * *$$ -*** ** - -* -*** ;* - - - - -* ;* - ; - - - - ;-* -            &     &                              ",
"                               * * - * ; -;-*   ;  *** *; * *  *$*      #  #  # # # #             #  #       #     $ * - *; *;  *  -  * *           $            * $       $ $        $                   #        * *   $   #          #   $* $ #      *               $   #                 $   $    $   * * * * **  *; *; * * - ** - *- * *   *         * # & & &     & &    &   % %                     ",
"                                         ;    *    $  $       *      # #  ## #   #  #  # # # # # #     #  # $   # #     * * *  *  *  * *  $   $ $ $      # #   $                                                  #    $   #       # # $ $ *         - *  $      #* $ #  $ $                #   #      * *        *   -                               *     #          &                                    ",
"                                        *       * $                $  # ##         #                                $ *                                                                                                                        # * **              #   #      #                               $ -* *        $  $ $ $                     *                                                  ",
"                                                                #            #               #      #      #     #            * * *                                                                                                                                                                                  $                                                                                      ",
"                                                                                                                      $                                                                                                                                                                                                $                                                                                    ",
"                                                                                                                                                                                                                                                                                                                                                                                                            ",
"                                                                                                                                                                                                                                                                                                                                                                                                            ",
"                                                                                                                                                                                                                                                                                                                                                                                                            "};
