/* XPM */
/* Corel World */
static char *corelworld[] = {
"32 32 16 1",
"a c #000000",
"b c #800000",
"c c #008000",
"d c #808000",
"e c #000080",
"f c #800080",
"g c #008080",
"h c #808080",
"i c None",
"j c #ff0000",
"k c #00ff00",
"l c #ffff00",
"m c #0000ff",
"n c #ff00ff",
"o c #00ffff",
"p c #ffffff",
"iiiiiiiiiiiiijjjjjjbiiiiiiiiiiii",
"iiiiiiiiiiiiijjjjjjbiiiiiiiiiiii",
"iiiiiiiiiiiiijjjjjbbiiiiiiiiiiii",
"iiiiiiijjiiiijjjjjjbiiiijjiiiiii",
"iiiiiijjjjiiijjjjjbbiiijjjjiiiii",
"iiiiijjjjjjiieeeeeeeiijjjjjjiiii",
"iiiijjjjjjjeeeemmeeeeejjjjjjjiii",
"iiibjjjjjeemeeeeehppheeejjjjbbii",
"iiiibjjjeeemeeeeehpppeeeejjbbiii",
"iiiiibjeeehphhphpppppheeeebbiiii",
"iiiiiieeempmpphppmpppmeeeeeiiiii",
"iiiiiiemmppepppppppphmeeeeeiiiii",
"jjjjjepeemmmeeppppppmmeeeeeeiiii",
"jjjjjepeemmmeehpppphmmeeeeeeiiii",
"jjjjjeheeemmeeeeppeemeeeeeeeiiii",
"jjjjjepeehemmmmmepphemeeeeeeiiii",
"jjjjjeepppemmmmmeeppemeeeeeeiiii",
"jbjbbeeppeemmmmmmmeepphpheaeiiii",
"bbbbbeheeemmmmmmmmmmeppppeeeiiii",
"iiiiiepeeemmmmmmmmmmeppppeeeiiii",
"iiiiiieppemmmmmmmmmmeppppeeiiiii",
"iiiiiieppemmmmmmmmmmeeppheeiiiii",
"iiiiijjeepeemmmmmmmmmppeeejjiiii",
"iiiijjjjeeemmmmmmeeeeppeejjjjiii",
"iiibjjjjjeemmmmmmeeeeppejjjjbbii",
"iiiibjjjjjeeeeeeeeeeehhjjjjbbiii",
"iiiiibjjjbbieeeeeeeeeibjjjbbiiii",
"iiiiiibjbbiiijeeeeeeiiibjbbiiiii",
"iiiiiiibbiiiijjjjjbbiiiibbiiiiii",
"iiiiiiiiiiiiijjjjjbbiiiiiiiiiiii",
"iiiiiiiiiiiiijjbjbjbiiiiiiiiiiii",
"iiiiiiiiiiiiibbbbbbbiiiiiiiiiiii"};
