/* XPM */
static char * corelv716x16_xpm[] = {
"16 16 32 1",
" 	c None",
".	c #202020",
"+	c #505050",
"@	c #7F7F7F",
"#	c #6F6F6F",
"$	c #00007F",
"%	c #0000FF",
"&	c #0000BF",
"*	c #50508F",
"=	c #BFBFBF",
"-	c #EFEFEF",
";	c #DFDFDF",
">	c #C0C0C0",
",	c #AFAFAF",
"'	c #2020DF",
")	c #30306F",
"!	c #CFCFCF",
"~	c #20209F",
"{	c #8F8F8F",
"]	c #A0A0A0",
"^	c #000000",
"/	c #B0B0B0",
"(	c #3030AF",
"_	c #00003F",
":	c #7F7FBF",
"<	c #20205F",
"[	c #404040",
"}	c #909090",
"|	c #20207F",
"1	c #808080",
"2	c #303030",
"3	c #606060",
"          .+@@# ",
"$%%%%%%&*=-;>>;,",
"$%%%%')!;>>>>>>!",
"$%%%~{->]+.^^+>/",
"$%%(;!/.$&%%%_]/",
"$%:->+__%%%%%<>[",
"$:-}|&)1$%$%2+<$",
"{-1$%$]]+[.<}/3$",
";1.2$$}][1[[}]3$",
"}33}232}31[[++..",
".[3}[333.[.1][++",
" [3}[33[11^1].++",
" [+}[3.[.1^1]/++",
" [[}[3[]31^1[1++",
" [[1[^[+31^[ [++",
" .  .^. 2[^. .2 "};
