/* XPM */
static char * Debian16_xpm[] = {
"16 16 38 1",
"       c None",
".      c #292C2B",
"+      c #280610",
"@      c #441423",
"#      c #2B151C",
"$      c #747676",
"%      c #000000",
"&      c #6F4646",
"*      c #D14E76",
"=      c #FF8AB1",
"-      c #B1224E",
";      c #130006",
">      c #888A72",
",      c #FFFFC5",
"'      c #8E0023",
")      c #FFD0E3",
"!      c #FFDCE7",
"~      c #D42D60",
"{      c #862A49",
"]      c #120007",
"^      c #6E1632",
"/      c #E4507E",
"(      c #E6527E",
"_      c #CC305F",
":      c #9C3458",
"<      c #2D111B",
"[      c #A0975F",
"}      c #110E05",
"|      c #A23156",
"1      c #A82851",
"2      c #8B3352",
"3      c #473410",
"4      c #C5C200",
"5      c #090900",
"6      c #65263C",
"7      c #6A263E",
"8      c #52321D",
"9      c #3B3A00",
"     .+@#$      ",
"   %%&*=-;>%%   ",
" %%,,')!~{],,%% ",
"%,,%%^/(_:<%%,,%",
"%%%[[}|1|234%%%%",
" %,%%[5678%%4%  ",
" %,,,%%9%%444%  ",
" %,,,,,%44444%  ",
" %,,,,,,44444%  ",
" %,,,,,,44444%  ",
" %,,,,,,44444%  ",
" %,,,,,,44444%  ",
" %4,,,,,4444%%  ",
"  %%4,,,44%%    ",
"    %%4,%%      ",
"      %%        "};

