/* XPM */
static char * delete_xpm[] = {
"24 24 9 1",
" 	c None",
".	c #000000",
"+	c #FFFFFF",
"@	c #CCCCCC",
"#	c #D4002A",
"$	c #000055",
"%	c #0000AA",
"&	c #999999",
"*	c #666666",
"            .......     ",
"           ..+++++.     ",
"          .+.+++++.     ",
"         ....+++++.     ",
"      .. .++++++++.     ",
"     .@@..+#++++++.     ",
"    .@@@@.+##+++++.     ",
"   .@@########++++.     ",
"  .@@#@@@.+##+++++.     ",
" .++#@@@@.+#++++++.     ",
" .@@#+@@@.++++++++.     ",
" .@@@#++@.++++++++.     ",
" .@@@@@@+.+++++++$%     ",
" .@@@&@@@.....%$%$%%$%  ",
" .@@..&@@+***%++%$%$++% ",
" .@@.+.&@+***$+++%$+++$ ",
" .@@&.&@@+***%%++++++%% ",
" .@@@&@@@+**$$$%++++%$$$",
" .@@@@@@@+**%%$$++++$%$%",
"  ..@@@@@+***$%++++++$% ",
"    ..@@@+**.$+++$%+++$ ",
"      ..@+*.*$++%%$%++% ",
"        ...   %%$%$%$%  ",
"                 %%     "};
