/* XPM */
static char * del_arkfile_x_xpm[] = {
"24 24 6 1",
" 	c None",
".	c #777777",
"+	c #CCCCCC",
"@	c #808080",
"#	c #FFFFFF",
"$	c #999999",
"            .......     ",
"           ..+++++.     ",
"          .+.+++++.     ",
"         ....+++++.     ",
"         .++++++++.     ",
"      @@@.+.++++++.     ",
"     @+++.+..+++++.     ",
"    @+........++++.     ",
"   @+@+++.+..+++++.     ",
"  @#@++++.+.++++++.     ",
"  ++@#+++.++++++++.     ",
"  +++@##+.++++++++.     ",
"  @+++++#.+++++++..     ",
"  +++$+++.............  ",
"  ++@@$++#....##....##. ",
"  @+@#@$+#....###..###. ",
"  ++$@$++#.....######..@",
"  +++$+++#......####...@",
"  @@+++++#......####...@",
"  ##@@+++#.#@..######..@",
"    ##@@+#.#@.###..###.@",
"      ##@@.@#@##....##.#",
"        #@@##@.........#",
"         ##  ###@@@@@## "};
