/* XPM */
static const char*delete_mime[]={
"32 32 13 1",
"# c #339933",
"b c #000000",
"i c #00ccff",
"c c #99cc33",
"j c #000099",
"e c #ccff66",
"k c #999999",
". c None",
"f c #990033",
"g c #ff9933",
"h c #ccffff",
"a c #ffffff",
"d c #ff0000",
"................................",
"................#...............",
".......######..##...............",
".....###aaaa###a#b..............",
"...###aaccccacca#dbb............",
"...#aacc####ccca#dddbb..........",
"..##ec###..#ccca#dddddbb........",
"..#ec##...#######dddddddb.......",
".#cc##...########ddddddfb.......",
".#cc#......bgdddddddddffb.......",
".#cc#......bgggddddddfffb.......",
".#cc#..bbbbbgggggdddffffb.......",
".#cc#bbhihjbbbgggggfffffb.......",
".#c.bjhhhihiibgggggfffffb.......",
".#.bjhhhhhihiibggggfffffb.......",
"...bhihhhhhiiibggggjjjjjjj......",
"..bhihhhhhihiiibggjjjjjjjjjj....",
"..bihihihihiiiibgjjjjjjjjjjjj...",
"..biihihihiiiiibjjjajjjjjjajjj..",
"..bihihihiiiiiibjjaaajjjjaaajj..",
"..kbiiiiiiiiiibjjjjaaajjaaajjjj.",
"...biiiiiiiiiibjjjjjaaaaaajjjjj.",
"...kbiiiiiiiibkjjjjjjaaaajjjjjj.",
"....kbiiiiibbkkjjjjjjaaaajjjjjj.",
"......kbbbbkkk.jjjjjaaaaaajjjjj.",
"................jjjaaajjaaajjjj.",
"................jjaaajjjjaaajj..",
"................jjjajjjjjjajjj..",
".................jjjjjjjjjjjj...",
"..................jjjjjjjjjj....",
"....................jjjjjj......",
"................................"};
