/* XPM */
static char * Design32_xpm[] = {
"32 32 21 1",
" 	c None",
".	c #D1D0D1",
"+	c #3F3432",
"@	c #8A8A8A",
"#	c #F2D293",
"$	c #6A676A",
"%	c #EDC26D",
"&	c #CF9950",
"*	c #664F4D",
"=	c #E5B252",
"-	c #B67836",
";	c #AE7C5A",
">	c #965F17",
",	c #000000",
"'	c #FBC733",
")	c #FEFD01",
"!	c #FFFF00",
"~	c #E6AC0D",
"{	c #CC9900",
"]	c #FFE033",
"^	c #FFCC33",
"                                ",
"                                ",
"                                ",
"                         .+@    ",
"                       #$++.    ",
"                     #%&*+*     ",
"                   #%=&-;>.     ",
"                  #===->;,      ",
"                #%==&&-->,      ",
"              #%==&&&-->,       ",
"            ##====&&-->>,       ",
"           #=====&&-->-,        ",
"         #%=====&&----+,        ",
"        #=======&&-->>,         ",
"       ='=====&&&-->>>,         ",
"     )!))~====&&-->>>,          ",
"    !))!)~===&&--->->,          ",
"   !!!!))~{&&&-->>>>,           ",
"  !!!!!!]'^^'--->>>>,           ",
" !!!!!!]^^^^^-->>>>,            ",
" !!!!!]^^^^'^&>>>>>+    ,,      ",
" !!!!]^^^^^^'&{{>>,     ,,      ",
" !!!]^^^^^^^~{{{>>+ ,,  ,,  ,,  ",
" !!]^^^^^^^~{{{{>+  ,,,,,,,,,,  ",
" !]^^^^^^^~{{{{>+    ,,,,,,,,   ",
" ]^^^^^^^~{{{{>,       ,,,,     ",
" ^^^^^^^~{{{{-,      ,,,,,,,,   ",
" ^^^^^^~{{{{>,      ,,,,,,,,,,  ",
" ^^^^^~{{{{>,       ,,  ,,  ,,  ",
" ^^^^~{{{{>,            ,,      ",
" ^^^~{{{{-,             ,,      ",
"                                "};
