/* XPM */
static char *delete[] = {
/* width height num_colors chars_per_pixel */
"    32    32       12            1",
/* colors */
". c #ffffff",
"# c #636363",
"a c #9c9c9c",
"b c #cecece",
"c c #9c9c63",
"d c #ceceff",
"e c #63639c",
"f c #000063",
"g c #00009c",
"h c #31009c",
"i c None",
"j c #000000",
/* pixels */
"iiiiiiiiiiiiiiiiiiiiiiiiiiiiiiii",
"iiiiiiiiiiiiiiiiiiiiiiiiiiiiiiii",
"iiiiiiiiiiiiiiiiiiiiiiiiiiiiiiii",
"iiiiiijjjjjjjjjjjjiiiiiiiiiiiiii",
"iiiiiij..........#jiiiiiiiiiiiii",
"iiiiiij..........a#jiiiiiiiiiiii",
"iiiiiij...ggggggg#bajiiiiiiiiiii",
"iiiiiij.........da.b#jiiiiiiiiii",
"iiiiiij...gggggggc..bajiiiiiiiii",
"iiiiiij......d.d.egggggjiiiiiiii",
"iiiiiij.d.d.d.d.d.ddddbjiiiiiiii",
"iiiiiij...gggggggdd.ddbjiiiiiiii",
"iiiiiijd.d.d.d.dddddddbjiiiiiiii",
"iiiiiij.d.gggggggfgfgffgiiiiiiii",
"iiiiiij..dd.dddfggfgfggghiiiiiii",
"iiiiiij.dd.dd.fggffgfgfffgiiiiii",
"iiiiiijd.dggggfg.fgfgfg.gfgiiiii",
"iiiiiijdd.dddfg...gfgf...gfiiiii",
"iiiiiij.ddggfgff...gf...fgfgiiii",
"iiiiiijdddddggfgg......fgfgfiiii",
"iiiiiijd.dggffgffg....ggfgfgiiii",
"iiiiiijdddddggfgff....fgfgfgiiii",
"iiiiiijdddddffgfg......fgfgfiiii",
"iiiiiijbbbbbggfg...fg...fgfgiiii",
"iiiiiijjjjjjjfg...fgfg...fgiiiii",
"iiiiiiiiiiiiigfg.gfgffg.gfgiiiii",
"iiiiiiiiiiiiiigfffgfgfgffgiiiiii",
"iiiiiiiiiiiiiiifggfgfggfgiiiiiii",
"iiiiiiiiiiiiiiiiifgfgffiiiiiiiii",
"iiiiiiiiiiiiiiiiiiiiiiiiiiiiiiii",
"iiiiiiiiiiiiiiiiiiiiiiiiiiiiiiii",
"iiiiiiiiiiiiiiiiiiiiiiiiiiiiiiii"
};
