/* XPM */
static char *help[] = {
/* width height num_colors chars_per_pixel */
"    32    32       10            1",
/* colors */
". c #ffffff",
"# c None",
"a c #cccccc",
"b c #99ccff",
"c c #999999",
"d c #669999",
"e c #666699",
"f c #3399cc",
"g c #336699",
"h c #333399",
/* pixels */
"################################",
"############bbgggc##############",
"##########bffhghhhhd############",
"########bbfghhhhhhhhh###########",
"#######bfehcc###ehhhhh##########",
"######bfggcc#####ghhhhh#########",
"######beghcc######eghhhh########",
"#####bbffghcd######fehhhc#######",
"#####bf...hhc######bfghhh#######",
"#####bff.hhhc######b.ghhh#######",
"#####bfghhhhd######b.ghhh#######",
"######feghhcd######bfghhh#######",
"#######eghcd######afgghhd#######",
"########ccc######afeghhdc#######",
"################eeehhhcd########",
"###############gehhhhcc#########",
"##############eghhhhcc##########",
"#############bfhhhhcd###########",
"############bf.hhhdc############",
"###########ab..hhcd#############",
"###########bffhhhcc#############",
"###########bfhhhhc##############",
"############cccccc##############",
"##############ccc###############",
"#############bbbcc##############",
"############bffggd##############",
"###########bb...ggc#############",
"###########bff.gggc#############",
"###########bfgggggd#############",
"############fegggd##############",
"#############gggcc##############",
"##############dcd###############"
};
