/* XPM */
static char *refresh[] = {
/* width height num_colors chars_per_pixel */
"    32    32       30            1",
/* colors */
". c #ffffff",
"# c #ffccff",
"a c #ffcccc",
"b c None",
"c c #ccffff",
"d c #ccccff",
"e c #cccccc",
"f c #cccc99",
"g c #cc99cc",
"h c #99cccc",
"i c #9999cc",
"j c #999999",
"k c #999966",
"l c #996699",
"m c #996666",
"n c #669999",
"o c #666699",
"p c #666666",
"q c #663333",
"r c #336699",
"s c #336666",
"t c #336633",
"u c #333399",
"v c #333366",
"w c #333333",
"x c #330033",
"y c #003399",
"z c #003366",
"A c #003333",
"B c #000033",
/* pixels */
"bbbbbbbbbbbbbbbbbbbbbbbbbbbbbbbb",
"bbbirjebbbbbbbbbbbbbbbbbbbbbbbbb",
"bbovuojebbbbbbbbbbbbbbbbbbbbbbbb",
"bbbzrvopbbbbbbbbbbbbbbbbbbbbbbbb",
"bbbozusojbbbbbbbbbbbbbbbbbbbbbbb",
"bbbdzvurpjbbbbbbbbbbbbbbbbbbbbbb",
"bbbbizvvopebbbbbbbbbbbbbbbbbbbbb",
"bbbbbozurpjbbbbbbbbbbbbbbbbbbbbb",
"bbbbbduzvopjbbbbbbbbbbbbbbbbbbbb",
"bbbbbbeuyuopbbbbbbbbbbbbbbbbbbbb",
"bbbbbbbizvrojbbbbbbbbbbbbbbbbbbb",
"bbbbbbbbryuonjedejjbbbbbbbbbbbbb",
"bbbbbbbbezusurooijejjkbbbbbbbbbb",
"bbbbbbbbboruvuneejnpjojbbbbbbbbb",
"bbbbbbbbbizsojefjopjeepjbbbbbbbb",
"bbbbbbbbbvoghejppjee.empbbbbbbbb",
"bbbbbbbbnicejjjoje.ejwwpjbbbbbbb",
"bbbbbbbi.ajppeee..jwwwwwpjbbbbbb",
"bbbbbbb.ejjjeee.epwwwwwwwpbbbbbb",
"bbbbbbjee...c#cmwwwwwxwxwwspjbbb",
"bbbbbbja.ceaejqwwwwwwAwwwwwwwwpb",
"bbbbbbbjae.epwAwwwxAxwwwwwwwxwep",
"bbbbbbbbeemwwwwwBwwwwwwwwwwwetpp",
"bbbbbbbbjpwwwwwxwwwwwwwxwwwewplb",
"bbbbbbbbbwwwwxAwwwxwwBwwwwewpjbb",
"bbbbbbbbbpwAwwxwAwAxwwwBewppbbbb",
"bbbbbbbbbbxwxwwxwxwwwxwewpjbbbbb",
"bbbbbbbbbbpwAwwAwwwwAwewpjbbbbbb",
"bbbbbbbbbbbpxAwxwxAxeptpbbbbbbbb",
"bbbbbbbbbbbbpwwwwwwewplbbbbbbbbb",
"bbbbbbbbbbbbbpwwwwewpjbbbbbbbbbb",
"bbbbbbbbbbbbbbbppppjbbbbbbbbbbbb"
};
