/* XPM */
static char *appicon32[] = {
/* width height num_colors chars_per_pixel */
"    32    32       21            1",
/* colors */
". c #ffffff",
"# c #cecece",
"a c #ffcece",
"b c #ce9c9c",
"c c #ff9c9c",
"d c #ce6363",
"e c #ff3131",
"f c #ff3100",
"g c #ff6331",
"h c #ff9c63",
"i c #639c63",
"j c #ceffff",
"k c #9ccece",
"l c #ceceff",
"m c #9c9cce",
"n c #00009c",
"o c #ffceff",
"p c #ce9cce",
"q c #9c639c",
"r c None",
"s c #000000",
/* pixels */
"rrrrrrrrrrrrrrrrrrrrrrrrrrrrrrrr",
"rrrrrrrrrrrrrrrrrrrrrrrrrrrrrrrr",
"rrrrrrrsssrrrrrrrrrrrrrrrrrrrrrr",
"rrrrrrrs..ssrrrrrrrrrrrrrrrrrrrr",
"rrrrrrrs....ssrrrrrrrrrrrrrrrrrr",
"rrrrrrrs......ssrrrrrrrrrrrrrrrr",
"rrrrrrrs....acaqsrrrrrrrrrrrrrrr",
"rrrrrrrs...agfgi.srrrrrrrrrrrrrr",
"rrrrrrrs...cfffq.srrrrrrrrrrrrrr",
"rrrrrrrs...hfffi..srrrrrrrrrrrrr",
"rrrrrrrs...gfffq..srrrrrrrrrrrrr",
"rrrrrrrs...efffi...srrrrrrrrrrrr",
"rrrrrrrs..lffffqiq.nsrrrrrrrrrrr",
"rrrrrrrs...ffffdpknnsrrrrrrrrrrr",
"rrrrrrrs.ojafffc.l#msrrrrrrrrrrr",
"rrrrrrrs.j.offfjl.l.srrrrrrrrrrr",
"rrrrrrrs.ojlfffojojlsrrrrrrrrrrr",
"rrrrrrrs..o.cfclojolsrrrrrrrrrrr",
"rrrrrrrs.ljlcfbojll.srrrrrrrrrrr",
"rrrrrrrs.jo.lgojol.lsrrrrrrrrrrr",
"rrrrrrrs.ojllljlljllsrrrrrrrrrrr",
"rrrrrrrs.lojcgclololsrrrrrrrrrrr",
"rrrrrrrs.jllgfgjlljlsrrrrrrrrrrr",
"rrrrrrrs.lolgfglllllsssrrrrrrrrr",
"rrrrrrrssljlceblolllsssssrrrrrrr",
"rrrrrrrrrsslllllllllssssssrrrrrr",
"rrrrrrrrrrrsslllllllsssssrrrrrrr",
"rrrrrrrrrrrrrsslllllssssrrrrrrrr",
"rrrrrrrrrrrrrrrsslllsssrrrrrrrrr",
"rrrrrrrrrrrrrrrrrsslssrrrrrrrrrr",
"rrrrrrrrrrrrrrrrrrrssrrrrrrrrrrr",
"rrrrrrrrrrrrrrrrrrrrrrrrrrrrrrrr"
};
