/* XPM */
static char *alert[] = {
/* width height num_colors chars_per_pixel */
"    16    16        6            1",
/* colors */
". c #000000",
"# c #808080",
"a c #c0c0c0",
"b c #ff0000",
"c c None",
"d c #ffffff",
/* pixels */
"cccccccccccccccc",
"cccccccccccccccc",
"ccddddddddddcccc",
"ccdbbddddddd#ccc",
"ccdbbd....dd#ccc",
"ccdbbddddddd#ccc",
"ccdbbd....dd#ccc",
"ccdbbddddddd#ccc",
"ccdbbd...ddd#ccc",
"ccddddddddda#ccc",
"ccdbbdd######ccc",
"ccdbbdd#a###cccc",
"ccdddda###cccccc",
"ccddda##cccccccc",
"ccc###cccccccccc",
"cccccccccccccccc"
};
