/* XPM */
static char *save filtered log file1a[] = {
/* width height num_colors chars_per_pixel */
"    32    32        7            1",
/* colors */
". c #ffffff",
"# c None",
"a c #cccccc",
"b c #999999",
"c c #6699ff",
"d c #0000ff",
"e c #000000",
/* pixels */
"####eeee########################",
"###e....eee#####################",
"###e..aa...eee##################",
"###e.ebabba...eee###############",
"###e.ebbddbbba...eee############",
"###e.ccbdddddbbba...eee#########",
"###e.ccbddddddddbbb....e########",
"###e.ccb..dddddddddbba..e#######",
"###e.ccb.....dddddddbbebe#######",
"###e.ccb........ddddbbebe#######",
"###e.ccb..........bbbccbe#######",
"###e.ccb............bccbe#######",
"###e.ccb............bccbe#######",
"###e.ccb............bccbe#######",
"###e.ccb............bccbe#######",
"###e.cccbb..........bccbe#######",
"###e.cccccbbb.......bccbe#######",
"###e.cccbbcccbbb....bccbe#######",
"###e.cccbbbbbcccbbb.bccbe#######",
"###e.cccbbbbbbbbcccbbccbe#######",
"###e.cccbbb..bbbbbcccccbebb#####",
"###e.cccbbb....bbbbccccbebbbbb##",
"###e.cccbbb.aaabbbbccccbebbbbbbb",
"###ebcccbbb.aaabbbbccccbebbbbbbb",
"####ebbbbbb.aaabbbbccccbebbbbbb#",
"#####eeebbbbaaabbbbccccbebbbbb##",
"########eeebbbabbbbccccbebbbb###",
"##########eeeebbbbbccccbebbb####",
"##############eeebbccccbebb#####",
"#################eeebbbbeb######",
"####################eeeeb#######",
"################################"
};
