/* XPM */
static char *debug16[] = {
/* width height num_colors chars_per_pixel */
"    16    16       20            1",
/* colors */
". c #ff9999",
"# c #ff3366",
"a c None",
"b c #cccccc",
"c c #cc9999",
"d c #cc3333",
"e c #cc0000",
"f c #99cccc",
"g c #999999",
"h c #996666",
"i c #993333",
"j c #990033",
"k c #990000",
"l c #669999",
"m c #666666",
"n c #663333",
"o c #660000",
"p c #333333",
"q c #330000",
"r c #000000",
/* pixels */
"aaaaamrrrmmaaaaa",
"aaabraammaambaaa",
"aabpapmffpbapgaa",
"abpammfbblpamrba",
"bpampmmmmmgrparb",
"paapkd.noippbmag",
"maaqkednipddmaap",
"mapqeeknpdkkppap",
"paaqkdhriedimaap",
"maankdpnok#ibaar",
"mbmpiphokdcqppam",
"bmaapiknjkimaapb",
"abmpgodnkdnaapba",
"aabpabnqqmaapbaa",
"aaabpaaaaaapbaaa",
"aaaabpppppmbaaaa"
};
