/* XPM */
static char *filter select[] = {
/* width height num_colors chars_per_pixel */
"    32    32       12            1",
/* colors */
". c #ffffff",
"# c #ffffcc",
"a c #ff6633",
"b c None",
"c c #ff0000",
"d c #cccccc",
"e c #cc0033",
"f c #999999",
"g c #990000",
"h c #0000ff",
"i c #000099",
"j c #000000",
/* pixels */
"bbjjjjbbbbbbbbbbbbbbbbbbbbbbbbbb",
"bj....jjjbbbbbbbbbbbbbbbbccccccc",
"bj..dd...jjjbbbbbbbbbbbbbccccccg",
"bj.fbbffd...jjjbbbbbbbbbbgcccccb",
"bj.fbb#bfffd...jjjbbbbbbbcccccgb",
"bj.f###bbb#fffd...jjjbbbccccccbb",
"bj.fbb##bb#bbbfff....jjcccggcgbb",
"bj.fbb#b###ccb#bbfff...jggbbgbbb",
"bj.f#b#bccccc##bbb#cfd..jbbbbbbb",
"bj.fb###ggcccb###b#ccg.fjbbbbbbb",
"bj.fbb##ccggcb#bc###gb.fjbbbbbbb",
"bj.fbb#cgg##gb#bcc#g##.fjbbbbbbb",
"bj.f#ccgbb#bb###gg#bb#.fjbbbbbbb",
"bj.ccgg#bb#hhb#b###bbb.fjbbbbbbb",
"bjcggb#bhhhhhb#bbb###b.fjbbbbbbb",
"ccgf#b#biihhh##bbb#bb#.fjbbbbbbb",
"gg.fb##bhhiihb##bb#bbb.fjbbbbbbb",
"bj.fbb#hii#bib#b###bbb.fjbbbbbbb",
"bj.fbhhibb##bb#bbb###b.fjbbbbbbb",
"bj.hhiibbb#aa##bbb#bb#.fjbbbbbbb",
"bjhii###aaaaab###b#bbb.fjbbbbbbb",
"hhifbb##eeaaab#bb###bb.fjffbbbbb",
"ii.fbb#baaeeab#bbb#b##.fjfffffbb",
"bjf...#aee#be###bb#bbb.fjbbfffff",
"bbjffaae...bbb#b###bbb.fjbbbbfff",
"bbbaaeefff..bb#bbb####.fjbbbfffb",
"bbaeebjjjfff....bb#bb#.fjbbfffbb",
"aaebbbbbjjjjffff..#bbb.fjbfffbbb",
"eebbbbbbbbbbjjjffff..b.fjfffbbbb",
"bbbbbbbbbbbbbbbjjjff...fjffbbbbb",
"bbbbbbbbbbbbbbbbbbjjjfffjfbbbbbb",
"bbbbbbbbbbbbbbbbbbbbbjjjfbbbbbbb"
};
