/* XPM */
static char * document_xpm[] = {
"32 32 11 1",
" 	c None",
".	c #000000",
"+	c #9999FF",
"@	c #FFFFFF",
"#	c #99CCFF",
"$	c #000066",
"%	c #CCCCFF",
"&	c #CCFFFF",
"*	c #000099",
"=	c #999999",
"-	c #9999CC",
"                                ",
"                                ",
"                                ",
"        ...                     ",
"       .++@..                   ",
"      ..#@@@@..                 ",
"     .@.+@@@@@@..               ",
"    .@@.+$$@@@@@@.              ",
"    ..@@.@@$$@@@@.              ",
"    .@...@@@@$$@%.              ",
"    .@@@@$$@@@@%%.              ",
"    .@@@@@@$$%%%%.              ",
"    .@@$$@@@%$$%%.              ",
"    .@@@@$$%%%%%&.              ",
"    .@@@@@%$$%%%%.              ",
"    .@@$$%%%%$$%%.              ",
"    .@@@%$$%%%%%%. .            ",
"    .@%%%%%$$%%%%.....          ",
"    .@%$$%%%%%%%%.......        ",
"    .@%%%$$%%%%%%.........      ",
"    .%%%%%%$$%%%%...........    ",
"    .%%$*%%%%$$%&.............  ",
"    .%%%%$$%%%%%%.............. ",
"    .=-%%%%%%%%%%.............  ",
"     ..-=%%%%%%%%...........    ",
"       ..=-%%%%%%.........      ",
"         ..-=%%%%.......        ",
"           ..=-%%.....          ",
"             ..-=...            ",
"               ...              ",
"                                ",
"                                "};
