/* XPM */
static char * exec32_xpm[] = {
"32 32 11 1",
" 	c None",
".	c #A1A1A1",
"+	c #5D5D5D",
"@	c #C9C9C9",
"#	c #FFFF00",
"$	c #999900",
"%	c #666699",
"&	c #666600",
"*	c #000000",
"=	c #FFFFFF",
"-	c #999966",
"                                ",
"                                ",
"                    .+ .+       ",
"                 .     +.       ",
"                 ++        .    ",
"                      @#       $",
"                   @+ @#%    &##",
"            ****** .#+@=- #&##& ",
"           *.+.+@@*+%#+#%#.#$   ",
"           *+.+.@.*.-%#=#-#   % ",
"        *****.++==*@####=%+     ",
"       *+.+@@***===@+.#=-=-.    ",
"       *..+@@======..#%-%%#  %- ",
"       *++.@.@=====.+**#-    -% ",
"        **+.+======*@@*#%-      ",
"        *@@**===**********      ",
"      *******===*@@@@@@@*.*     ",
"      *.+.+.+==*========*@+     ",
"      *+.+.=@==*@+...+@*+=.     ",
"      *.+.+=@==*@.+@.+@*.=+     ",
"       *****+==*.++.++.+*@.     ",
"         *@@*===*..+..+.*+*     ",
"        .*@@**===*********      ",
"        +**.+.========+.*       ",
"        *+.+@@@========+*       ",
"  ***** *.+.@.======.+=.+       ",
" ********.++@@***===+.=**       ",
"**************.+.==****         ",
"  ***********.+.+@@*            ",
"   **********+.+.@.*            ",
"         **********             ",
"                                "};
