/* XPM */
static char * deletefile_xpm[] = {
"24 24 9 1",
" 	c None",
".	c #FFFFFF",
"+	c #C0C0C0",
"@	c #FF0033",
"#	c #CCCCCC",
"$	c #CC0033",
"%	c #999999",
"&	c #666666",
"*	c #000000",
"              *******   ",
"             **.....*   ",
"            *.*.....*   ",
"           ****.....*   ",
"        ** *........*   ",
"       *##**.$......*   ",
"      *####*.@$.....*   ",
"     *##$$@$$$$$....*   ",
"    *##$###*.@$.....*   ",
"   *..$####*.$......*   ",
"   *##@.###*........*   ",
"   *###$..#*........*   ",
"   *######.*........*   ",
"   *###%###**********   ",
"   *##**%##.&&&&&*&&    ",
"   *##*.*%#.&&&&&*&&&   ",
"   *##%*%##.&&&&&*&&&   ",
"   *###%###.&&&&&*&&    ",
"   *#######.&&&&*&&     ",
"    **#####.&&&*&&      ",
"      **###.&&*&&       ",
"        **#.&*&&        ",
"          ***           ",
"                        "};
