/* XPM */
static char * deletefile_x_xpm[] = {
"24 24 9 1",
" 	c None",
".	c #FFFFFF",
"+	c #C0C0C0",
"@	c #FEFEFE",
"#	c #FDFDFD",
"$	c #FCFCFC",
"%	c #F5F5F5",
"&	c #C0C0C0",
"*	c #808080",
"              *******   ",
"             **.....*   ",
"            *.*.....*   ",
"           ****.....*   ",
"        ** *........*   ",
"       **&**.*......*   ",
"      *&&&**.**.....*   ",
"     *&*********....*   ",
"    **&*&&&*.**.....*   ",
"   *..*&&&&*.*......*   ",
"   *&&*.&&**........*   ",
"   *&&&*..&*........*   ",
"   **&&&&&.*........*   ",
"   *&&&*&&&**********   ",
"   *&&**&&&.********.   ",
"   *&&*.**&.*********   ",
"   **&***&&.*********   ",
"   *&&&*&&&.********.   ",
"   *&&&&&&&.*******.    ",
"   @**&&&&&.******.     ",
"    $@**&&%.*****.      ",
"      #.**&.****.       ",
"        ..***...        ",
"          ...           "};
