/* XPM */
static char * Fax32_xpm[] = {
"32 32 134 2",
"  	c None",
". 	c #2B2B2B",
"+ 	c #101010",
"@ 	c #3F3E3A",
"# 	c #ACAAA0",
"$ 	c #EAE8DA",
"% 	c #FAF7E8",
"& 	c #BCB9AE",
"* 	c #8D8B83",
"= 	c #1F1F1D",
"- 	c #202020",
"; 	c #9C9A91",
"> 	c #6D6C66",
", 	c #100F0F",
"' 	c #7D7C74",
") 	c #DBD8CB",
"! 	c #000000",
"~ 	c #8F8F8F",
"{ 	c #D4D4D4",
"] 	c #464646",
"^ 	c #959595",
"/ 	c #DBDBDB",
"( 	c #E1E1E1",
"_ 	c #5E5D57",
": 	c #AEAEAE",
"< 	c #B7B7B7",
"[ 	c #989898",
"} 	c #BDBDBD",
"| 	c #CBCBCB",
"1 	c #CCCCCC",
"2 	c #CDCDCD",
"3 	c #CECECE",
"4 	c #D0D0D0",
"5 	c #D1D1D1",
"6 	c #B8B8B8",
"7 	c #353535",
"8 	c #222222",
"9 	c #AFAFAF",
"0 	c #828282",
"a 	c #0B0B0B",
"b 	c #6E6E6E",
"c 	c #B3B3B3",
"d 	c #B5B5B5",
"e 	c #BABABA",
"f 	c #BCBCBC",
"g 	c #BFBFBF",
"h 	c #C1C1C1",
"i 	c #C4C4C4",
"j 	c #CACACA",
"k 	c #9C9C9C",
"l 	c #272727",
"m 	c #2D2D2D",
"n 	c #424242",
"o 	c #575757",
"p 	c #777777",
"q 	c #161616",
"r 	c #939393",
"s 	c #C2C2C2",
"t 	c #C5C5C5",
"u 	c #C7C7C7",
"v 	c #818181",
"w 	c #0D0D0D",
"x 	c #CBC9BD",
"y 	c #2F2E2C",
"z 	c #999999",
"A 	c #B0B0B0",
"B 	c #595959",
"C 	c #515151",
"D 	c #C0C0C0",
"E 	c #C6C6C6",
"F 	c #C8C8C8",
"G 	c #656565",
"H 	c #2E2E2E",
"I 	c #898989",
"J 	c #B1B1B1",
"K 	c #9F9F9F",
"L 	c #393939",
"M 	c #0C0C0C",
"N 	c #767676",
"O 	c #C9C9C9",
"P 	c #4A4A4A",
"Q 	c #181818",
"R 	c #8C8C8C",
"S 	c #B9B9B9",
"T 	c #858585",
"U 	c #2C2C2C",
"V 	c #8B8B8B",
"W 	c #171717",
"X 	c #242424",
"Y 	c #C3C3C3",
"Z 	c #929292",
"` 	c #3C3C3C",
" .	c #787878",
"..	c #BEBEBE",
"+.	c #BBBBBB",
"@.	c #717171",
"#.	c #6D6D6D",
"$.	c #B6B6B6",
"%.	c #5C5C5C",
"&.	c #474747",
"*.	c #747474",
"=.	c #707070",
"-.	c #A2A2A2",
";.	c #B2B2B2",
">.	c #B4B4B4",
",.	c #A1A1A1",
"'.	c #3A3A3A",
").	c #6B6B6B",
"!.	c #757575",
"~.	c #616161",
"{.	c #8A8A8A",
"].	c #232323",
"^.	c #7EC65F",
"/.	c #76BA59",
"(.	c #686868",
"_.	c #3F6330",
":.	c #5F9547",
"<.	c #203218",
"[.	c #979797",
"}.	c #ACACAC",
"|.	c #454545",
"1.	c #10190C",
"2.	c #2F4A24",
"3.	c #3B3B3B",
"4.	c #A3A3A3",
"5.	c #505050",
"6.	c #414141",
"7.	c #6C6C6C",
"8.	c #5B5B5B",
"9.	c #5A5A5A",
"0.	c #404040",
"a.	c #585858",
"b.	c #565656",
"c.	c #4C4C4C",
"                                                                ",
"                                                                ",
"                                  . . . +                       ",
"                              . @ # $ % & . .                   ",
"                            . * % % % % % % # = -               ",
"                          . ; % % % % % % % % % ; = .           ",
"                        . > % % % % % % % % % % % % * , .       ",
"                        . $ % % % % % % % % % % % % % $ ' , .   ",
"                      - ; % % % % % % % % % % % % % % ) > , .   ",
"                ! ! . = % % % % % % % % % % % % % $ > . .       ",
"            ! ! ~ { ] * % % % % % % % % % % % % # . .           ",
"        ! ! ^ / ( ( ! ) % % % % % % % % % % % _ .               ",
"    ! ! : / ( ( ( < ! ' $ % % % % % % % % % _ . .               ",
". . [ } | 1 2 3 4 5 6 7 , * % % % % % % % _ 8 9 0 ! !           ",
"! a b c d < e f g h i j k l = & % % % % # ! a m n o . ! !       ",
". p q m r 6 e f g s t u j 2 v w @ x % % y ! ! ! ! ! m z ! !     ",
". : A B a C 9 } D s t E F j | g G w _ x ! ! ! ! H I d c J 9 ! ! ",
". : A c K L M N g h s i E u O j O : P ! ! ! Q R S < d c T U q a ",
". : A c d < V W X ~ D h Y i E u E t i Z `  ...+.e < @.W q #.@.. ",
". : 9 J c d $.6 %.M &.c D h Y t i Y h D g } f +.*.W W =.@.@.@.. ",
"! ! -.9 A ;.>.d $.,.'.M ).g d . . . . ..f +.!.W W @.@.@.@.@.@.. ",
"  ! ! ~.: 9 A ;.>.d < {.].X . ^.^.^./.. !.W H @.@.@.@.@.@.@.@.. ",
"      ! ! 0 : 9 J c d $.< (.M _./.^.:.<.H @.@.@.@.@.@.@.@.@.! ! ",
"          ! ! [.: A J c d $.}.|.1.2.H @.@.@.@.@.@.@.@.@.3.!     ",
"              ! ! 4.9 A ;.>.d < 5.5.@.@.@.@.@.@.@.@.6.!         ",
"                  ! 7.: 9 J ;.>.8.9.@.@.@.@.@.@.6.!             ",
"                    ! 0.0 : 9 J B B @.@.@.@.6.!                 ",
"                        ! ! [ 9 a.a.@.@.b.!                     ",
"                            ! ! c.c.! !                         ",
"                                . .                             ",
"                                                                ",
"                                                                "};
