/* XPM */
static char * Folder32_xpm[] = {
"32 32 9 1",
" 	c None",
".	c #000000",
"+	c #9999FF",
"@	c #99CCFF",
"#	c #CCCCFF",
"$	c #CCFFFF",
"%	c #333399",
"&	c #9999CC",
"*	c #999999",
"                                ",
"     ...                        ",
"    .++....                     ",
"   ..+++++...                   ",
"   .++++++++.                   ",
" ...++++@+++..                  ",
" .##..+++++++.                  ",
" .####..+++++.                  ",
" .######..++++..                ",
" .########..++++..              ",
" .##########..++++..            ",
" .############..++++..          ",
" .#############+..++++..        ",
" .######$####+##$+..++++.       ",
" .########+#####+#++..++.       ",
" .##########++####++++.+.       ",
" .#############++#+#++.+.       ",
" .#########+##+###++++.+.       ",
" .#######+##++#+++++++.%.       ",
" .############+#+#++++.%.       ",
" .######+##+#+#+++++++.%..      ",
" .&*###+$+##+##+@+++++.%....    ",
"  ..**#####+#+++++++++.%.....   ",
"    ..&*#++##++#++++++.%....... ",
"      ..*&#+++++++++++.%........",
"        ..&*+#++++++++.%....... ",
"          ..**++#+++++.%......  ",
"            ..&*++++++.%....    ",
"              ..*&++++.%...     ",
"                ..&*++.%..      ",
"                  ..**.%.       ",
"                    ....        "};
