/* XPM */
static char * new16_xpm[] = {
"16 16 34 1",
" 	c None",
".	c #FF00FF",
"+	c #EA35EA",
"@	c #E338E3",
"#	c #F920F9",
"$	c #351935",
"%	c #261226",
"&	c #F724F7",
"*	c #F823F8",
"=	c #361A36",
"-	c #000000",
";	c #311731",
">	c #F627F6",
",	c #F922F9",
"'	c #3D1D3D",
")	c #200020",
"!	c #421142",
"~	c #F726F7",
"{	c #2B152B",
"]	c #2E162E",
"^	c #F528F5",
"/	c #E835E8",
"(	c #3C003C",
"_	c #F429F4",
":	c #E637E6",
"<	c #271327",
"[	c #1F0F1F",
"}	c #290929",
"|	c #762976",
"1	c #F22DF2",
"2	c #F532F5",
"3	c #3A0E3A",
"4	c #300930",
"5	c #EE38EE",
"       +@       ",
"      #$%&      ",
"     *=--;>     ",
"    ,'))))!~    ",
"   #$-)    {>   ",
"  *'--)))  -]^  ",
" #$-----) $--]> ",
"/$------  ()--%_",
":<-----$   $)-[_",
" &$----  $$ }<_ ",
"  &$--- $$$ |1  ",
"   *$-  $$  2   ",
"    *$  $       ",
"     &$         ",
"      *345      ",
"       &^       "};
