/* XPM */
static char * ftp32_xpm[] = {
"32 32 40 1",
" 	c None",
".	c #000000",
"+	c #333333",
"@	c #999999",
"#	c #666666",
"$	c #336699",
"%	c #FFFF66",
"&	c #FFCC66",
"*	c #CCCC66",
"=	c #3366CC",
"-	c #333366",
";	c #336633",
">	c #FFCC99",
",	c #6699CC",
"'	c #999966",
")	c #669999",
"!	c #FFCCCC",
"~	c #CCCC99",
"{	c #99CCCC",
"]	c #666699",
"^	c #333399",
"/	c #003366",
"(	c #FFFFCC",
"_	c #CC9966",
":	c #3399CC",
"<	c #FFFFFF",
"[	c #6699FF",
"}	c #CCCCCC",
"|	c #999933",
"1	c #3366FF",
"2	c #99CCFF",
"3	c #66CCFF",
"4	c #CC9933",
"5	c #003333",
"6	c #996633",
"7	c #6666CC",
"8	c #666633",
"9	c #669966",
"0	c #663333",
"a	c #3300CC",
"                                ",
"                                ",
"           ......+              ",
"         ..@##$#+.++            ",
"       ..%&&&*@=$#-;+           ",
"      .@&&>*@,,'=$$-++          ",
"     .)>>>!~&{,@@]=^/++         ",
"     .{((((&&&@_']$^-++         ",
"    .:@((<(>>&*_'$==^-.#        ",
"    .[}<<<(~~*_'$===^-++        ",
"   .$[}<<<>*>&|]1===^-++#       ",
"   .:,2<<(>~*_][,===^-++#       ",
"   .[[3}(&@,@:[,,===^-++#       ",
"   .:,[,!@,3,,[,:===^--+#       ",
"   .,,[[{>@@[,,,=$=^^-++#       ",
"   .:[,[[,~|:[$$1=$^-+++#       ",
"    /:,,,[[,_#4'#$^--+++        ",
"    5=,,,[[,'|''6#--+++#        ",
"     $$,:,,74''6#8+-+++         ",
"     #/$===$|'|6++++++#         ",
"      #/$$$$#9#0+++++#          ",
"     ......................     ",
"     .aaaaaaaaaaaaaaaaaaaa.     ",
"     .aa<<<<a<<<<<a<<<<aaa.     ",
"     .aa<aaaaaa<aaa<aaa<aa.     ",
"     .aa<<<aaaa<aaa<<<<aaa.     ",
"     .aa<aaaaaa<aaa<aaaaaa.     ",
"     .aa<aaaaaa<aaa<aaaaaa.     ",
"     .aaaaaaaaaaaaaaaaaaaa.     ",
"     ......................     ",
"                                ",
"                                "};
