/* XPM */
static const char *get_it32_xpm[] = {
"32 32 10 1",
" 	c None",
".	c #FF00FF",
"+	c #333333",
"@	c #330033",
"#	c #000000",
"$	c #999966",
"%	c #FFFFFF",
"&	c #003399",
"*	c #996600",
"=	c #999999",
"                                ",
"                                ",
"                                ",
"                                ",
"            +@#                 ",
"           #$%$##               ",
"          #$%$%$%##             ",
"         #$%$%$%$%$##           ",
"        #$%$%$%$%$%#%##         ",
"       #$%$%$%&%$%#%$%$##       ",
"      ###$%$%$&$%#%$%$%$%##     ",
"     #$%$&&&&&&%#%$%$%$%$%$#    ",
"    #$%$&&&$%&&&%$%$%$%$%$%$#   ",
"   #$%$%&%$&&%&&&&&&&%$%$%$%*#  ",
"  #$%$%$%&&&%&&&%$%$%&%$%$%*$#  ",
" #$%$%$%$%$%#%$&&%$&&%$%$%*$*#= ",
" #%$%$%$%$%#%$&$&&&&%$%$%*$*$#==",
"#$%%%%$%$%#%$%&%$%$%##$%*$*$*#==",
"#$$$$%%$%#%$%$&$%$%$%$##$*$*#===",
"#$$$$$$%#%$%$%$%$%$%$%*#*$*#=== ",
" +#$$$$$#%%$%$%$%$%$%*$#$*#===  ",
"   +#$$$#$$%$%$%$%$%*$*#*#===   ",
"     +#$#$$$%%%$%$%*$*$##===    ",
"       ##$$$$$$%$%*$*$*#==      ",
"         ##$$$$$%*$*$*#==       ",
"           ##$$$$**$*#==        ",
"             ##$$*$##==         ",
"               ####==           ",
"                                ",
"                                ",
"                                ",
"                                "};
