/* XPM */
static char * h_src_xpm[] = {
"32 32 8 1",
" 	c None",
".	c #000000",
"+	c #9C9CFF",
"@	c #FFFFFF",
"#	c #CECEFF",
"$	c #FF0000",
"%	c #000063",
"&	c #808080",
"                                ",
"                                ",
"       ...                      ",
"      .++@..                    ",
"     ..+@@@@..                  ",
"    .@.+@@@@@@..                ",
"   .@@.+@@@@@@@@.               ",
"   ..@@.@@@@@@@#.               ",
"   .@...@@@@@@@#.               ",
"   .@@@@@@@@@@@#.               ",
"   .@@@$@@@@@@@#.               ",
"   .@@@$%@@@@@@#.               ",
"   .@@#$%@@@@###.               ",
"   .@@@$%#@@@###.               ",
"   .@@#$%###@###.               ",
"   .@@@$$$$#####. .             ",
"   .@@@$%%$$####.....           ",
"   .@@#$%#%$####.......         ",
"   .@##$%##$%###.........       ",
"   .#@##%##$%###...........     ",
"   .#######$%###.............   ",
"   .@#######%###..............  ",
"   .&&##########.............   ",
"    ..&&########...........     ",
"      ..&&######.........       ",
"        ..&&####.......         ",
"          ..&&##.....           ",
"            ..&&...             ",
"              ...               ",
"                                ",
"                                ",
"                                "};
