/* XPM */
static char * help_xpm[] = {
"24 24 23 1",
" 	c None",
".	c #FFFFFF",
"+	c #C0C0C0",
"@	c #CCCCFF",
"#	c #CCCCCC",
"$	c #CC99FF",
"%	c #99CCFF",
"&	c #9999FF",
"*	c #9999CC",
"=	c #999999",
"-	c #9966CC",
";	c #6666FF",
">	c #6666CC",
",	c #666699",
"'	c #663399",
")	c #3366CC",
"!	c #336699",
"~	c #3333CC",
"{	c #333399",
"]	c #3300CC",
"^	c #330099",
"/	c #003399",
"(	c #000099",
"         ,,>,,>         ",
"        {;-*&#({{       ",
"       !(&&@&&@&({      ",
"      >>$&~/{&@*&({     ",
"     ,~&&>*  {&@.&()    ",
"    {(&%&(=   {&&.>^    ",
"    )&..&>(*   {&&@/    ",
"    '&.&&>(=   {&&.]    ",
"    !&@&&>(>   >&@.(    ",
"    *^&~{]{   (-&.{,    ",
"     *(((    ()&&(~#    ",
"            (~&&(~      ",
"           {~@&(~       ",
"          *>&>(~        ",
"          ~&&(~         ",
"          ~&&(          ",
"          (>({          ",
"                        ",
"          ((((          ",
"         (&..~{         ",
"         (&.&>{         ",
"         {&&*(>         ",
"         {{~>(,         ",
"          ~,>,          "};
