/* XPM */
static char * Host32_xpm[] = {
"32 32 12 1",
" 	c None",
".	c #C0C0C0",
"+	c #000000",
"@	c #CCCCCC",
"#	c #FF0000",
"$	c #808000",
"%	c #FFFFC0",
"&	c #A0A0A0",
"*	c #666666",
"=	c #303030",
"-	c #00CC33",
";	c #FFFF00",
"................................",
"................................",
"................................",
"...............................+",
"....................++++......+@",
"........++++......++@@@@++..++@#",
"......++@@@+++..++@@####@@++@@#+",
"....++$+@@@@@@++@@##++++##@@##+.",
"..++$$%%@$+@@@@@++++....++##++..",
".+++%%@$$%%@@+++&+........++....",
".+$%++$%%@@++&*&*+..............",
".+$%&$%+@++*&*&*&+..............",
".+$%&$%$+&*&*&*&*+..............",
".+&=&$%$+*&*&*&*&+..............",
".+&&&$%$+&*&*&*&*+............+.",
".+&&&&=&+*&*&*&*&+.++++......+@.",
".++&&&&++++&*&*&*++@@@@++..++@-.",
"...+&++@@@+++*&++@@----@@++@@-+.",
"...++$+@@@@@@++@@--++++--@@--+..",
".++$$;;@$+@@@@@++++....++--++...",
"+++;;@$$;;@@+++*+........++.....",
"+$;++$;;@@++****+...............",
"+$;@$;+@++******+...............",
"+$;@$;$+********+...............",
"+@=@$;$+********+...............",
"+@@@$;$+********+...............",
"+@@@@=@+*******++...............",
"++@@@@@+*****++.................",
"..+@@@@+***++...................",
"...++@@+**+.....................",
".....+@+++......................",
"......++........................"};
