/* XPM */
static char * html_xpm[] = {
"32 32 12 1",
" 	c None",
".	c #000000",
"+	c #9999FF",
"@	c #FFFFFF",
"#	c #CCCCFF",
"$	c #000099",
"%	c #990000",
"&	c #0000FF",
"*	c #999999",
"=	c #CCCCCC",
"-	c #CCFFFF",
";	c #0000CC",
"                                ",
"                                ",
"         ...                    ",
"        .++@..                  ",
"       ..+@@@@..                ",
"      .@.+@@@@@@..              ",
"     .@@.+@@@@@@@@.             ",
"     ..@@.@@@@@@@@.             ",
"     .@...@@@@@@@@.             ",
"     .@@@@@@@@@@@#.             ",
"     .@$$%@@@@@@##.             ",
"     $$&*=$**@@@##.             ",
"    $=*@===$*@@###.             ",
"   $&&$@@=&$$*#@-#.             ",
"    &&&@@@&$$***##.             ",
"  & $&&$@&&$$$**##. .           ",
"  &$@&&&$@==$$**##.....         ",
"  %=$&&&&@@=$***##.......       ",
"   $&&&&&$==$**###.........     ",
"    =$&&$$=$***###...........   ",
"     $$$$$=***####............. ",
"     .@$;%***###-#..............",
"     .**#***######............. ",
"      ..**########...........   ",
"        ..**######.........     ",
"          ..**####.......       ",
"            ..**##.....         ",
"              ..**...           ",
"                ...             ",
"                                ",
"                                ",
"                                "};
