/* XPM */
static char * image_xpm[] = {
"32 32 15 1",
" 	c None",
".	c #000000",
"+	c #9999FF",
"@	c #FFFFFF",
"#	c #99CCFF",
"$	c #00FFFF",
"%	c #9999CC",
"&	c #999999",
"*	c #CCCCFF",
"=	c #009900",
"-	c #00FF00",
";	c #009999",
">	c #0099CC",
",	c #009933",
"'	c #CCFFFF",
"                                ",
"                                ",
"                                ",
"        ...                     ",
"       .++@..                   ",
"      ..#@@@@..                 ",
"     .@.+@@@@@@..               ",
"    .@@.+@@@@@@@@.              ",
"    ..@@.@@@@@@@@.              ",
"    .@...@..............        ",
"    .@@@@@.$$$$$$$$$$$$.        ",
"    .@@@@@.$$$$$$$%@%.$.        ",
"    .@@@@@.$$$&$$$$..$$.        ",
"    .@@@@@.$%@@.$$$$$$$.        ",
"    .@@@@@.$$..&$$$$..$.        ",
"    .@@@@*.$$$$$$$$.=-..        ",
"    .@@@**.$...$$$.----.        ",
"    .@@@*@.;>=>.$.-=,--.        ",
"    .@@***.;==;;.-=----.        ",
"    .@**@*.;=;,=>.-----...      ",
"    .*@***.;;====>..---.....    ",
"    .***'*.=>;==>;>;..........  ",
"    .*****.;==;;;;;;;;;........ ",
"    .&%***.;>;>;>;>;>;>.......  ",
"     ..%&*..................    ",
"       ..&%******.........      ",
"         ..%&****.......        ",
"           ..&%**.....          ",
"             ..%&...            ",
"               ...              ",
"                                ",
"                                "};
