/* XPM */
static char * instant32_xpm[] = {
"32 32 10 1",
" 	c None",
".	c #000000",
"+	c #FFFFFF",
"@	c #FFFEE1",
"#	c #C0C0C0",
"$	c #C0B000",
"%	c #999999",
"&	c #CCCCCC",
"*	c #000099",
"=	c #666666",
"                                ",
"                                ",
"                                ",
"                                ",
"                                ",
"                                ",
"         .....................  ",
"        .+++++++++++++++++++@.  ",
"        .+@+@+@+@@@@@@@@@@@@@.  ",
"        .++@+@+@@@@@@@@@@@@@@.  ",
"        .+@+.#............@@@.  ",
"        .++@+@@@@@@@@@@@@@@@@.  ",
"        .+@+@@@@@@@@@@$@@@@$@.  ",
"        .++@@@@@@@@@@@@@@$@@@.  ",
"        .+@@..............@@@.  ",
"        .+@@@@@@@@@@@@@@@@@@$.  ",
"        .+@@@@$@@@@@@@$@@@@@@.  ",
"        .+@@..........@@..$$@.  ",
"        .%..%@@@@@@$@$@$@$@$@.  ",
"      ..%%+&.%@@@@$@$@$@$$$$$.  ",
" .....++&&%&.%@@@$$@$$$$$$$$$.  ",
" ***++&%&...%@$@$@$$@$@$$$$$$.  ",
" ***++&..@@@@@@@@...$$$$$$$$$.  ",
" ***&&&+..........=%..........  ",
" ***&&&&++.......++.            ",
" **.%&&&&&++++&++&%.            ",
" **...%%%%%%%%%%...             ",
" ...  ..........%               ",
"                                ",
"                                ",
"                                ",
"                                "};
