/* XPM */
static const char *kclock_xpm[]={
"31 32 16 1",
". c none",
"# c none",
"a c #104848",
"b c #081c18",
"c c #000000",
"d c #003c38",
"e c #304440",
"f c #d8dcd8",
"g c #888c88",
"h c #080808",
"i c #001818",
"j c #004c48",
"k c #000808",
"l c #002c28",
"m c #005c58",
"n c #f8fcf8",
"................#..............",
"..............#abcd#...........",
"..............defgehij.........",
"..............kehegfgel........",
"............#mbgfgeheeb#.......",
"............iggeheggebk........",
"..........#lcbeggebbeed........",
".........#dbbeebbeggeb#........",
"........dbggfgffgeheggl........",
".......jefffnfnnfffgbcd........",
"......iegfnnnnnfgnnfecl#.......",
".....#bffnnnnnnggnnffgi........",
".....defnnnnnnnbgnnnfge#.......",
".....igfnnffnngefnnnnfem.......",
"....#bffnngbegegfnnnnfgk.......",
".....dgfnnnfgegfnnnnnngd.......",
".....kgfnnnnffggnnnnnngb#......",
".....mefnnnnnnnfnnnnnfecj......",
".....#egfnnnnnnffnnnngeee......",
"......igfnnnnnnfgnnngghe.......",
".....#lcefnnnnnnnnffeeim.......",
"......dcbeggfnnfnfggbj.........",
"......lfgeceegggggebd..........",
"......#beggebbebbbd#...........",
"......deebbeggebcl#............",
"......kbegeeheggi..............",
".....#beecbegehm#..............",
"......lbegebcbk................",
".......jiheegbd................",
".........#dcbd#................",
"............#..................",
"..............................."};
