/* XPM */
static char *kdat[] = {
/* width height num_colors chars_per_pixel */
"    32    32        5            1",
/* colors */
"  c none",
". c #ffffff",
"# c #000000",
"a c #808080",
"b c #585858",
/* pixels */
"                                ",
"                                ",
"                                ",
"                ##              ",
"               #aa##            ",
"              #aaa#b##          ",
"             #aaa#bbbb##        ",
"            #aaa#bbbbbb###      ",
"           #aaa#bb...b#aaa##    ",
"          #aaa#bb....#aaaaaa##  ",
"         #aaa#bb..###aaaaaaaaa# ",
"        #aaa#bbb..##aaaaaaaaa## ",
"       #aaa#abbb..#aaaaaaaaa#b# ",
"      #aaa#aabbbb#aaaaaaaaa#bb# ",
"     #aaa#aaaabb#aaaaaaaaa#bb#  ",
"    #aaa#aa...a#aaaaaaaaa#bb#   ",
"   #aaa#aa....#aaaaaaaaa#bb#    ",
"  #aaa#aa..###aaaaaaaaa#bb#     ",
" ##aa#aaa..##aaaaaaaaa#bb#      ",
" #a##aaaa..#aaaaaaaaa#bb#       ",
" #aaa##aaa#aaaaaaaaa#bb#        ",
" ##aaaa###aaaaaaaaa#bb#         ",
"   ##aaaa##aaaaaaa#bb#          ",
"     ##aaaa##aaaa#bb#           ",
"       ##aaaa##a#bb#            ",
"         ##aaaa#bb#             ",
"           ##aa#b#              ",
"             ####               ",
"               #                ",
"                                ",
"                                ",
"                                "
};
