/* XPM */
static char * Help32_xpm[] = {
"32 32 13 1",
" 	c None",
".	c #99CCFF",
"+	c #336699",
"@	c #999999",
"#	c #3399CC",
"$	c #333399",
"%	c #669999",
"&	c #3333CC",
"*	c #666699",
"=	c #FFFFFF",
"-	c #6666CC",
";	c #CCCCCC",
">	c #3366CC",
"                                ",
"             ..+++@             ",
"           .##$+$$$$%           ",
"         ..#+$$$&$$$$$          ",
"        .#*$@@   *$$$$$         ",
"       .#++@@     +$$$$$        ",
"       .*+$@@      *+$$$$       ",
"      ..##+$@%      #*$$$@      ",
"      .#===$$@      .#+$$$      ",
"      .##=$$$@      .=+$$$      ",
"      .#+$$$$%      .=+$$$      ",
"       #-+$$@%      .#+$&$      ",
"        *+$@%      ;#++$$%      ",
"         @@@      ;#*+$$%@      ",
"                 ***$$$@%       ",
"                +*$$$$@@        ",
"               *+$$$$@@         ",
"              .#$$$$@%          ",
"             .#=$$$%@           ",
"            ;.==&$@%            ",
"            .##$$$@@            ",
"            .#$$$$@             ",
"             @@@@@@             ",
"               @@@              ",
"              ...@@             ",
"             .##++%             ",
"            ..===++@            ",
"            .##=>++@            ",
"            .#+++++%            ",
"             #*+++%             ",
"              +++@@             ",
"               %@%              "};
