/* XPM */
static char * kdestart_xpm[] = {
"32 32 14 1",
" 	c None",
".	c #CE6363",
"+	c #633131",
"@	c #CECECE",
"#	c #FF9C9C",
"$	c #313131",
"%	c #9C0031",
"&	c #FFCECE",
"*	c #00009C",
"=	c #0000FF",
"-	c #9C9C9C",
";	c #FFFFFF",
">	c #000000",
",	c #FFCEFF",
"            ........+           ",
"            .@.#.#..$%++        ",
"           .@#####.$$$%++       ",
"       .@&&&&#&#&#&###.$$+      ",
"        .@&&#&#&#&#&#$$$++      ",
"         .@&&#&#&#&#$+%%++      ",
"          .@&&&&&&.$**%%++      ",
"         **.@&&&&.$@@***++      ",
"        ***=.@&&.$@@@****+      ",
"       ***-;-.@.$@@@@@****      ",
"      ***=@=;;++;=@@@=*****     ",
"      *==@@*;;;;;;@@;=*****     ",
"     *;**===**;;;;;;==******    ",
"     *;**===**;;;;;;==******    ",
"     *;***==****;;**=*******    ",
"     *;**;*=====*;;;*=******    ",
"     **;;;*=====**;;*=******    ",
"     **;;**=======**;@@@@*>*    ",
"     *@***==========*;@@@***    ",
"     *@***==========*;@@@***    ",
"      *@@*==========*@@@@**     ",
"      *@@*=========++*@@@**     ",
"       **@**======$.@.@***      ",
"        * *======$.&&@.**       ",
"        ,+*=====$.&&&&@.        ",
"         ++%***$.&&&&&&@.       ",
"         ++%%+$#&#&#&#&&@.      ",
"         ++$$$#&#&#&#&#&&@.     ",
"         +$$.###&#&#&#&&&&@.    ",
"          ++%$$$.#####@.        ",
"           ++%$..#.#.@.         ",
"             +........          "};
