/* XPM */
static char *appicon32[] = {
/* width height num_colors chars_per_pixel */
"    32    32       13            1",
/* colors */
". c #ffffff",
"# c #ffff99",
"a c #ffff66",
"b c #ffff00",
"c c None",
"d c #ccff99",
"e c #cccc00",
"f c #c9c9c9",
"g c #66cc33",
"h c #353535",
"i c #336666",
"j c #006633",
"k c #000000",
/* pixels */
"cccccccccccccccccccccccccccccccc",
"cccccccccccccccccccccccccccccccc",
"cccccccjjjcccccccccccccccccccccc",
"ccccccjgg.jjcccccccccccccccccccc",
"cccccjjg....jjcccccccccccccccccc",
"ccccj.jg......jjcccccccccccccccc",
"cccj..jgjj......jccccccccccccccc",
"cccjj..j..jj....jccccccccccccccc",
"cccj.jjj....jj.gjccccccccccccccc",
"cccj....jj....ggjccccccccccccccc",
"cccj......jjggggjccccccccccccccc",
"cccj..jj...gjjggjccccccccccccccc",
"cccj....jjggggggjkkkkkcccccccccc",
"cccj.....gjjgggkkddddfkkcccccccc",
"cccj..jjggggjjkdd....d#fkccccccc",
"cccj...gjjgggkdd..i.fd#efkcccccc",
"cccj.gggggjjkkdffiii.#befkkccccc",
"cccj.gjjggggkf#ff.ii##bbefkccccc",
"cccj.gggjjggkf#ff...#bbbefkccccc",
"cccjggggggjjkf##fff##bbbefkccccc",
"cccjggjjggggkf######bbbbefkiiccc",
"cccjggggjjggkf#####bbbbeffkiiicc",
"cccjgggggggggkf##bbbbbeefkkiiccc",
"ccccjjgggggggkfbbbbbbeeffkiccccc",
"ccccccjjggggggkffaeeeeffkkcccccc",
"ccccccccjjgggggkkfffffkkkkkccccc",
"ccccccccccjjggggkkkkkkccckkkcccc",
"ccccccccccccjjggjiiccccccckhkccc",
"ccccccccccccccjjjcccccccccckhkcc",
"cccccccccccccccccccccccccccckhkc",
"ccccccccccccccccccccccccccccckhc",
"cccccccccccccccccccccccccccccccc"
};
