/* XPM */
static char*findcomputer[]={
"32 32 17 1",
"# c #000000",
". c None",
"c c #333333",
"m c #cccc00",
"g c #000099",
"n c #ffff00",
"d c #666666",
"j c #333399",
"i c #666699",
"k c #ccff99",
"e c #999999",
"o c #ffff66",
"h c #6666cc",
"f c #9999cc",
"l c #ffff99",
"b c #cccccc",
"a c #ffffff",
".........#####aa###.............",
"........#babab##bab##...........",
".......cabbababa##aba##.........",
".......cdaabababab##bab##.......",
".......cddeaaabababa##aba#......",
".......cdddeeaabababab##b#......",
".......cddfffeeaaabababa##......",
".......cddfggffeeaabababab##....",
".......cddfbaggfheeaaabababe#...",
".......cddfbaaagghheeaababed#...",
".......cddfbaaaaaggiieeabedd#...",
".......cddfbaaaaaaaggjjaeddd#...",
".......cddfbaaaaggaaagjaeddd#...",
".......cddhbaaaaeaggabjaeddd#...",
".......cddhbba#####aggjaeddd#...",
".......cdbhh##kkkkb##agaeddd#...",
".......##ba#kkaaaaklb#eaeddd#...",
".....d#####kkaaaabklmb#aeddd#...",
"....daa####kbbaaaalnmb##eddd#dd.",
"...dae#aa#blbbaballnnmb#eddd#ddd",
"..dae#ae##blbbaaalnnnmb#eddd#ddd",
".dae#ae#a#bllbbbllnnnmb#eddd#ddd",
"dae#ae#ae#bllllllnnnnmb#eddd#dd.",
"##aae#ae##blllllnnnnmbb#edd#dd..",
"..##aae#ae#bllnnnnnmmb##ed#dd...",
"....##aae##bnnnnnnmmbb#a##dd....",
"......##aae#bbommmmbb###........",
"........##aa##bbbbb#####........",
"..........##a######ddd###.......",
"............##aae#dd##.###......",
"..............##ad##....###.....",
".........................###...."};
