/* XPM */
static char * Dumpster32_xpm[] = {
"32 32 11 1",
" 	c None",
".	c #000000",
"+	c #009933",
"@	c #00CC33",
"#	c #333333",
"$	c #666666",
"%	c #009966",
"&	c #666699",
"*	c #FFFFFF",
"=	c #00CC66",
"-	c #333366",
"                                ",
"                                ",
"            ...                 ",
"          ..++.                 ",
"        ..@+@@+.                ",
"      ..@+#+++@.                ",
"    ..@++++#+++@.     $         ",
"  ..@+#++++#++++@.    $         ",
" .@++++#++++#++++.   $$$        ",
"  .++++#+++++#+++@.  $$$        ",
"   .++++#++++#+++++.$$$$        ",
"   .+++++#++++#+++..$$$$$       ",
"    .++++#++++++..#..$$$$       ",
"     .+%++#+++..###.@.$&$       ",
"     .++++++..#####.@@.$$$      ",
"      .+++.########.@@@.$$$     ",
"      .+..#########.@@@@.$$$    ",
"       ..##########.+@@@..$$$   ",
"       ..##########.++..+.$$$$  ",
"      ..@.#########...+++.$$$$$ ",
"      ..@*.#######..+++++.$$$$$$",
"      .=.@*.###-..+++++%+.$$$$$&",
"      .@@.@*.#..@++++++++.$$$$$ ",
"      .@@@.@@.@@@+@++++++.$$$$  ",
"       .@@..@.@@+++++++++.$$    ",
"       ..@.#@.@++@+++++++.      ",
"       .@..#@.@+@++++++..       ",
"        .@..@.@+++@++..         ",
"         .+@@.@@+@+..           ",
"          .++.@=+..             ",
"           .+.@..               ",
"            ...                 "};
