/* XPM */
static char * Dumpsterfull32_xpm[] = {
"32 32 12 1",
" 	c None",
".	c #000000",
"+	c #009933",
"@	c #00CC33",
"#	c #00CC66",
"$	c #333333",
"%	c #FFFF66",
"&	c #CCCCCC",
"*	c #FFFFFF",
"=	c #009966",
"-	c #333366",
";	c #666666",
"                                ",
"                                ",
"           ...                  ",
"         ..++.                  ",
"       ..@+@@+.                 ",
"     ..#+$+++@.                 ",
"   ..@++++$+++@.                ",
" ..@+$++++$++++@.               ",
".@++++$++++$++++.               ",
" .++++$+++++$+++@.              ",
"  .++++$+++$$+..+..$            ",
"  .+++++$+$%$.&&$.**.           ",
"   .++++$$%%%$&&&$***.          ",
"    .++=.$$$$$$-$$****.         ",
"    .+..%$******$**$**&.        ",
"     ..%%$*****$**.&$&&$;;      ",
"     ..%%$****$***.&&$...;;     ",
"      .%%$***$***$&&&&&..;;;    ",
"      ..%.**$***$&&&&..+.;;;;   ",
"     ..@..*.***.&&...+++.;;;;;  ",
"     ..@*..**..&&..+++++.;;;;;; ",
"     .@.@*.*.&&..++++++=.;;;;;; ",
"     .@@.@*....@++++++++.;;;;;  ",
"     .@@@.@@.@@@+@++++++.;;;;   ",
"      .@@..@.@@+++++++++.;;     ",
"      ..@.$@.@++@+++++++.       ",
"      .@..$@.@+@++++++..        ",
"       .@..@.@+++@++..          ",
"        .+@@.@@+@+..            ",
"         .++.@@=..              ",
"          .+.@..                ",
"           ...                  "};
