/* XPM */
static char * conwiz32_xpm[] = {
"32 32 633 2",
"  	c None",
". 	c #4F6186",
"+ 	c #4F6086",
"@ 	c #4F5F86",
"# 	c #4F5E86",
"$ 	c #000000",
"% 	c #010101",
"& 	c #506287",
"* 	c #596B90",
"= 	c #62749C",
"- 	c #7281C1",
"; 	c #99989F",
"> 	c #9E9C9A",
", 	c #A19F92",
"' 	c #AEAD85",
") 	c #BDBF8E",
"! 	c #C0C183",
"~ 	c #C2C384",
"{ 	c #9F9A91",
"] 	c #020202",
"^ 	c #516388",
"/ 	c #5F7199",
"( 	c #6C81C7",
"_ 	c #7184CD",
": 	c #7C88C9",
"< 	c #A3A19F",
"[ 	c #AAA793",
"} 	c #B4B287",
"| 	c #BFC28B",
"1 	c #B9B993",
"2 	c #C3C88C",
"3 	c #BCBE80",
"4 	c #B4B279",
"5 	c #A8A56D",
"6 	c #89876A",
"7 	c #040404",
"8 	c #030303",
"9 	c #5F7095",
"0 	c #91A8EF",
"a 	c #809EEC",
"b 	c #7890E0",
"c 	c #768BDB",
"d 	c #8693CC",
"e 	c #8F93B1",
"f 	c #AFAC89",
"g 	c #B5B483",
"h 	c #B9BC82",
"i 	c #BCC184",
"j 	c #B4B882",
"k 	c #BAC07F",
"l 	c #B4B978",
"m 	c #B3B677",
"n 	c #A4A475",
"o 	c #ACAB6F",
"p 	c #73754D",
"q 	c #060606",
"r 	c #050505",
"s 	c #66779C",
"t 	c #93A8EE",
"u 	c #A5BCFF",
"v 	c #91B0FF",
"w 	c #92ADF3",
"x 	c #A0B6E9",
"y 	c #D4DAC8",
"z 	c #DDDEB5",
"A 	c #D1D3A1",
"B 	c #CFD4A1",
"C 	c #E2EBA4",
"D 	c #DDE8A0",
"E 	c #CDD892",
"F 	c #C5D28B",
"G 	c #BCC47D",
"H 	c #A9AE7B",
"I 	c #9C9D75",
"J 	c #9D9D70",
"K 	c #828658",
"L 	c #75774D",
"M 	c #303048",
"N 	c #64769B",
"O 	c #92A8EC",
"P 	c #A9BEFF",
"Q 	c #C5D5FF",
"R 	c #CEDBFF",
"S 	c #EDF6DB",
"T 	c #D8DFF5",
"U 	c #D8DEFD",
"V 	c #D4D8F9",
"W 	c #D8DBEE",
"X 	c #E7EFB5",
"Y 	c #D4DF99",
"Z 	c #CBD791",
"` 	c #CBD890",
" .	c #B9C688",
"..	c #7D8391",
"+.	c #8F927A",
"@.	c #999B6F",
"#.	c #888D5A",
"$.	c #878954",
"%.	c #7D804F",
"&.	c #7B7C4D",
"*.	c #070707",
"=.	c #5B6E93",
"-.	c #7E9FE9",
";.	c #A4BDFF",
">.	c #AEC3FF",
",.	c #D2DEFF",
"'.	c #DFE7FF",
").	c #FAFFD4",
"!.	c #F6FDD8",
"~.	c #C9D3FD",
"{.	c #C7D1FF",
"].	c #CDD5FF",
"^.	c #D4D7FD",
"/.	c #D9E0BA",
"(.	c #C7CF9E",
"_.	c #C6D192",
":.	c #C4CE8E",
"<.	c #B2BC84",
"[.	c #818793",
"}.	c #8F917A",
"|.	c #8C925D",
"1.	c #8B8F56",
"2.	c #8B8D53",
"3.	c #81824F",
"4.	c #31314C",
"5.	c #080808",
"6.	c #4E6186",
"7.	c #7D9EEB",
"8.	c #A0BBFF",
"9.	c #C5D6FF",
"0.	c #FBFFFF",
"a.	c #FFFFFF",
"b.	c #FBFFE0",
"c.	c #FCFFE7",
"d.	c #EFF6F3",
"e.	c #C4CEFF",
"f.	c #B9C2FF",
"g.	c #B4BBFE",
"h.	c #9FA1D2",
"i.	c #9B9BC1",
"j.	c #B0B1A4",
"k.	c #BABE9A",
"l.	c #CCD999",
"m.	c #CAD598",
"n.	c #969D7A",
"o.	c #8F9174",
"p.	c #989B6D",
"q.	c #8F9559",
"r.	c #858A5C",
"s.	c #818955",
"t.	c #82844C",
"u.	c #221D37",
"v.	c #5E7298",
"w.	c #91ADF6",
"x.	c #AEC5FF",
"y.	c #CBDAFF",
"z.	c #D8E3FF",
"A.	c #FFFFFE",
"B.	c #FDFFF3",
"C.	c #F9FFEF",
"D.	c #F6FDE7",
"E.	c #E5EDC2",
"F.	c #DFEBB6",
"G.	c #E1EFAB",
"H.	c #E3F2AF",
"I.	c #E0EEB4",
"J.	c #CBD799",
"K.	c #787F76",
"L.	c #727877",
"M.	c #8E9271",
"N.	c #7B805F",
"O.	c #5B6575",
"P.	c #596472",
"Q.	c #2E2A48",
"R.	c #251F3C",
"S.	c #0A0A0A",
"T.	c #404B5D",
"U.	c #8FA8EC",
"V.	c #94B5FF",
"W.	c #C0D3FF",
"X.	c #D0DEFF",
"Y.	c #DEE9FF",
"Z.	c #FEFFFA",
"`.	c #FCFFF3",
" +	c #FBFFEB",
".+	c #FAFFEB",
"++	c #F5FFE0",
"@+	c #EAFFC4",
"#+	c #EAFDB1",
"$+	c #C6CEA4",
"%+	c #DCE6A3",
"&+	c #C5CD8C",
"*+	c #BEC583",
"=+	c #989A72",
"-+	c #53535F",
";+	c #484D66",
">+	c #696B5E",
",+	c #34314A",
"'+	c #131313",
")+	c #241E3A",
"!+	c #090909",
"~+	c #4A5568",
"{+	c #93ACF3",
"]+	c #90B4FF",
"^+	c #C6D8FF",
"/+	c #F4F8FF",
"(+	c #FAFFEF",
"_+	c #F6FFE3",
":+	c #52525A",
"<+	c #EAFEB9",
"[+	c #C1CB9E",
"}+	c #E1ECA3",
"|+	c #CDD390",
"1+	c #C6CA85",
"2+	c #8E8F79",
"3+	c #4A4A64",
"4+	c #3E3D63",
"5+	c #474663",
"6+	c #333052",
"7+	c #1A191B",
"8+	c #24203E",
"9+	c #0B0B0B",
"0+	c #5A667D",
"a+	c #93ADF2",
"b+	c #8FB4FF",
"c+	c #CDDDFF",
"d+	c #E7EFFF",
"e+	c #E0EAFF",
"f+	c #F5FFE3",
"g+	c #70765E",
"h+	c #969E91",
"i+	c #ADB591",
"j+	c #9A9D7F",
"k+	c #8C9181",
"l+	c #616D8B",
"m+	c #46517A",
"n+	c #3C3F68",
"o+	c #403D68",
"p+	c #383865",
"q+	c #2E284C",
"r+	c #262142",
"s+	c #0E0E0E",
"t+	c #8EA7E9",
"u+	c #9DBAFF",
"v+	c #B6CDFF",
"w+	c #B1C8FF",
"x+	c #B5C9FF",
"y+	c #F5FAF6",
"z+	c #FEFFF2",
"A+	c #F2FFD5",
"B+	c #F1FFD4",
"C+	c #F3FFDC",
"D+	c #ECFEBD",
"E+	c #E8FEB1",
"F+	c #A0A19B",
"G+	c #6A6D5F",
"H+	c #606A8F",
"I+	c #5D688F",
"J+	c #4C5A85",
"K+	c #475278",
"L+	c #3D3D6C",
"M+	c #322B54",
"N+	c #282245",
"O+	c #231F3D",
"P+	c #404C5D",
"Q+	c #80A4EE",
"R+	c #95B6FF",
"S+	c #85AEFF",
"T+	c #8AAEFF",
"U+	c #FCFFEF",
"V+	c #FAFFE7",
"W+	c #F3FFD5",
"X+	c #ECFFC5",
"Y+	c #EBFDB5",
"Z+	c #E6FCAD",
"`+	c #E7FCAC",
" @	c #969691",
".@	c #566698",
"+@	c #4E6098",
"@@	c #46537A",
"#@	c #3D3F69",
"$@	c #3E3F6F",
"%@	c #424A80",
"&@	c #312E5A",
"*@	c #292347",
"=@	c #25203F",
"-@	c #79A1EB",
";@	c #91B5FF",
">@	c #89AFFF",
",@	c #C1D2FF",
"'@	c #D8E2FF",
")@	c #F9FEEF",
"!@	c #F8FFDC",
"~@	c #F0FFC9",
"{@	c #ECFDB9",
"]@	c #E8FBAD",
"^@	c #E6FBAD",
"/@	c #E3F8AA",
"(@	c #E5F7AA",
"_@	c #E4F2A5",
":@	c #4A5D94",
"<@	c #3E426C",
"[@	c #3F3D65",
"}@	c #435086",
"|@	c #3B335E",
"1@	c #2A2349",
"2@	c #252141",
"3@	c #0C0C0C",
"4@	c #7AA1EB",
"5@	c #81ACFE",
"6@	c #81ABFE",
"7@	c #86ADFF",
"8@	c #96B6FF",
"9@	c #BDCFFF",
"0@	c #CEDAFF",
"a@	c #D5DDF8",
"b@	c #EDF8DC",
"c@	c #ECFFC1",
"d@	c #E9FCB1",
"e@	c #E3F7AA",
"f@	c #DEF3A6",
"g@	c #CFE099",
"h@	c #CAD793",
"i@	c #CDD693",
"j@	c #B0B27A",
"k@	c #393763",
"l@	c #3A3767",
"m@	c #41497F",
"n@	c #393969",
"o@	c #2A2449",
"p@	c #789DE7",
"q@	c #7FA8F9",
"r@	c #83A9FE",
"s@	c #8DADFF",
"t@	c #90AAFF",
"u@	c #95A8FF",
"v@	c #B4BCF3",
"w@	c #E6F2BC",
"x@	c #E1F2A6",
"y@	c #D4E69C",
"z@	c #CBDD95",
"A@	c #C4D48F",
"B@	c #B8C283",
"C@	c #C2CA89",
"D@	c #A2A483",
"E@	c #616879",
"F@	c #363265",
"G@	c #352F54",
"H@	c #2B244A",
"I@	c #6E8BD1",
"J@	c #7BA0EF",
"K@	c #7798E5",
"L@	c #7DA4F4",
"M@	c #80A7F9",
"N@	c #82AAFE",
"O@	c #84A8FE",
"P@	c #86A4FE",
"Q@	c #859CFA",
"R@	c #98A3F3",
"S@	c #DDEAB2",
"T@	c #D7E69B",
"U@	c #D9EA9F",
"V@	c #CDDD94",
"W@	c #C6D48E",
"X@	c #B8C080",
"Y@	c #ACB17F",
"Z@	c #6F768B",
"`@	c #4F5980",
" #	c #3E465C",
".#	c #C4C4C4",
"+#	c #332C52",
"@#	c #2C283A",
"##	c #6B83C7",
"$#	c #7390DB",
"%#	c #718CD6",
"&#	c #7594E0",
"*#	c #7797E6",
"=#	c #80A7FA",
"-#	c #85A8FE",
";#	c #819CF7",
">#	c #7685EA",
",#	c #868CE2",
"'#	c #DCE7A7",
")#	c #D1E191",
"!#	c #CDDD90",
"~#	c #CBDB8F",
"{#	c #C8D78C",
"]#	c #C6CF85",
"^#	c #B0B57D",
"/#	c #697394",
"(#	c #4E5D93",
"_#	c #47527C",
":#	c #464B5D",
"<#	c #312A52",
"[#	c #6B75A4",
"}#	c #7287CC",
"|#	c #718AD1",
"1#	c #738FDC",
"2#	c #728EDD",
"3#	c #7EA2F5",
"4#	c #7FA0F7",
"5#	c #7389EB",
"6#	c #6D79E7",
"7#	c #7577DE",
"8#	c #CCD895",
"9#	c #CEDE83",
"0#	c #C2D378",
"a#	c #C6D781",
"b#	c #BFCB78",
"c#	c #BBC275",
"d#	c #BCBF71",
"e#	c #838B7F",
"f#	c #4F587B",
"g#	c #3E4166",
"h#	c #959499",
"i#	c #322B4A",
"j#	c #312953",
"k#	c #4A5468",
"l#	c #6C77A5",
"m#	c #7381B7",
"n#	c #7288CC",
"o#	c #7189D2",
"p#	c #7088D4",
"q#	c #718CE0",
"r#	c #7089E4",
"s#	c #6C7EE6",
"t#	c #636DE3",
"u#	c #5762C8",
"v#	c #A4A797",
"w#	c #C4CD73",
"x#	c #BFCA6C",
"y#	c #C1CD70",
"z#	c #BAC26F",
"A#	c #A4A871",
"B#	c #A7AB76",
"C#	c #647092",
"D#	c #DDDCDE",
"E#	c #332F46",
"F#	c #2D293B",
"G#	c #2D264D",
"H#	c #101010",
"I#	c #586B8E",
"J#	c #6D79A5",
"K#	c #707DAE",
"L#	c #6F7CAF",
"M#	c #717EBB",
"N#	c #6B81CF",
"O#	c #6C82DC",
"P#	c #6977DF",
"Q#	c #5A61D9",
"R#	c #4A58BE",
"S#	c #6D77A7",
"T#	c #A0A679",
"U#	c #AAB071",
"V#	c #A9AF71",
"W#	c #A0A473",
"X#	c #616B82",
"Y#	c #5C6883",
"Z#	c #45508E",
"`#	c #FBFBFB",
" $	c #FDFDFD",
".$	c #5F5D66",
"+$	c #332D49",
"@$	c #282531",
"#$	c #141414",
"$$	c #506486",
"%$	c #5C6F94",
"&$	c #5A6D8E",
"*$	c #5F7298",
"=$	c #6C77A8",
"-$	c #6273AA",
";$	c #6672B8",
">$	c #686EC8",
",$	c #6565C9",
"'$	c #5565B4",
")$	c #858D9A",
"!$	c #ACAF71",
"~$	c #A9AE72",
"{$	c #A9AF72",
"]$	c #9BA270",
"^$	c #555F8B",
"/$	c #48548F",
"($	c #E9E9EB",
"_$	c #A1A1A5",
":$	c #332E4A",
"<$	c #2F2B42",
"[$	c #2E274B",
"}$	c #292346",
"|$	c #26203F",
"1$	c #526586",
"2$	c #4F5E76",
"3$	c #586A89",
"4$	c #6C78A7",
"5$	c #6874A7",
"6$	c #5E6FA5",
"7$	c #646DB7",
"8$	c #5F66C0",
"9$	c #4E5FC9",
"0$	c #6067DC",
"a$	c #979895",
"b$	c #A5A77F",
"c$	c #A0A470",
"d$	c #878F65",
"e$	c #546189",
"f$	c #C9CAD0",
"g$	c #BCBCC1",
"h$	c #3E3661",
"i$	c #302851",
"j$	c #4F6285",
"k$	c #4B586D",
"l$	c #4E5C71",
"m$	c #586A8A",
"n$	c #596C91",
"o$	c #556C97",
"p$	c #566BA2",
"q$	c #5568AD",
"r$	c #5A62BA",
"s$	c #6261DC",
"t$	c #7974C0",
"u$	c #756FB9",
"v$	c #545E9B",
"w$	c #5D6174",
"x$	c #444F97",
"y$	c #BDBEC5",
"z$	c #AAA9B3",
"A$	c #31294E",
"B$	c #272244",
"C$	c #313252",
"D$	c #4F6283",
"E$	c #4A5569",
"F$	c #4C596C",
"G$	c #4E5C72",
"H$	c #53678A",
"I$	c #526894",
"J$	c #4F6495",
"K$	c #515E91",
"L$	c #6D6DB7",
"M$	c #99948A",
"N$	c #949787",
"O$	c #5E6FAA",
"P$	c #888B86",
"Q$	c #4E63BA",
"R$	c #4158B8",
"S$	c #435397",
"T$	c #D4D4DA",
"U$	c #898796",
"V$	c #303152",
"W$	c #434E60",
"X$	c #485365",
"Y$	c #4A5668",
"Z$	c #4C596E",
"`$	c #4D5C75",
" %	c #4B5973",
".%	c #4C5678",
"+%	c #6769A2",
"@%	c #918E7B",
"#%	c #8F927C",
"$%	c #5F6FA4",
"%%	c #868E87",
"&%	c #4E61AB",
"*%	c #46599D",
"=%	c #475287",
"-%	c #3C4074",
";%	c #403F69",
">%	c #6B6B7F",
",%	c #F2F2F2",
"'%	c #494949",
")%	c #414C5E",
"!%	c #434D5F",
"~%	c #4C596D",
"{%	c #4D5E7A",
"]%	c #49556C",
"^%	c #3E445A",
"/%	c #414463",
"(%	c #494D63",
"_%	c #525D77",
":%	c #495986",
"<%	c #51597A",
"[%	c #404579",
"}%	c #434E7D",
"|%	c #3E4371",
"1%	c #3F3D67",
"2%	c #3F3D66",
"3%	c #383763",
"4%	c #3D3D5C",
"5%	c #878792",
"6%	c #FCFCFC",
"7%	c #2C2E3E",
"8%	c #19192A",
"9%	c #3E4758",
"0%	c #393F52",
"a%	c #424C5F",
"b%	c #454F62",
"c%	c #475369",
"d%	c #47536C",
"e%	c #495674",
"f%	c #475374",
"g%	c #404567",
"h%	c #3B3E62",
"i%	c #3D4268",
"j%	c #3C3E64",
"k%	c #38385D",
"l%	c #373659",
"m%	c #313253",
"n%	c #303150",
"o%	c #26213B",
"p%	c #2A2A2A",
"q%	c #F3F3F3",
"r%	c #191829",
"s%	c #2B2E3D",
"t%	c #1D1E2F",
"u%	c #303242",
"v%	c #455064",
"w%	c #49556B",
"x%	c #4A566E",
"y%	c #495671",
"z%	c #45536F",
"A%	c #45516F",
"B%	c #425070",
"C%	c #424E6F",
"D%	c #2F314D",
"E%	c #2F314C",
"F%	c #211D36",
"G%	c #DFDFDF",
"H%	c #E9E9E9",
"I%	c #404C5E",
"J%	c #404C5F",
"K%	c #404C60",
"L%	c #404D62",
"M%	c #404D64",
"N%	c #404D65",
"O%	c #404D66",
"P%	c #CBCBCB",
"                        . . + @ @ # $ %                         ",
"                  & * = - ; > , ' ) ! ~ { ] ]                   ",
"              ^ / ( _ _ : < [ } | 1 2 3 4 5 6 7 8               ",
"            9 0 a b c d e f g h i j k l m n o p q r             ",
"          s t u v w x y z A B C D E F G H I J K L M q           ",
"        N O P Q R S S T U V W X Y Z `  ...+.@.#.$.%.&.*.        ",
"      =.-.;.>.,.'.).!.~.{.].^./.(._.:.<.[.}.@.|.1.2.3.4.5.      ",
"    6.7.8.9.,.0.a.b.c.d.e.f.g.h.i.j.k.l.m.n.o.p.q.r.s.t.u.*.    ",
"    v.w.x.y.z.a.a.a.A.B.C.C.D.E.F.G.H.I.J.K.L.M.N.O.P.Q.R.S.    ",
"  T.U.V.W.X.Y.a.a.a.Z.A.`. +.+++@+#+H.$+%+&+*+=+-+;+>+,+'+)+!+  ",
"  ~+{+]+^+Y./+a.a.a.a.a.A.`.(+_+:+:+<+[+}+|+1+2+3+4+5+6+7+8+9+  ",
"  0+a+b+c+d+e+a.a.a.a.a.`.Z.A.f+:+g+:+h+i+j+k+l+m+n+o+p+q+r+s+  ",
"T.t+u+b+v+w+x+y+z+B.A..+A+B+C+D+E+:+F+G+:+H+I+J+K+n+o+L+M+N+O+!+",
"P+Q+R+S+b+T+;.,.'.U+V+W+X+Y+Y+Z+Z+`+:+a. @:+.@+@@@#@$@%@&@*@=@9+",
"P+-@S+S+;@>@8.,@'@)@!@~@{@]@^@Z+/@(@_@:+a.a.:+:@<@[@L+}@|@1@2@3@",
"P+4@5@5@S+6@7@8@9@0@a@b@c@d@e@f@g@h@i@j@:+a.a.:+:+k@l@m@n@o@r+3@",
"P+p@5@q@5@5@6@r@s@t@u@v@w@x@y@z@A@B@C@D@E@:+a.a.:+:+:+F@G@H@r+3@",
"P+I@J@K@L@5@M@N@O@P@Q@R@S@T@U@V@W@X@Y@Z@`@ #:+a.a..#:++#@#o@r+3@",
"P+##$#%#&#J@*#=#-#;#>#,#'#)#!#~#{#]#^#/#(#_#:#a.a.a.a.:+<#o@2@3@",
"T.[#}#|#%#1#2#3#4#5#6#7#8#9#0#a#b#c#d#e#f#g#:+a.a.a.h#i#j#*@=@9+",
"  k#l#m#n#o#p#q#r#s#t#u#v#w#x#y#z#A#B#C#:+:+a.a.a.D#E#F#G#N+H#  ",
"  T.I#J#K#L#M#N#O#P#Q#R#S#T#U#V#W#X#Y#Z#:+`#a.a. $.$+$@$o@#$s+  ",
"  T.$$%$&$*$=$-$;$>$,$'$)$!$~${$]$^$/$:+($a.a.a._$:$<$[$}$|$9+  ",
"    T.1$2$3$4$5$6$7$8$9$0$a$b$c$d$e$:+f$a.a.a.a.g$h$i$1@r+s+    ",
"    T.j$k$l$m$n$o$p$q$r$s$t$u$v$w$x$:+y$ $a.a.a.a.z$A$B$C$9+    ",
"      T.D$E$F$G$H$I$J$K$L$M$N$O$P$Q$R$S$:+T$a.a.a.a.U$V$3@      ",
"        T.W$X$Y$Z$`$ %.%+%@%#%$%%%&%*%=%-%;%>%,%a.a.a.'%        ",
"          T.)%!%~%{%]%^%/%(%_%:%<%[%}%|%1%2%3%4%5%a.a.6%$       ",
"            7%8%9%0%a%b%c%d%e%f%g%h%i%j%k%l%m%n%o%p%$ a.q%$     ",
"              r%$ s%t%u%v%w%x%y%z%A%B%C%D%E%F%!+*.  $ $ G%H%$   ",
"                  $ $ $ I%J%K%L%M%N%O%O%*.q r           $ $ P%$ ",
"                        $ % % % ] ] 8 8                     $ $ "};
