/* XPM */
static char * conutil32_xpm[] = {
"32 32 522 2",
"  	c None",
". 	c #4F6186",
"+ 	c #4F6086",
"@ 	c #4F5F86",
"# 	c #4F5E86",
"$ 	c #000000",
"% 	c #010101",
"& 	c #506287",
"* 	c #596B90",
"= 	c #62749C",
"- 	c #7281C1",
"; 	c #99989F",
"> 	c #9E9C9A",
", 	c #A19F92",
"' 	c #AEAD85",
") 	c #BDBF8E",
"! 	c #C0C183",
"~ 	c #C2C384",
"{ 	c #9F9A91",
"] 	c #020202",
"^ 	c #516388",
"/ 	c #5F7199",
"( 	c #6C81C7",
"_ 	c #7184CD",
": 	c #7C88C9",
"< 	c #A3A19F",
"[ 	c #AAA793",
"} 	c #B4B287",
"| 	c #BFC28B",
"1 	c #B9B993",
"2 	c #C3C88C",
"3 	c #BCBE80",
"4 	c #B4B279",
"5 	c #A8A56D",
"6 	c #89876A",
"7 	c #040404",
"8 	c #030303",
"9 	c #5F7095",
"0 	c #91A8EF",
"a 	c #809EEC",
"b 	c #7890E0",
"c 	c #768BDB",
"d 	c #8693CC",
"e 	c #8F93B1",
"f 	c #AFAC89",
"g 	c #B5B483",
"h 	c #B9BC82",
"i 	c #BCC184",
"j 	c #B4B882",
"k 	c #BAC07F",
"l 	c #B4B978",
"m 	c #B3B677",
"n 	c #A4A475",
"o 	c #ACAB6F",
"p 	c #73754D",
"q 	c #060606",
"r 	c #050505",
"s 	c #66779C",
"t 	c #93A8EE",
"u 	c #A5BCFF",
"v 	c #91B0FF",
"w 	c #92ADF3",
"x 	c #A0B6E9",
"y 	c #D4DAC8",
"z 	c #DDDEB5",
"A 	c #D1D3A1",
"B 	c #CFD4A1",
"C 	c #E2EBA4",
"D 	c #DDE8A0",
"E 	c #CDD892",
"F 	c #C5D28B",
"G 	c #BCC47D",
"H 	c #A9AE7B",
"I 	c #9C9D75",
"J 	c #9D9D70",
"K 	c #828658",
"L 	c #75774D",
"M 	c #303048",
"N 	c #64769B",
"O 	c #92A8EC",
"P 	c #A9BEFF",
"Q 	c #C5D5FF",
"R 	c #CEDBFF",
"S 	c #EDF6DB",
"T 	c #D8DFF5",
"U 	c #D8DEFD",
"V 	c #D4D8F9",
"W 	c #D8DBEE",
"X 	c #E7EFB5",
"Y 	c #D4DF99",
"Z 	c #CBD791",
"` 	c #CBD890",
" .	c #B9C688",
"..	c #7D8391",
"+.	c #8F927A",
"@.	c #999B6F",
"#.	c #888D5A",
"$.	c #878954",
"%.	c #7D804F",
"&.	c #7B7C4D",
"*.	c #070707",
"=.	c #5B6E93",
"-.	c #7E9FE9",
";.	c #A4BDFF",
">.	c #AEC3FF",
",.	c #D2DEFF",
"'.	c #DFE7FF",
").	c #FAFFD4",
"!.	c #F6FDD8",
"~.	c #C9D3FD",
"{.	c #C7D1FF",
"].	c #CDD5FF",
"^.	c #D4D7FD",
"/.	c #D9E0BA",
"(.	c #C7CF9E",
"_.	c #C6D192",
":.	c #C4CE8E",
"<.	c #B2BC84",
"[.	c #818793",
"}.	c #8F917A",
"|.	c #8C925D",
"1.	c #8B8F56",
"2.	c #8B8D53",
"3.	c #81824F",
"4.	c #31314C",
"5.	c #080808",
"6.	c #4E6186",
"7.	c #7D9EEB",
"8.	c #A0BBFF",
"9.	c #C5D6FF",
"0.	c #FBFFFF",
"a.	c #FFFFFF",
"b.	c #FBFFE0",
"c.	c #FCFFE7",
"d.	c #EFF6F3",
"e.	c #C4CEFF",
"f.	c #B9C2FF",
"g.	c #B4BBFE",
"h.	c #9FA1D2",
"i.	c #9B9BC1",
"j.	c #B0B1A4",
"k.	c #BABE9A",
"l.	c #CCD999",
"m.	c #CAD598",
"n.	c #969D7A",
"o.	c #8F9174",
"p.	c #989B6D",
"q.	c #8F9559",
"r.	c #858A5C",
"s.	c #818955",
"t.	c #82844C",
"u.	c #221D37",
"v.	c #5E7298",
"w.	c #91ADF6",
"x.	c #AEC5FF",
"y.	c #CBDAFF",
"z.	c #D8E3FF",
"A.	c #FFFFFE",
"B.	c #FDFFF3",
"C.	c #F9FFEF",
"D.	c #F6FDE7",
"E.	c #E5EDC2",
"F.	c #DFEBB6",
"G.	c #E1EFAB",
"H.	c #E3F2AF",
"I.	c #E0EEB4",
"J.	c #CBD799",
"K.	c #787F76",
"L.	c #727877",
"M.	c #8E9271",
"N.	c #7B805F",
"O.	c #5B6575",
"P.	c #596472",
"Q.	c #2E2A48",
"R.	c #251F3C",
"S.	c #0A0A0A",
"T.	c #404B5D",
"U.	c #8FA8EC",
"V.	c #94B5FF",
"W.	c #C0D3FF",
"X.	c #D0DEFF",
"Y.	c #DEE9FF",
"Z.	c #FEFFFA",
"`.	c #FCFFF3",
" +	c #FBFFEB",
".+	c #FAFFEB",
"++	c #F5FFE0",
"@+	c #EAFFC4",
"#+	c #EAFDB1",
"$+	c #C6CEA4",
"%+	c #DCE6A3",
"&+	c #C5CD8C",
"*+	c #BEC583",
"=+	c #989A72",
"-+	c #53535F",
";+	c #484D66",
">+	c #696B5E",
",+	c #34314A",
"'+	c #131313",
")+	c #241E3A",
"!+	c #090909",
"~+	c #4A5568",
"{+	c #93ACF3",
"]+	c #90B4FF",
"^+	c #C6D8FF",
"/+	c #F4F8FF",
"(+	c #FAFFEF",
"_+	c #F6FFE3",
":+	c #E9FEBA",
"<+	c #E8FDAE",
"[+	c #EAFEB9",
"}+	c #C1CB9E",
"|+	c #E1ECA3",
"1+	c #CDD390",
"2+	c #C6CA85",
"3+	c #8E8F79",
"4+	c #4A4A64",
"5+	c #3E3D63",
"6+	c #474663",
"7+	c #333052",
"8+	c #1A191B",
"9+	c #24203E",
"0+	c #0B0B0B",
"a+	c #5A667D",
"b+	c #93ADF2",
"c+	c #8FB4FF",
"d+	c #CDDDFF",
"e+	c #E7EFFF",
"f+	c #E0EAFF",
"g+	c #F5FFE3",
"h+	c #E8FFC4",
"i+	c #E8FDAF",
"j+	c #D9EBAB",
"k+	c #99A294",
"l+	c #ADB591",
"m+	c #9A9D7F",
"n+	c #8C9181",
"o+	c #616D8B",
"p+	c #46517A",
"q+	c #3C3F68",
"r+	c #403D68",
"s+	c #383865",
"t+	c #2E284C",
"u+	c #262142",
"v+	c #0E0E0E",
"w+	c #8EA7E9",
"x+	c #9DBAFF",
"y+	c #B6CDFF",
"z+	c #B1C8FF",
"A+	c #B5C9FF",
"B+	c #F5FAF6",
"C+	c #FEFFF2",
"D+	c #F2FFD5",
"E+	c #F1FFD4",
"F+	c #F3FFDC",
"G+	c #ECFEBD",
"H+	c #E8FEB1",
"I+	c #E8FDAB",
"J+	c #E8F9A6",
"K+	c #B5BE92",
"L+	c #878D8D",
"M+	c #606A8F",
"N+	c #5D688F",
"O+	c #4C5A85",
"P+	c #475278",
"Q+	c #3D3D6C",
"R+	c #322B54",
"S+	c #282245",
"T+	c #231F3D",
"U+	c #404C5D",
"V+	c #80A4EE",
"W+	c #95B6FF",
"X+	c #85AEFF",
"Y+	c #8AAEFF",
"Z+	c #FCFFEF",
"`+	c #FAFFE7",
" @	c #F3FFD5",
".@	c #ECFFC5",
"+@	c #EBFDB5",
"@@	c #E6FCAD",
"#@	c #E7FCAC",
"$@	c #D2DB8C",
"%@	c #A4A77E",
"&@	c #6B7391",
"*@	c #566698",
"=@	c #4E6098",
"-@	c #46537A",
";@	c #3D3F69",
">@	c #3E3F6F",
",@	c #424A80",
"'@	c #312E5A",
")@	c #292347",
"!@	c #25203F",
"~@	c #79A1EB",
"{@	c #91B5FF",
"]@	c #89AFFF",
"^@	c #C1D2FF",
"/@	c #D8E2FF",
"(@	c #F9FEEF",
"_@	c #F8FFDC",
":@	c #F0FFC9",
"<@	c #ECFDB9",
"[@	c #E8FBAD",
"}@	c #E6FBAD",
"|@	c #999999",
"1@	c #777D99",
"2@	c #5B689C",
"3@	c #4C609A",
"4@	c #3E426C",
"5@	c #3F3D65",
"6@	c #435086",
"7@	c #3B335E",
"8@	c #2A2349",
"9@	c #252141",
"0@	c #0C0C0C",
"a@	c #7AA1EB",
"b@	c #81ACFE",
"c@	c #81ABFE",
"d@	c #86ADFF",
"e@	c #96B6FF",
"f@	c #BDCFFF",
"g@	c #CEDAFF",
"h@	c #D5DDF8",
"i@	c #EDF8DC",
"j@	c #ECFFC1",
"k@	c #E9FCB1",
"l@	c #E3F7AA",
"m@	c #4C5D96",
"n@	c #3B3D6D",
"o@	c #393763",
"p@	c #3A3767",
"q@	c #41497F",
"r@	c #393969",
"s@	c #2A2449",
"t@	c #789DE7",
"u@	c #7FA8F9",
"v@	c #83A9FE",
"w@	c #8DADFF",
"x@	c #90AAFF",
"y@	c #95A8FF",
"z@	c #B4BCF3",
"A@	c #E6F2BC",
"B@	c #E1F2A6",
"C@	c #D4E69C",
"D@	c #CCCCCC",
"E@	c #373869",
"F@	c #352E62",
"G@	c #36336B",
"H@	c #363265",
"I@	c #352F54",
"J@	c #2B244A",
"K@	c #6E8BD1",
"L@	c #7BA0EF",
"M@	c #7798E5",
"N@	c #7DA4F4",
"O@	c #80A7F9",
"P@	c #82AAFE",
"Q@	c #84A8FE",
"R@	c #86A4FE",
"S@	c #859CFA",
"T@	c #98A3F3",
"U@	c #D9EA9F",
"V@	c #CDDD94",
"W@	c #362F65",
"X@	c #36346D",
"Y@	c #362E58",
"Z@	c #2C283A",
"`@	c #6B83C7",
" #	c #7390DB",
".#	c #718CD6",
"+#	c #7594E0",
"@#	c #7797E6",
"##	c #80A7FA",
"$#	c #85A8FE",
"%#	c #819CF7",
"&#	c #7685EA",
"*#	c #868CE2",
"=#	c #342C60",
"-#	c #352B5E",
";#	c #312A52",
">#	c #6B75A4",
",#	c #7287CC",
"'#	c #718AD1",
")#	c #738FDC",
"!#	c #728EDD",
"~#	c #7EA2F5",
"{#	c #7FA0F7",
"]#	c #7389EB",
"^#	c #6D79E7",
"/#	c #7577DE",
"(#	c #302C44",
"_#	c #342D4E",
":#	c #312953",
"<#	c #4A5468",
"[#	c #6C77A5",
"}#	c #7381B7",
"|#	c #7288CC",
"1#	c #7189D2",
"2#	c #7088D4",
"3#	c #718CE0",
"4#	c #7089E4",
"5#	c #6C7EE6",
"6#	c #636DE3",
"7#	c #5762C8",
"8#	c #332E4A",
"9#	c #2D293B",
"0#	c #2D264D",
"a#	c #101010",
"b#	c #586B8E",
"c#	c #6D79A5",
"d#	c #707DAE",
"e#	c #6F7CAF",
"f#	c #717EBB",
"g#	c #6B81CF",
"h#	c #6C82DC",
"i#	c #6977DF",
"j#	c #5A61D9",
"k#	c #4A58BE",
"l#	c #282531",
"m#	c #141414",
"n#	c #506486",
"o#	c #5C6F94",
"p#	c #5A6D8E",
"q#	c #5F7298",
"r#	c #6C77A8",
"s#	c #6273AA",
"t#	c #6672B8",
"u#	c #686EC8",
"v#	c #6565C9",
"w#	c #5565B4",
"x#	c #26203F",
"y#	c #526586",
"z#	c #4F5E76",
"A#	c #586A89",
"B#	c #6C78A7",
"C#	c #6874A7",
"D#	c #5E6FA5",
"E#	c #646DB7",
"F#	c #5F66C0",
"G#	c #4E5FC9",
"H#	c #4F6285",
"I#	c #4B586D",
"J#	c #4E5C71",
"K#	c #586A8A",
"L#	c #596C91",
"M#	c #556C97",
"N#	c #566BA2",
"O#	c #5568AD",
"P#	c #5A62BA",
"Q#	c #6261DC",
"R#	c #4F6283",
"S#	c #4A5569",
"T#	c #4C596C",
"U#	c #4E5C72",
"V#	c #53678A",
"W#	c #526894",
"X#	c #4F6495",
"Y#	c #515E91",
"Z#	c #6D6DB7",
"`#	c #99948A",
" $	c #434E60",
".$	c #485365",
"+$	c #4A5668",
"@$	c #4C596E",
"#$	c #4D5C75",
"$$	c #4B5973",
"%$	c #4C5678",
"&$	c #6769A2",
"*$	c #918E7B",
"=$	c #8F927C",
"-$	c #414C5E",
";$	c #434D5F",
">$	c #4C596D",
",$	c #4D5E7A",
"'$	c #49556C",
")$	c #3E445A",
"!$	c #414463",
"~$	c #494D63",
"{$	c #525D77",
"]$	c #495986",
"^$	c #51597A",
"/$	c #404579",
"($	c #434E7D",
"_$	c #3E4371",
":$	c #2C2E3E",
"<$	c #19192A",
"[$	c #3E4758",
"}$	c #393F52",
"|$	c #424C5F",
"1$	c #454F62",
"2$	c #475369",
"3$	c #47536C",
"4$	c #495674",
"5$	c #475374",
"6$	c #404567",
"7$	c #3B3E62",
"8$	c #3D4268",
"9$	c #3C3E64",
"0$	c #38385D",
"a$	c #373659",
"b$	c #191829",
"c$	c #2B2E3D",
"d$	c #1D1E2F",
"e$	c #303242",
"f$	c #455064",
"g$	c #49556B",
"h$	c #4A566E",
"i$	c #495671",
"j$	c #45536F",
"k$	c #45516F",
"l$	c #425070",
"m$	c #424E6F",
"n$	c #2F314D",
"o$	c #2F314C",
"p$	c #211D36",
"q$	c #404C5E",
"r$	c #404C5F",
"s$	c #404C60",
"t$	c #404D62",
"u$	c #404D64",
"v$	c #404D65",
"w$	c #404D66",
"                        . . + @ @ # $ %                         ",
"                  & * = - ; > , ' ) ! ~ { ] ]                   ",
"              ^ / ( _ _ : < [ } | 1 2 3 4 5 6 7 8               ",
"            9 0 a b c d e f g h i j k l m n o p q r             ",
"          s t u v w x y z A B C D E F G H I J K L M q           ",
"        N O P Q R S S T U V W X Y Z `  ...+.@.#.$.%.&.*.        ",
"      =.-.;.>.,.'.).!.~.{.].^./.(._.:.<.[.}.@.|.1.2.3.4.5.      ",
"    6.7.8.9.,.0.a.b.c.d.e.f.g.h.i.j.k.l.m.n.o.p.q.r.s.t.u.*.    ",
"    v.w.x.y.z.a.a.a.A.B.C.C.D.E.F.G.H.I.J.K.L.M.N.O.P.Q.R.S.    ",
"  T.U.V.W.X.Y.a.a.a.Z.A.`. +.+++@+#+H.$+%+&+*+=+-+;+>+,+'+)+!+  ",
"  ~+{+]+^+Y./+a.a.a.a.a.A.`.(+_+:+<+[+}+|+1+2+3+4+5+6+7+8+9+0+  ",
"  a+b+c+d+e+f+a.a.a.a.a.`.Z.A.g+h+i+j+k+l+m+n+o+p+q+r+s+t+u+v+  ",
"T.w+x+c+y+z+A+B+C+B.A..+D+E+F+G+H+I+J+K+L+M+N+O+P+q+r+Q+R+S+T+!+",
"U+V+W+X+c+Y+;.,.'.Z+`+ @.@+@+@@@@@#@J+$@%@&@*@=@-@;@>@,@'@)@!@0+",
"U+~@X+X+{@]@8.^@/@(@_@:@<@[@}@$ $ $ $ $ |@1@2@3@4@5@Q+6@7@8@9@0@",
"U+a@b@b@X+c@d@e@f@g@h@i@j@k@l@$ $ $ |@|@|@$ |@m@n@o@p@q@r@s@u+0@",
"U+t@b@u@b@b@c@v@w@x@y@z@A@B@C@$ a.a.$ D@D@D@$ $ E@F@G@H@I@J@u+0@",
"U+K@L@M@N@b@O@P@Q@R@S@T@$ $ U@V@$ D@a.$ $ D@D@$ $ W@X@Y@Z@s@u+0@",
"U+`@ #.#+#L@@###$#%#&#*#$ a.$ |@|@$ $ |@a.$ D@D@$ |@=#-#;#s@9@0@",
"T.>#,#'#.#)#!#~#{#]#^#/#$ a.D@$ $ a.a.a.D@$ D@D@|@$ (#_#:#)@!@0+",
"  <#[#}#|#1#2#3#4#5#6#7#$ $ a.D@D@$ $ $ D@D@D@D@|@$ 8#9#0#S+a#  ",
"  T.b#c#d#e#f#g#h#i#j#k#$ $ a.a.D@D@D@D@D@D@D@D@|@|@$ l#s@m#v+  ",
"  T.n#o#p#q#r#s#t#u#v#w#$ a.$ a.a.a.D@D@D@D@D@D@D@|@|@$ $ x#0+  ",
"    T.y#z#A#B#C#D#E#F#G#$ D@D@a.$ a.a.a.a.a.a.a.D@D@D@|@|@$     ",
"    T.H#I#J#K#L#M#N#O#P#Q#$ D@D@a.$ $ $ $ $ a.a.a.D@D@D@D@|@$ $ ",
"      T.R#S#T#U#V#W#X#Y#Z#`#$ |@|@|@|@|@|@|@$ $ a.a.a.D@D@D@|@$ ",
"        T. $.$+$@$#$$$%$&$*$=$$ $ $ $ $ |@|@|@|@$ $ a.a.a.D@D@$ ",
"          T.-$;$>$,$'$)$!$~${$]$^$/$($_$$ $ D@D@|@|@$ $ a.a.$ $ ",
"            :$<$[$}$|$1$2$3$4$5$6$7$8$9$0$a$$ $ D@D@D@|@$ $ $ $ ",
"              b$$ c$d$e$f$g$h$i$j$k$l$m$n$o$p$!+$ $ D@D@|@|@$   ",
"                  $ $ $ q$r$s$t$u$v$w$w$*.q r       $ $ D@a.$   ",
"                        $ % % % ] ] 8 8                 $ $ $   "};
