/* XPM */
static char * Konsole32_xpm[] = {
"32 32 10 1",
" 	c None",
".	c #000000",
"+	c #CCCCCC",
"@	c #FFFFFF",
"#	c #333333",
"$	c #CCCCFF",
"%	c #999999",
"&	c #666666",
"*	c #9999CC",
"=	c #666699",
"                                ",
"     ......                     ",
"    .+@+@+#.  ...               ",
"   #@++@$@$%..+@$..             ",
"   #&@@+@+@@+@..@+@..           ",
"   #&&%@@@$+@+@+..+@+..         ",
"   #&&&%%@@@+@+@+@..@+@.        ",
"   #&&...%%+@+@+@+@+..+.        ",
"   #&&......%@@@+@+@+@..        ",
"   #&&.......%%@@+@+@+@+..      ",
"   #&&.++......%%@@@+@+@+%.     ",
"   #&&...++......%%@@+@+*&.     ",
"   #&&.....++......%%@+%&&.     ",
"   #&&.++....++......@%&&&.     ",
"   #&&...++....++....@%&&&.     ",
"   #&&.....++....++..@%&&&.     ",
"   #&&.++....++......@%&&&.     ",
"   #&&...++....++....@%&&&.     ",
"   #&&.....++....++..@%&&&.     ",
"   #&&.+$....++......@%&=&.     ",
"   #&+...++....++....@%&&&...   ",
"  +..+@@...++....++..@%&&&....  ",
"   +..++@@...++......@%&&&....  ",
"    ++..++@@...++....@%&&&....  ",
"      ++..++@@...++..@%&&&....  ",
"        ++..++@@.....@%&&&....  ",
"          ++..++@@...@%&&&....  ",
"             +..$+@@.@%&=&....  ",
"               +..++@@%&&&...   ",
"                 +..++%&&...    ",
"                   +..%&...     ",
"                     +....      "};
