/* XPM */
static char * icon32_xpm[] = {
"32 32 10 1",
" 	c None",
".	c #000000",
"+	c #CCCCCC",
"@	c #99CCCC",
"#	c #669999",
"$	c #FFFFFF",
"%	c #999999",
"&	c #333399",
"*	c #CCCCFF",
"=	c #9999FF",
"                                ",
"                                ",
"              ....              ",
"             .+@#..             ",
"            .+$$+%..            ",
"            .+$$+%&.            ",
"            .%+++#..            ",
"          ....%%%&..            ",
"         .$*=..&.&....          ",
"         .*$$=....==*.          ",
"         .***$$****==.          ",
"         .*****$$*===.          ",
"         .******$====.          ",
"         .******$====.          ",
"         .******$====.          ",
"         .******$====.          ",
"          .=****$==&.           ",
"           .==**$=&.            ",
"           .**==*&=.            ",
"           .***$===.            ",
"           .***$===.            ",
"           .***$===..           ",
"           .***$===....         ",
"           .***$===......       ",
"           .***$===........     ",
"           .&&*$==&..........   ",
"           .&&&&&&&..........   ",
"           .**&&&&=........     ",
"           .==*$===......       ",
"            ..=$==.....         ",
"              ........          ",
"                                "};
