/* XPM */
static char*kvirc[]={
"32 32 23 1",
"r c #008000",
"a c #ff00ff",
"s c #000080",
"g c #c0c000",
"j c #00ff00",
"q c #004000",
"k c #808000",
". c None",
"h c #ffc0c0",
"b c #800080",
"# c #000000",
"m c #0000c0",
"f c #c0ffc0",
"n c #004040",
"e c #ffff00",
"d c #800000",
"p c #0000ff",
"u c #008080",
"i c #c0ffff",
"l c #00c000",
"c c #c000c0",
"t c #ffffff",
"o c #ff0000",
"......#####.....................",
"....##aaaaa##...................",
"...#aabbbbbcc#..................",
"..#aabbbbdcbcd#######...........",
".#aabbbdcbdcbcc#efefe###........",
".#abgadbdcahebd#ifijfjkk#.......",
"#abbbgbccaceaaab#fjfllmnn##.....",
"#abdbgacachgacod#mpmmmmmmqr#....",
"#abbdagacaeacaab#mmpmpmemsqr#...",
"#abdcceeahgcaaod#pmmpjjllmrq#...",
"#cbbdaaeceaaaabb#jppejmmlrqrq#..",
".#cbccaehgaaaob#pfjmpmmlllrnrq#.",
".#ccbacaeaaaabb#mppfjjlllrrrqr#.",
"..#ccbaagaaobb#ptfjlllllulqrrq#.",
"...#dcaoaobbb#ptjlqlmmlllrlmqrq#",
"...###bbbbb##pmflummlmmlmlrqrs##",
"...#mp#####pmppmmpmmlmmmrsrrnsn#",
"...#mmpmppmpppmpfjflmllmlrrqsn##",
"...#mmmpmpmmpmpfjlllllulrrrsnsn#",
"...#mmmmpmppmpejljlllulrrrrqsn##",
"...#smmmmpmpmerlllululrusrqrs#n#",
"....#smmmmpmpjlrlulululrrsnsns#.",
"....#nmsmmmmmlrlrlulrlrrqrq#s##.",
"....#qsmmsmmmmmrlrlrlrrqrqrsn##.",
".....#nsmmmmmmsmsrrrrrrrqrn#s#..",
"......#snsmsmmmmmmrrrqrqrsnn#...",
"......#nsnsnsmsnsmqrqrqrnn#n#...",
".......#snnsnsnsnsrqrqrq#nn#....",
"........##snsnsnsnqrqrqss##.....",
"..........#snsssnssqrqs##.......",
"...........###n#n#srq###........",
"..............#######..........."};
