/* XPM */
static char * UNC_folder_32_xpm[] = {
"32 32 26 1",
" 	c None",
".	c #000000",
"+	c #9C9CFF",
"@	c #CECEFF",
"#	c #636363",
"$	c #63636B",
"%	c #CECECE",
"&	c #CECED6",
"*	c #737373",
"=	c #FFFFFF",
"-	c #EFEFEF",
";	c #F7F7F7",
">	c #E710E7",
",	c #7B527B",
"'	c #844A84",
")	c #FFF7FF",
"!	c #DEDEDE",
"~	c #FF9C00",
"{	c #31319C",
"]	c #00CE31",
"^	c #313163",
"/	c #00009C",
"(	c #848484",
"_	c #9C9C9C",
":	c #7B7B7B",
"<	c #003100",
"           ...                  ",
"          .++....               ",
"         ..+++++...             ",
"         .++++++++.             ",
"       ...++++++++..            ",
"       .@@..+++++++.            ",
"       .@@@@..+++++.            ",
"       .@@@@@@..++++..          ",
"       .@@@@@@@@..++++..        ",
"       .@@@@@@@@@@..++++..      ",
"       .@@@@@@@@@@@@..++++..    ",
"       .@@@@@@@@@@@@@+..++++..  ",
"       ###$@@@@@@@@+@@@+..++++. ",
"     ##%%&*##@@@+@@@@@+@++..++. ",
"   ##%=-;%%%%..@@@+..@@@++++.+. ",
" >,'=)!=%%%..#.@@..~~.+@+@++.+. ",
"...====%%..###...%%~~.{@++++.+. ",
".%=..==..#####.%%]]...{+++++.{. ",
".=%%%..#######.]]..{{{{@++++.{. ",
".%%%%%.#######...+++@+++++++.{. ",
".%^%%%.#######.@+++@@+++++++.{. ",
".%%//%.#######.+++@+++++++++.{. ",
".%/%%%.#######.++@@++@++++++.{. ",
".%%//%.#######.(++++++++++++.{. ",
".%/%%_.#######..(:+@++++++++.{. ",
".%%//%.#######. ..(:++@+++++.{. ",
".%%%%_.#######.   ..:(++++++.{. ",
"._%%_%.#####..      ..:(++++.{. ",
"..__%_.###..          ..(:++.{. ",
"  .__%.##.              ..(:.{. ",
"   ..#...                 ....  ",
"     .<                         "};
