/* XPM */
static char * UNC_file_32_xpm[] = {
"32 32 25 1",
" 	c None",
".	c #000000",
"+	c #9C9CFF",
"@	c #FFFFFF",
"#	c #CECEFF",
"$	c #636363",
"%	c #6B636B",
"&	c #CECECE",
"*	c #D6C6D6",
"=	c #6B6B6B",
"-	c #F7EFF7",
";	c #F7F7F7",
">	c #E710E7",
",	c #7B527B",
"'	c #844A84",
")	c #FFF7FF",
"!	c #DEDEDE",
"~	c #FF9C00",
"{	c #00CE31",
"]	c #313163",
"^	c #00009C",
"/	c #7B7B7B",
"(	c #848484",
"_	c #9C9C9C",
":	c #003100",
"                                ",
"                   ...          ",
"                  .++@..        ",
"                 ..+@@@@..      ",
"                .@.+@@@@@@..    ",
"               .@@.+@@@@@@@@.   ",
"               ..@@.@@@@@@@#.   ",
"               .@...@@@@@@@#.   ",
"               .@@@@@@@@@@@#.   ",
"               .@@@@@@@@@@@#.   ",
"               .@@@@@@@@@@@#.   ",
"        $$$%   .@@#@@@@@@###.   ",
"      $$&&*=$$ .@@@@@#@@@###.   ",
"    $$&@-;&&&&..@@#@..##@###.   ",
"  >,'@)!@&&&..$.@@..~~.+####.   ",
" ...@@@@&&..$$$...&&~~.+####.   ",
" .&@..@@..$$$$$.&&{{...+####.   ",
" .@&&&..$$$$$$$.{{..#+++####.   ",
" .&&&&&.$$$$$$$...##########.   ",
" .&]&&&.$$$$$$$.############.   ",
" .&&^^&.$$$$$$$.@###########.   ",
" .&^&&&.$$$$$$$./(##########.   ",
" .&&^^&.$$$$$$$.../(########.   ",
" .&^&&_.$$$$$$$.  ..(/######.   ",
" .&&^^&.$$$$$$$.    ..(/####.   ",
" .&&&&_.$$$$$$$.      ../(##.   ",
" ._&&_&.$$$$$..         ../(.   ",
" ..__&_.$$$..             ...   ",
"   .__&.$$.                     ",
"    ..$...                      ",
"      .:                        ",
"                                "};
