/* XPM */
static char * lockedfolder_xpm[] = {
"32 32 8 1",
" 	c None",
".	c #000000",
"+	c #9C9CFF",
"@	c #CECEFF",
"#	c #FFFFFF",
"$	c #868686",
"%	c #31319C",
"&	c #C0C0C0",
"     ...                        ",
"    .++....                     ",
"   ..+++++...                   ",
"   .++++++++.                   ",
" ...++++++++..                  ",
" .@@..+++++++.                  ",
" .@@@@..+++++.                  ",
" .@@@@@@..++++..                ",
" .@@@@@@@@..++++..              ",
" .@@@@@@@@@@..++++..            ",
" .@@@@@@@@@@@@..++++..          ",
" .@@@@@@@@@@@@@+..++++..        ",
" .@@@@@@@@@@@+@@@+..++++.       ",
" .@@@@...@+@@@@@+@++..++.       ",
" .@@@..##.$@++@@@@++++.+.       ",
" .@@@.#..#.$@@@++@+@++.+.       ",
" .@@.#.@@.#.@@+@@@++++.+.       ",
" .@@.#.@@.#.++@+++++++.%.       ",
" .@@........@@+@+@++++.%.       ",
" .@.#######$.+@+++++++.%..      ",
" .$.#&&&&&&$.@@+++++++.%....    ",
"  ..#&&&&&&$.+++++++++.%.....   ",
"   .#&&&&&&$.++@++++++.%....... ",
"   .#&&&&&&$.+++++++++.%....... ",
"   .#&&&&&&$.@++++++++.%....... ",
"   .$$$$$$$$.$++@+++++.%......  ",
"   ...........$$++++++.%....    ",
"              ..$$++++.%...     ",
"                ..$$++.%..      ",
"                  ..$$.%.       ",
"                    ....        ",
"                                "};
