/* XPM */
static char * locked_xpm[] = {
"32 32 7 1",
" 	c None",
".	c #000000",
"+	c #9C9CFF",
"@	c #FFFFFF",
"#	c #868686",
"$	c #CECEFF",
"%	c #C0C0C0",
"                                ",
"                                ",
"       ...                      ",
"      .++@..                    ",
"     ..+@@@@..                  ",
"    .@.+@@@@@@..                ",
"   .@@.+@@@@@@@@.               ",
"   ....@...@@@@@.               ",
"   .@@@..@@.#@@$.               ",
"   .@@@.@..@.#$$.               ",
"   .@@.@.@@.@.$$.               ",
"   .@@.@.@@.@.$$.               ",
"   .@@........$$.               ",
"   .@.@@@@@@@#.$.               ",
"   .@.@%%%%%%#.$.               ",
"   .@.@%%%%%%#.$. .             ",
"   .@.@%%%%%%#.$.....           ",
"   .@.@%%%%%%#.$.......         ",
"   .@.@%%%%%%#.$.........       ",
"   .@.########.$...........     ",
"   .$..........$.............   ",
"   .$$$$$$$$$$$$..............  ",
"   .##$$$$$$$$$$.............   ",
"    ..##$$$$$$$$...........     ",
"      ..##$$$$$$.........       ",
"        ..##$$$$.......         ",
"          ..##$$.....           ",
"            ..##...             ",
"              ...               ",
"                                ",
"                                ",
"                                "};
