/* XPM */
static char * million_test_xpm[] = {
"172 30 256 2",
"  	c None",
". 	c #0A0A0C",
"+ 	c #07887E",
"@ 	c #863B34",
"# 	c #8D8538",
"$ 	c #284A33",
"% 	c #87CB3C",
"& 	c #4A0AAF",
"* 	c #05C93A",
"= 	c #4C4924",
"- 	c #8E4838",
"; 	c #CAC83C",
"> 	c #1C2324",
", 	c #4ECA3C",
"' 	c #CA883C",
") 	c #06679D",
"! 	c #518634",
"~ 	c #CA473C",
"{ 	c #4B2A31",
"] 	c #C8EC31",
"^ 	c #492AD0",
"/ 	c #06AA5B",
"( 	c #0527E1",
"_ 	c #CAA83C",
": 	c #CA683C",
"< 	c #06EC18",
"[ 	c #0647C3",
"} 	c #6927A7",
"| 	c #0806FC",
"1 	c #48EA32",
"2 	c #89EB31",
"3 	c #326936",
"4 	c #E8E634",
"5 	c #3B8847",
"6 	c #506A2C",
"7 	c #213323",
"8 	c #88A63C",
"9 	c #37744D",
"0 	c #483DA0",
"a 	c #3D48A2",
"b 	c #29E936",
"c 	c #EBC831",
"d 	c #2806DA",
"e 	c #EBA832",
"f 	c #866934",
"g 	c #EB6831",
"h 	c #EB4832",
"i 	c #EB8731",
"j 	c #4FAA3C",
"k 	c #67EB32",
"l 	c #3D984C",
"m 	c #29A975",
"n 	c #A8EC31",
"o 	c #FE0905",
"p 	c #714830",
"q 	c #2958C9",
"r 	c #2A28F5",
"s 	c #E9FB18",
"t 	c #473BCB",
"u 	c #D63D3C",
"v 	c #28C855",
"w 	c #70332F",
"x 	c #EBD832",
"y 	c #EBB831",
"z 	c #2AB866",
"A 	c #EB7732",
"B 	c #EB5832",
"C 	c #EB9932",
"D 	c #2D553D",
"E 	c #A9A73C",
"F 	c #342421",
"G 	c #4B12B8",
"H 	c #28FA1A",
"I 	c #4E3927",
"J 	c #2868B6",
"K 	c #FB2918",
"L 	c #2818F0",
"M 	c #3D3DA1",
"N 	c #6839A9",
"O 	c #2978A5",
"P 	c #70CA3C",
"Q 	c #363474",
"R 	c #EB3932",
"S 	c #B0CA3C",
"T 	c #2F1C1F",
"U 	c #298897",
"V 	c #B4683C",
"W 	c #A6883C",
"X 	c #A6473C",
"Y 	c #48FC17",
"Z 	c #FBF913",
"` 	c #48366F",
" .	c #2A47DA",
"..	c #72AB3C",
"+.	c #718634",
"@.	c #C9FC15",
"#.	c #88FC15",
"$.	c #68FB18",
"%.	c #2AD845",
"&.	c #08FC09",
"*.	c #0717F3",
"=.	c #70582F",
"-.	c #2A9984",
";.	c #5738BF",
">.	c #A8FB17",
",.	c #37FA1B",
"'.	c #121815",
").	c #485B2C",
"!.	c #3CA45F",
"~.	c #2B2244",
"{.	c #583DA6",
"].	c #67428E",
"^.	c #3C54B2",
"/.	c #A6983C",
"(.	c #60139F",
"_.	c #573C76",
":.	c #FCC816",
"<.	c #FCA915",
"[.	c #FC6816",
"}.	c #FC4816",
"|.	c #FCD816",
"1.	c #FCB816",
"2.	c #A8BA3C",
"3.	c #3C63A0",
"4.	c #75399A",
"5.	c #C8D93C",
"6.	c #FAE919",
"7.	c #FC8816",
"8.	c #FC7816",
"9.	c #69672C",
"0.	c #8D5838",
"a.	c #06996C",
"b.	c #07D92D",
"c.	c #06788D",
"d.	c #06BA4B",
"e.	c #0657B0",
"f.	c #0738D2",
"g.	c #5A42A1",
"h.	c #489C3C",
"i.	c #867734",
"j.	c #699B3C",
"k.	c #8FBA3C",
"l.	c #A6583C",
"m.	c #CA983C",
"n.	c #C9583C",
"o.	c #CAB83C",
"p.	c #CA783C",
"q.	c #B5783C",
"r.	c #B23E3C",
"s.	c #FE180E",
"t.	c #8FDA3C",
"u.	c #4FDA3C",
"v.	c #6FDA3C",
"w.	c #B0DA3C",
"x.	c #747834",
"y.	c #623E79",
"z.	c #354870",
"A.	c #3A391C",
"B.	c #2938E8",
"C.	c #4EBA3C",
"D.	c #70BA3C",
"E.	c #824594",
"F.	c #5C0A9B",
"G.	c #39596F",
"H.	c #91933C",
"I.	c #507A34",
"J.	c #3808C4",
"K.	c #3C7492",
"L.	c #76488B",
"M.	c #384E24",
"N.	c #5C2C2C",
"O.	c #5828BB",
"P.	c #3CB854",
"Q.	c #3918D8",
"R.	c #3B8885",
"S.	c #18EC28",
"T.	c #3B47CD",
"U.	c #396863",
"V.	c #181010",
"W.	c #18888B",
"X.	c #17C64D",
"Y.	c #1869AC",
"Z.	c #17A76B",
"`.	c #1727EF",
" +	c #3829E9",
".+	c #3BC84B",
"++	c #3A967C",
"@+	c #17977C",
"#+	c #17D73B",
"$+	c #17789C",
"%+	c #18B75E",
"&+	c #1759BC",
"*+	c #1838DF",
"=+	c #3A38E0",
"-+	c #FC5816",
";+	c #FC9816",
">+	c #5C382C",
",+	c #FC3717",
"'+	c #1748CD",
")+	c #1806F1",
"!+	c #1C2D24",
"~+	c #233D26",
"{+	c #37E737",
"]+	c #39D841",
"^+	c #1816FB",
"/+	c #5C492C",
"(+	c #D9EB32",
"_+	c #58EC31",
":+	c #98EB32",
"<+	c #9B683C",
"[+	c #78EB31",
"}+	c #B8EB32",
"|+	c #9B783C",
"1+	c #752994",
"2+	c #DAC83C",
"3+	c #99A73C",
"4+	c #BAA83C",
"5+	c #BA883C",
"6+	c #BA473C",
"7+	c #5A582C",
"8+	c #BA983C",
"9+	c #BAB83C",
"0+	c #D9D83C",
"a+	c #589C3C",
"b+	c #789C3C",
"c+	c #BA583C",
"d+	c #323C72",
"e+	c #641B9F",
"f+	c #723C30",
"g+	c #3CAC59",
"h+	c #3C5CAE",
"i+	c #3B6C9E",
"j+	c #58FC15",
"k+	c #D8FC17",
"l+	c #97FC16",
"m+	c #78FC16",
"n+	c #B9FC15",
"o+	c #315C33",
"p+	c #342C16",
"q+	c #332C59",
"r+	c #7A6734",
"s+	c #201A23",
"t+	c #DA893C",
"u+	c #DA473C",
"v+	c #DAA83C",
"w+	c #DA683C",
"x+	c #DA993C",
"y+	c #DA583C",
"z+	c #DAB83C",
"A+	c #DA783C",
"B+	c #397B44",
"C+	c #3C7C8D",
"D+	c #18FC10",
"E+	c #4C1CC2",
"F+	c #9B3D3C",
"G+	c #99C93C",
"o o o o o s.s.s.s.K K K ,+,+,+}.}.}.-+-+-+-+[.[.[.8.8.8.8.7.7.7.;+;+;+;+<.;+<.<.<.<.1.1.1.1.1.:.1.:.:.:.:.|.|.|.|.|.6.6.6.6.6.Z Z Z Z Z Z Z Z Z s s s k+k+@.@.n+n+>.l+l+l+#.m+m+m+$.j+j+Y Y Y ,.H H D+D+D+&.&.&.&.&.< < < b.b.* * d.d./ / a.a.+ + c.c.) ) e.e.[ [ f.( ( ( *.*.| | | | | | | | | | )+)+)+)+d )+d d d d J.J.J.J.J.& & & & & F.F.F.F.F.F.e+",
"o o o o o s.s.s.K K K ,+,+,+}.}.}.}.-+-+-+[.[.[.[.8.8.8.7.7.7.7.7.;+;+<.;+<.<.<.<.1.<.1.1.1.:.1.:.:.:.|.:.:.|.|.6.|.|.6.6.Z 6.6.Z Z Z Z Z Z Z Z s s s k+k+@.@.n+n+>.>.l+l+#.#.m+m+$.$.j+Y Y Y ,.,.H D+D+D+&.&.&.&.&.< < < b.b.b.* d.d./ / a.a.+ + c.c.c.) e.e.[ [ f.f.( ( *.*.*.| | | | | | | )+)+)+)+)+)+d d d d J.d J.J.J.& J.& & & & & & & F.F.F.F.e+",
"o o s.s.s.s.K s.K K ,+,+,+}.,+}.-+}.-+-+[.-+[.[.8.8.8.8.7.7.7.;+;+;+;+;+<.<.<.<.1.<.1.1.1.1.1.:.1.:.:.:.|.|.:.|.|.6.|.6.6.6.Z 6.Z Z Z Z Z Z Z s s s k+k+k+@.@.n+n+>.>.l+l+#.#.m+m+$.$.$.j+Y Y ,.,.,.H D+D+D+&.&.&.&.< < < b.b.* * d.d./ / a.a.+ + c.c.) ) ) e.[ [ [ f.f.( ( *.*.*.| | | )+)+| )+)+)+d d d d d d J.J.J.J.J.J.& & & & & F.F.F.F.F.F.F.(.1+",
"o o s.s.s.s.K K K ,+,+,+,+}.}.}.-+-+-+-+[.[.8.[.8.8.8.7.7.7.7.7.;+;+;+<.;+<.<.<.<.1.1.1.1.:.1.:.:.:.:.:.:.|.|.|.|.|.6.6.6.6.6.6.Z Z Z Z Z Z Z Z s s s k+k+@.n+n+n+>.>.l+l+#.#.m+m+m+$.j+j+Y Y Y ,.,.H H D+D+D+D+&.D+< S.< #+b.#+X.X.%+/ Z.Z.a.@+W.+ $+c.Y.) &+&+[ '+f.*+( `.`.^+*.*.^+| ^+^+^+^+^+^+)+^+d L J.L J.Q.J.Q.G G J.G G G G (.G (.(.(.(.(.(.1+",
"s.s.s.s.K K K K ,+,+,+}.}.}.}.-+-+-+[.-+[.[.8.8.8.8.7.8.7.7.;+;+;+;+;+<.<.<.<.1.<.1.1.1.1.1.:.1.:.:.:.|.:.|.|.|.|.|.|.6.6.6.Z 6.6.Z Z Z Z Z Z Z s s s k+k+@.@.n+n+>.>.l+l+l+#.#.m+m+$.$.$.j+Y Y ,.,.,.H H D+D+D+D+D+S.S.S.#+#+* X.X.%+%+Z.a.@+@+W.W.$+$+$+Y.&+&+&+'+*+*+*+`.`.^+^+^+^+^+^+^+^+d L L L L Q.L Q.Q.Q.Q.E+Q.E+E+E+E+G E+(.E+e+e+(.e+e+e+e+1+",
"s.s.K K K K K ,+,+,+,+}.}.}.-+-+-+-+[.[.[.[.[.8.8.8.7.7.7.;+7.;+;+;+<.;+<.<.1.<.<.1.1.1.1.:.1.:.:.:.:.:.:.:.|.|.6.|.6.|.6.6.6.6.Z Z Z Z Z Z Z s s s k+k+k+@.@.n+n+n+>.>.l+l+#.#.m+m+$.$.j+j+Y Y Y ,.,.,.H H H D+D+S.S.S.S.%.#+#+X.X.%+%+Z.m @+@+@+W.W.$+$+Y.Y.&+&+'+'+*+*+*+*+`.`.`.^+^+L L L L L L Q.L Q.Q.Q.Q.E+Q.E+E+E+E+E+E+O.e+O.e+e+} e+1+e+1+e+4.",
"K K K K K ,+,+,+R }.}.}.}.-+-+-+-+[.[.[.[.8.8.8.8.7.7.7.7.;+;+;+;+<.<.;+<.<.<.1.1.<.1.1.1.1.:.1.:.:.:.:.|.:.|.|.|.|.|.6.6.6.6.6.6.Z Z Z Z s Z s s s k+k+k+@.@.n+>.>.>.>.l+l+#.#.m+m+m+$.$.j+j+Y Y Y ,.,.H H H b H b S.b %.#+%.v v v z z m m -.-.U U U O O J J J q q  . .B.B.B.r r r r r `.r r r r r  + + + + +E+ +^ ^ E+^ O.O.O.O.O.O.O.O.} } } 1+1+1+4.",
"K K K K K R R ,+R }.h B h B B g B g g A g A A A i A i i i i C C C C e e e e e e y y y y c y y c c c c c c x c x |.4 |.x |.4 6.4 6.4 Z 4 Z Z s Z s (+(+(+] ] ] @.}+}+>.:+:+2 :+2 #.[+[+m+k k j+_+_+,.1 ,.,.,.H H b b b b b %.%.v v z z %+m Z.-.@+-.U U O O J J J q q '+ .'+B.B.B.r r r r r r r  + + + + +E+ +^ ^ ^ ^ ^ ^ ^ O.O.O.O.O.} } } } 1+} 1+1+1+4.",
"K R R R R R R }.h h }.B -+B -+g [.g [.g 8.A 8.A 7.i 7.7.C ;+7.C ;+C <.e <.e <.e <.y 1.y 1.y :.y 1.c :.c :.c :.x c x x 4 x 6.4 6.6.4 4 6.4 4 4 4 (+s (+k+] @.}+}+>.n n >.:+l+2 2 2 m+[+k $.k _+j+1 _+1 {+{+{+b H b b b %.%.%.%.v v z z g+m m -.++U U U U O O J J q q q T. .B.B.B.B.r r  + + + + + + + +=+^ ^ ^ ^ ^ ^ ;.O.O.;.O.;.} ;.N N } N } 4.1+4.4.E.",
"R R R R R R h h h h B h B B B B g g g g A A A i A i i i i C C C C C C C e e y e y e e y y y y y c y c c c c c c x x x x x x x 4 4 4 4 (+Z 4 s 4 (+(+(+(+] ] ] }+}+n n n :+:+2 2 2 [+[+[+k k _+_+_+1 1 1 1 1 {+{+{+{+{+]+]+%..+.+v P.z m g+-.!.-.++R.U C+O K.J i+h+h+q  .T. .T.B.=+B.=+B.=+B.=+=+=+=+=+=+^ =+^ ;.t ;.;.;.;.;.;.;.N } ;.N N N 4.N 4.1+4.E.",
"R R R R h R u+h h h B y+B B g g g w+A g A A A A+i i t+i t+i C C C v+C e C e e v+e y e y y z+y y y y c z+c c c c c c x x x x x x x 4 4 4 4 4 4 4 4 (+] 5.] 5.}+w.}+n w.:+:+:+2 2 2 v.[+v.k v._+_+1 1 1 1 {+{+{+{+{+]+]+]+]+.+v .+P.z P.g+m !.++-.++R.U C+O K.i+J h+h+h+^.T.T.T.B.=+=+=+=+=+ +=+=+^ ^ t t t t ;.^ ;.;.;.;.;.;.N N ;.N N N 4.N 4.4.4.4.4.E.",
"R u u u u+u+u+u+u+y+u+y+w+y+y+w+w+w+w+A+w+A+A+A+t+A+i t+t+x+t+x+x+x+x+x+v+x+v+v+v+v+v+v+v+z+z+z+z+z+z+z+2+z+2+2+2+2+2+2+2+0+0+0+0+0+x 0+0+0+0+(+5.0+5.5.w.] w.w.w.:+w.t.t.t.t.v.t.2 v.[+v.v.u.v.u.u.u.{+u.1 {+]+{+]+]+]+.+.+.+P.P.P.g+!.!.++++++R.R.R.C+C+K.i+i+J h+^.q ^.T.T.T.=+=+=+=+=+=+=+=+t =+t t t t t t t ;.;.;.N ;.;.N N N N N N 4.N N 4.4.4.L.",
"u u u u u+u+u+u+y+u+y+y+y+w+y+w+w+w+w+A+A+A+A+A+A+t+t+t+t+t+t+t+x+x+x+x+x+x+v+v+v+v+v+v+v+v+v+z+z+z+z+z+z+z+z+z+2+2+2+2+2+2+2+0+2+0+0+0+0+0+0+5.5.5.5.5.5.w.w.w.w.t.w.t.t.t.t.t.v.v.P v.v.v.u.v.u.u.u.u.]+]+u.]+]+]+.+.+.+.+P.P.P.g+g+!.!.++++++R.R.R.C+C+K.i+3.3.h+h+^.^.T.T.T.=+T.=+t t t t t t t t ;.t ;.;.{.;.{.{.;.{.{.{.g.N g.N N ].].E.].E.4.L.E.",
"u u u ~ u ~ ~ n.~ y+n.y+n.: n.: w+: : : : p.A+p.p.p.p.' ' t+' ' t+m.m.x+m.m.x+m.x+_ _ _ _ _ _ _ _ _ v+_ o.o.o.o.o.o.o.; ; ; ; ; ; ; ; ; 0+; 5.; ; 5.5.S S S S G+S G+G+t.G+% % % % % P v.P v.P , v., , , , .+, .+.+.+.+.+.+P.P.P.g+g+!.!.++++++R.R.C+C+C+K.K.i+i+3.h+^.^.^.T.T.T.T.t T.=+T.t T.t t t t t t g.t {.t g.{.g.g.g.g.].g.N ].].].N N ].4.].L.L.",
"r.~ u ~ ~ ~ ~ ~ n.~ n.n.n.n.n.: : : : : p.: p.p.p.p.p.p.' ' ' ' ' ' ' m.m.m.m.m.m.m.m.m._ _ _ _ _ _ _ _ _ o._ o.o.o.o.o.o.o.o.; ; ; ; ; ; ; ; ; S S S S S S S G+G+G+G+G+% % % P % P P P , P , , , , , , , .+.+, .+.+P.P.P.P.g+g+g+!.!.++++++R.R.R.R.C+C+K.i+i+3.3.h+^.^.^.T.T.t T.t t T.t t t T.t t g.t t g.t g.{.g.g.{.{.N g.g.].].].N L.].].].].L.4.L.",
"r.r.6+6+6+6+~ 6+6+c+c+c+c+: c+n.V V : V : q.V q.p.q.p.q.5+q.5+5+5+5+5+5+5+5+8+8+8+8+8+m.8+m.8+m.8+4+4+4+_ 4+_ 4+_ 4+_ 4+9+o.9+o.9+o.9+9+9+9+9+9+9+9+9+2.2.G+2.2.G+k.k.k.k.D.k.D.D.D.D.D.D.C.D.D.C.C.C.C.C.C..+P.C.P.C.P.C.g+g+!.!.!.h.++l R.R.R.C+C+C+K.K.i+3.3.3.h+^.^.^.^.a T.M T.M t T.T.t 0 T.t a t g.t g.0 0 g.{.g.g.g.g.].g.].g.].N ].].].].].L.L.",
"r.r.r.6+6+6+6+c+6+6+c+c+l.c+c+V c+V V V V V V q.q.q.q.q.q.q.5+q.5+5+5+5+5+5+5+5+5+8+8+8+8+8+/.8+8+8+8+8+8+E 4+E 4+4+4+4+4+4+E 4+9+9+9+9+9+2.9+9+2.2.2.2.2.k.k.k.k.k.k.D.k.D.D.k.D.D...D.C...C.C.C.C.C.C.P.C.P.P.P.P.g+g+!.!.h.!.l ++++R.! R.! C+C+K.K.K.i+i+3.h+h+h+^.a a a a T.M T.M t M 0 t 0 0 t g.0 a 0 g.g.0 g.{.g.g.{.g.g.g.].g.].].].].].4.y.L.L.",
"r.r.r.r.X X X X X X X X l.l.l.l.l.l.V l.V V V V V V |+V q.q.q.q.|+q.|+W W W W W W W W W W W /.W /././././.8+/././.E /.E /.E E E E E E E E E 2.E E E E 3+3+3+3+3+8 8 8 ..8 ........j ..j ..j ..j j j j j g+j g+j !.j !.h.!.!.h.l l 5 ! R.5 R.C+I.K.I.K.U.U.U.3.G.h+G.^.^.a a a M M M M M M M T.0 0 0 0 0 0 0 0 0 0 0 g.0 _.g._.{._.y.g._.y.].].y.y.y.y.L.",
"F+F+F+F+F+X X X X l.X X X l.l.l.l.l.l.l.<+l.<+<+<+<+<+<+<+|+|+|+|+|+|+q.|+|+|+|+W |+W W W W W W W W W W W W H.W H./.H./././././././.3+/.3+/.3+3+3+3+8 /.8 8 b+8 8 8 b+b+b+b+j.j.j...a+j.j a+a+a+h.h.h.h.h.l h.!.l !.l l l 5 5 5 5 R.5 C+B+9 K.9 U.U.U.3.3.G.3.G.G.a G.a a a a M M M M M M M M M M M 0 0 0 0 0 0 _.0 _.0 _.0 _._.{._.y._._._.y.y.y.y.y.y.",
"F+F+F+F+F+@ F+- - - - 0.- - - - 0.0.0.0.0.0.0.0.<+0.<+<+<+f <+<+<+<+i.<+|+|+|+|+|+|+|+i.|+i.|+# |+i.# # # W # W # W # # # H.H.H.H.H.H.H.H.H.H.H.H.H.H.H.H.H.H.b++.b+j.b+j.j.j.j.j.a+a+a+! a+h.h.h.l l l l l l l l 5 l 5 5 5 5 5 5 B+B+9 9 9 K.U.U.U.U.U.G.G.G.a G.z.a z.a z.M M M M M M M Q M M 0 M M M ` 0 ` ` 0 ` ` _.` 0 _.0 _.` _._._._._._._._.y.y.",
"@ @ @ @ @ @ @ @ @ - - - - - - - - - 0.0.0.0.0.0.0.0.0.r+0.0.r+f f f f r+f f f f r+f f f i.i.f i.i.i.i.i.i.i.i.i.i.i.# # i.i.# x.# # # # # # +.# +.+.+.+.+.+.+.+.+.+.x.+.! +.! I.! I.! ! ! ! ! I.! 5 5 5 5 B+5 5 5 5 B+5 5 B+9 9 9 U.9 U.U.U.U.U.G.G.G.).G.G.z.G.z.z.z.0 z.d+d+d+Q Q Q Q M Q Q Q Q ` Q Q ` M ` Q ` ` M ` ` ` ` ` ` ` ` ` _.` ` _.I _.` /+",
"w w w w w f+@ f+@ w f+f+f+p p p p p p p p p p p p =.p =.=.=.0.=.=.0.=.0.=.=.r+=.r+r+r+r+r+r+r+r+r+r+r+r+r+r+r+r+x.x.r+x.x.x.i.x.x.x.x.x.x.x.x.x.x.x.x.x.x.x.x.I.x.I.I.I.I.x.I.I.I.I.I.I.9 I.B+B+B+B+B+B+B+B+B+9 9 9 B+3 9 3 3 9 3 3 o+U.o+).D G.D G.D z.z.z.z.z.z.z.d+d+d+d+d+Q Q Q Q Q Q Q Q Q Q Q Q Q Q Q Q Q Q Q ` Q ` ` ` ` ` ` ` ` ` ` ` { ` ` ` ` ",
"w w w w w w w w >+w f+f+f+f+f+f+f+f+f+p p p p p p p p p p p /+p =.=.7+=.=.=.=.=.=.=.7+=.=.=.=.7+=.=.9.=.9.9.9.9.=.9.9.=.9.9.9.9.9.9.9.9.9.r+9.9.9.9.6 9.6 6 6 9.6 6 9.6 6 6 6 6 6 6 6 3 6 3 3 6 3 3 3 3 3 3 3 3 3 3 3 3 3 3 o+o+o+o+o+o+D D z.D M.z.$ z.$ z.A.d+d+A.d+Q Q Q Q Q Q q+q+q+q+q+Q q+q+q+q+Q q+q+q+` q+q+q+q+q+q+q+q+q+{ q+{ q+{ Q { { { ` { ",
"N.N.N.N.N.N.N.N.N.N.N.N.N.N.N.>+>+>+>+>+>+I >+/+>+/+/+>+/+/+/+/+/+>+/+/+/+/+/+= /+/+/+/+= /+7+/+7+/+7+/+7+/+/+7+7+7+7+7+7+7+7+7+7+7+7+7+9.).9.7+9.7+7+).7+7+).).).).).).).).).).).o+).o+).o+o+o+o+o+o+o+o+o+o+o+o+D D D D D D D D D $ $ $ $ $ $ ~+~+z.~+~+d+~+~+Q 7 q+7 q+!+q+!+q+~.q+~.q+~.~.~.q+q+~.q+q+q+q+~.q+q+q+q+q+q+q+q+q+q+q+q+q+{ q+q+q+q+{ q+",
"{ T { T { { { { { { { { { I { { I { { I { I { I { I I I I I I I I I I I I I I I I = I = = I = I = = = = = = = = I = = = = = = = = = = = = = = = M.= ).= M.= = M.= M.M.M.M.M.$ M.$ M.M.$ M.M.M.$ $ $ $ $ $ $ $ $ $ $ $ ~+$ ~+$ ~+~+~+~+~+~+~+7 ~+~+7 7 q+7 !+q+!+!+!+q+!+~.> ~.> > > ~.> ~.~.~.~.~.~.~.~.~.~.~.~.~.~.~.~.F ~.F F ~.F F ~.F ~.F F ~.F F q+",
"T T { T T T F T F F F F F F F F F p+F F { F p+F p+p+F p+p+p+p+p+p+A.p+A.p+A.A.A.A.p+A.A.p+A.A.A.A.p+A.p+A.A.A.A.A.A.A.A.A.A.A.A.= A.= A.A.M.A.A.A.A.A.A.A.M.A.A.~+A.A.~+A.~+~+A.~+~+~+~+~+~+~+~+~+~+~+~+~+~+~+~+~+~+~+~+~+~+7 ~+~+~+7 7 7 !+7 !+!+!+!+!+> !+!+> > > > > > > > > > > > '.> > > '.s+s+> s+s+s+s+s+s+~.s+s+s+~.s+~.s+~.s+~.~.T s+T ~.~.s+T ",
"T T V.T T T T T T T T T T T T T T T F T F T F T T F T F T F F F F F F F F F F F F F F F F F F F F F p+F F F F p+p+p+p+p+p+p+p+p+p+p+p+p+p+7 p+A.7 p+7 A.!+p+7 A.7 7 p+7 !+7 7 7 !+p+7 !+!+!+!+7 7 !+!+7 7 7 7 !+!+!+!+!+!+!+!+> > !+> > !+> > > > > > > '.> > > > '.'.'.'.'.'.'.'.'.'.'.'.'.'.'.'.'.V.'.s+s+s+V.s+'.s+s+V.s+V.s+V.s+V.s+V.s+V.s+V.s+s+s+",
"V.V.V.V.V.V.V.V.V.V.V.T V.T V.T V.T V.s+V.T V.s+T s+s+T s+s+s+s+s+s+s+s+s+s+s+s+s+s+s+s+> s+s+s+s+> s+> T > > s+s+s+s+T > > > > > > > > > > > > > > > > > > > > s+> > > > > s+> > > > > > > > '.'.> > '.> '.> > > > '.> '.'.'.> '.'.'.'.'.'.'.'.'.'.'.'.'.'.. '.'.. '.'.'.V.. V.. V.. V.. V.. V.V.V.'.. V.. V.'.V.V.V.. '.V.V.V.V.V.V.V.V.V.V.V.V.V.V.V.",
"V.V.V.V.V.V.V.V.V.V.V.. V.V.. V.V.V.V.V.. V.V.V.. V.V.V.. V.V.V.V.V.V.V.V.V.V.'.V.'.V.V.V.'.'.V.V.'.V.'.V.V.'.'.'.'.'.V.V.V.'.V.'.'.'.V.V.'.V.'.'.'.V.'.'.V.V.'.'.'.'.'.V.'.'.'.'.. '.. '.'.'.'.'.'.'.'.'.'.'.'.'.'.'.'.'.'.'.'.'.'.'.'.. '.. . . . . . . . . . . . . . . . . . . . . . . . . . . . . . . . . . . . . . . . . . . . . . . . . . . . V.. ",
". . . . . . . . . . . . . . . . . . . . . . . . . . . . . . . . . . . . . . . . . . . . . . . . . . . . . . . . . . . . . . . . . . . . . . . . . . . . . . . . . . . . . . . . . . . . . . . . . . . . . . . . . . . . . . . . . . . . . . . . . . . . . . . . . . . . . . . . . . . . . . . . . . . . . . . . . . . . . . . . . . . . . . . . . . . . "};
