/* XPM */
static const char * folder_xpm[] = {
"16 16 9 1",
" 	c None",
".	c #202C31",
"@	c #9C9D00",
"#	c #000000",
"$	c #F6F6F6",
"%	c #FFFFCD",
"&	c #FFFF9C",
"*	c #CDCE62",
"=	c #FFCE9C",
"                ",
"                ",
"  @@@@@#        ",
" @$%%&&@#       ",
"@*******@@@@@@  ",
"@%%%%%%%%%%%&*# ",
"@%&&&&&&&&&&=*# ",
"@%&&&&&&&=&=&*# ",
"@%&&&&&&&&=&=*# ",
"@%&&&&&=&=&=&*# ",
"@%&&&&&&=&=&=*# ",
"@%&&&=&=&=&==*# ",
"@%=&=&=&=&===*# ",
"@*************# ",
" ############## ",
"                "};
