/* XPM */
static char * icon_16_xpm[] = {
"16 16 12 1",
" 	c None",
".	c #FFFFFF",
"+	c #C0C0C0",
"@	c #CCCCFF",
"#	c #9999FF",
"$	c #6666FF",
"%	c #3333FF",
"&	c #3333CC",
"*	c #0000FF",
"=	c #0000CC",
"-	c #000033",
";	c #000000",
"     ;;;;-;     ",
"     ;..@$;     ",
"  ;;;;.##%;;;;  ",
"   ;;.#$%*;;;   ",
"     ;;;;;;     ",
"       ;;       ",
" ;;;;;;;;;;;;;; ",
" ;............; ",
" ;............; ",
" ;;;;;;;;;;;;;; ",
"       ;;       ",
"     ;;..;;     ",
"   ;;....#&;;   ",
"  ;;;;.#**=;;;  ",
"     ;#*==;     ",
"     ;;;;;;     "};
