/* XPM */
static char * New_ark_xpm[] = {
"24 24 8 1",
" 	c None",
".	c #FFFFFF",
"+	c #FFFF00",
"@	c #C0C0C0",
"#	c #CCCCCC",
"$	c #999999",
"%	c #666666",
"&	c #000000",
"       &&               ",
"      &##&&     +       ",
"     &#####&&+  +  +    ",
"    &#########+ + +$    ",
"   &##########$+++$     ",
"  &#########+++++++++   ",
" &#%%#########$+++$$    ",
"&..##%%#######+.+%+     ",
"&##..##%%####+%%+%$+    ",
"&####..##%%##.%%+%&     ",
"&######..##%.%%%+%&     ",
"&########.#.%%%%%%&%    ",
"&####$$###.%#%%%%%&%%%  ",
"&###&.&$##.%#%%%%%&%%%% ",
"&##$..$&$#.%#%%%%%&%%%% ",
"&##$&$$&$#.%#%%%%%&%%%  ",
"&###$&&$##.%#%%%%%&%%   ",
"&####$$###.%#%%%%&%%    ",
"&#########.%#%%%&%%     ",
" &&#######.%#%%&%%      ",
"   &&#####.%#%&%%       ",
"     &&###.%#&%%        ",
"       &&#.%&%          ",
"         &&&            "};
