/* XPM */
static char * open_ark_xpm[] = {
"24 24 7 1",
" 	c None",
".	c #FFFFFF",
"+	c #C0C0C0",
"@	c #CCCCCC",
"#	c #666666",
"$	c #000066",
"%	c #000000",
"          %%            ",
"         %@@%%          ",
"        %@@@@@%%        ",
"       %@@@@@@@@%%      ",
"      %@@@@@@@@@@@%%    ",
"    %%..@@@@@@@@@@@@%   ",
"   %.%@@..@@@@@@@@@.#%  ",
"  %.#%@#@@..@@@@@@.##%  ",
" %.##%@###@@..@@@.###%  ",
"%.###.@#####@@.@.####%  ",
"%.###%@######@@.#####%  ",
"%.###%@######@@.#####%  ",
"%.###%@#####@@@.#####%  ",
"%.###%@####@@@@.#####%# ",
"%.###.@###@@@@@.#####%##",
"%.###%@##@@@@@@.#####%##",
"%.###%@@..@@@@@.#####%##",
"%.###%%%@@..@@@.####%## ",
"%.##%   %%@@..@.###%##  ",
"%.#%      %%@@..##%##   ",
"%.%  $   $  %%@.#%##    ",
"%%  $$$$$     %%%##     ",
"     $                  ",
"                        "};
