/* XPM */
static char * options_xpm[] = {
"24 24 6 1",
" 	c None",
".	c #FFFFFF",
"+	c #C0C0C0",
"@	c #CCCCCC",
"#	c #999999",
"$	c #000000",
"     $$$$$$$$#          ",
"     $$######$$         ",
"     $.$$@@@@##$$       ",
"     $@@.$$@@@@##$#     ",
" $$ #.$$@@.$$@@@##$     ",
"$$.$$###$$@@.$@@@#$#    ",
"$$.@$$$$$$$$@$@@@##$    ",
"$$..@@$$....$@@@@@#$    ",
"$.$.@@@@$$$$@@@@@@#$    ",
"$.$..@@@@@@@@@@@@@##$   ",
"$@.$...@@@@@@@@@@@@##$$ ",
" $@.$$...@@@@@@@@@@@###$",
" $@@..$$.........@@@@@##",
"  $@@@..$$$$$$$....@@@@@",
"   $$@@@@######$$....@@@",
"     $$@#########$$....@",
"       $$$$$$##@@##$$...",
"             $$@@@@##$$.",
"               $$@@@@##$",
"                 $$@@@@#",
"                   $$@@@",
"                     $$@",
"                       $",
"                        "};
