/* XPM */
static char *password32[] = {
/* width height num_colors chars_per_pixel */
"    32    32       12            1",
/* colors */
". c #ffffff",
"# c #7b7b7b",
"a c #848484",
"b c #9c9c9c",
"c c #c6c6c6",
"d c #630000",
"e c #9c0000",
"f c #ff9c00",
"g c #9ccece",
"h c #639c9c",
"i c None",
"j c #000000",
/* pixels */
"iiiiiiiiiiiiiiiiiiiiiiiiiiiiiiii",
"iiiiiiiiiiiiiiiiiiiiiiiiiiiiiiii",
"iiiiiiiiiiiiiiiiijjjjiiiiiiiiiii",
"iiiiiiiiiiiiiiiijcghjjiiiiiiiiii",
"iiiiiiiiiiiiiiijc..cbjjiiiiiiiii",
"iiiiiiiiiiiiiiijc..cbdjiiiiiiiii",
"iiiiiiiiiiiiiiijbccchjjiiiiiiiii",
"iiiiiiiiiiiiijjjjbbbdjjiiiiiiiii",
"iiiiiiiiiiiij.fejjdjdjjjjiiiiiii",
"iiiiiiiiiiiijf..ejjjjeefjiiiiiii",
"iiiiiiiiiiijjjff..ffffeejiiiiiii",
"iiiiiiiiiijj..jfff..feeejiiiiiii",
"iiiiiiiiiij.jj.jfff.eeeejiiiiiii",
"iiiiiiiiij.jjfj.jff.eeeejiiiiiii",
"iiiiiiiiij.jjfj.jff.eeeejiiiiiii",
"iiiiiiiiijjjjjjjjff.eeeejiiiiiii",
"iiiiiiiij.......ajf.eedjiiiiiiii",
"iiiiiiiij.ccccccajf.edjiiiiiiiii",
"iiiiiiiij.ccccccaje.dejiiiiiiiii",
"iiiiiiiij.ccccccaj.eeejiiiiiiiii",
"iiiiiiiij.ccccccaj.eeejiiiiiiiii",
"iiiiiiiij.ccccccaj.eeejjiiiiiiii",
"iiiiiiiijaa####aaj.eeejjjjiiiiii",
"iiiiiiiijjjjjjjjjj.eeejjjjjjiiii",
"iiiiiiiiiiiiiijfff.eeejjjjjjjjii",
"iiiiiiiiiiiiiijddf.eedjjjjjjjjjj",
"iiiiiiiiiiiiiijdddddddjjjjjjjjjj",
"iiiiiiiiiiiiiijffddddejjjjjjjjii",
"iiiiiiiiiiiiiijeef.eeejjjjjjiiii",
"iiiiiiiiiiiiiiijje.eejjjjjiiiiii",
"iiiiiiiiiiiiiiiiijjjjjjjjiiiiiii",
"iiiiiiiiiiiiiiiiiiiiiiiiiiiiiiii"
};
