/* XPM */
static char * pdf_xpm[] = {
"32 32 8 1",
" 	c None",
".	c #000000",
"+	c #9C9CFF",
"@	c #FFFFFF",
"#	c #CECEFF",
"$	c #FF0000",
"%	c #808000",
"&	c #9C9C9C",
"                                ",
"                                ",
"       ...                      ",
"      .++@..                    ",
"     ..+@@@@..                  ",
"    .@.+@@@@@@..                ",
"   .@@.+@@@@@@@#.               ",
"   ..@@.@................       ",
"   .@...@.@@@@$$@@@@@@@@.       ",
"   .@@@@@.@@@@$@$@@@@@@@.       ",
"   .@@@@@.@@@%$@$@%@@@@@.       ",
"   .@@@@@.@@@@$@$@@@@@@@.       ",
"   .@@@@@.@@@@@$$@@@@%@@.       ",
"   .@@@@@.@%@@@$$@@@@@@@.       ",
"   .@@@@@.@@@@@$@$@@@@@@.       ",
"   .@@@@@.@@@@$@%@$$$$$@.       ",
"   .@@@@@.@%@@$@$$$$@@@$.       ",
"   .@@@@@.@@$$$$@@@@$$$$.       ",
"   .@@@@@.@$@$@@@@@@@%@@.       ",
"   .@@@@@.$@@$@@@@@@@@@@...     ",
"   .#####.$@$@%@@@%@@@@@.....   ",
"   .@####.$$@@@@@@@@@@@@......  ",
"   .&&###....................   ",
"    ..&&########...........     ",
"      ..&&######.........       ",
"        ..&&####.......         ",
"          ..&&##.....           ",
"            ..&&...             ",
"              ...               ",
"                                ",
"                                ",
"                                "};
