/* XPM */
static char * printer_xpm[] = {
"32 32 11 1",
" 	c None",
".	c #000000",
"+	c #FFFFFF",
"@	c #999999",
"#	c #CCCCCC",
"$	c #666666",
"%	c #330033",
"&	c #333333",
"*	c #FFFF66",
"=	c #FF0000",
"-	c #660066",
"                                ",
"                                ",
"               ...........      ",
"               .+++++++++.      ",
"               .+++++++++.      ",
"         .......+++++++++.      ",
"        ..+++@..+++++++++.      ",
"       ..+++#$@%+++++++++...    ",
"      ..+++#&@%#++++++++#.#...  ",
"     ..+++#$$$%#++++++++%#@+%.  ",
"    ..#+++####@%%%%%%++%@@#%@.  ",
"   ..#+++++++++###$@@%%+@@%$$.  ",
"  .%%%%+++++++++######+@@%%$$.  ",
"  .@+##%%%%%%%%%%+++++#@%$$$$.  ",
"  .@+@##@@@@@@@@#%%%%%%%%$$$$.  ",
"  .@+@#######@@@$$&$$@.@%$$$$.  ",
"  .@+@#######@@@$$$$$@&#%$$$$.  ",
"  .@+@#######@@@@@$$**$+%$$$$.  ",
"  .@+@########@@@@@$**@+%$$$$.  ",
"  .@+@###########@@$$@##%$$$@.  ",
"  .@+@############@@$@##%$$@$.  ",
"  .@+@############@@==##%$$$..  ",
"  %@+@############@@==+#%$$..   ",
"  %@+##############@@@##%$..    ",
"  %@+#++###########@@@##%$.$    ",
"  %#####++++++++###@@@##%&.     ",
"   %%%%%######@#++####++%.-     ",
"        .%%%%%########++%.      ",
"              %%%%%%##&&.       ",
"                    %%%%        ",
"                                ",
"                                "};
