/* XPM */
static char * readme_xpm[] = {
"32 32 20 1",
" 	c None",
".	c #FFFFFF",
"+	c #000000",
"@	c #A1A1A1",
"#	c #9999FF",
"$	c #996699",
"%	c #353535",
"&	c #000066",
"*	c #999966",
"=	c #000033",
"-	c #333366",
";	c #CCCC99",
">	c #5D5D5D",
",	c #C9C9C9",
"'	c #CCCCFF",
")	c #666633",
"!	c #663333",
"~	c #996666",
"{	c #333300",
"]	c #868686",
"                                ",
"                                ",
"                                ",
"      ..+++      @+++@          ",
"      .+##.++    +$ @++@        ",
"      ++#....++       @+++@     ",
"     +.+#......++        %++@   ",
" +  +..+#&&......+       *%+=-  ",
";%> ++..+..&&....+    @>%%%+++  ",
",+%>+.+++....&&.'+   >%%>@@>+-  ",
" + ++....&&....''+ @+>     )%   ",
" +  +......&&''''+,%>     @%%   ",
" +  +..&@>%%%%%>@@%%     @)+>   ",
" ++ +;>%%%>@,',%++%%    @>+%    ",
"  +@+%+%@.'..''%!+ >@  @%++>    ",
"  ++++%,.'.,'.,%'+  !~@%++>     ",
"  ++++..'...''@{'+ + %+%>       ",
"   @>%@''''..,%>'+++++          ",
"    @@%@.''''>%@'+++++++        ",
"    +.>{%%%%%+>''+++++++++      ",
"    +''>%++%>''''+++++++++++    ",
"    +''&&''''&&''+++++++++++++  ",
"    +''''&&''''''++++++++++++++ ",
"    +]]''''''''''+++++++++++++  ",
"     ++]]''''''''+++++++++++    ",
"       ++]]''''''+++++++++      ",
"         ++]]''''+++++++        ",
"           ++]]''+++++          ",
"             ++]]+++            ",
"               +++              ",
"                                ",
"                                "};
