/* XPM */
static char * resource_xpm[] = {
"32 32 10 1",
" 	c None",
".	c #000000",
"+	c #9C9CFF",
"@	c #FFFFFF",
"#	c #CECEFF",
"$	c #63639C",
"%	c #000063",
"&	c #9CCEFF",
"*	c #313163",
"=	c #808080",
"                                ",
"                                ",
"      ...                       ",
"     .++@..                     ",
"    ..+@@@@..                   ",
"   .@.+@@@@@@..                 ",
"  .@@.+@@@@@@@@.                ",
"  ..@@.@@@@@@@@.                ",
"  .@...@@@@@@@#.                ",
"  .@@@$$$$@####.                ",
"  .@$$%&%$..###.                ",
"  .@$&&&&&$.###.                ",
"  .$$&$*$&...##.                ",
"  .$&&*@*&&$.##.                ",
"  .$$&$*$$$$.##.                ",
"  .#$&$$%&%$..#. .              ",
"  .##$$&&&&&$.#.....            ",
"  .##$$&$*$&..........          ",
"  .##$&&*@*&&$..........        ",
"  .##$$&$*$&..............      ",
"  .###$&&&&&$.#.............    ",
"  .####$%&%$*.#..............   ",
"  .==###*%%%###.............    ",
"   ..==########...........      ",
"     ..==######.........        ",
"       ..==####.......          ",
"         ..==##.....            ",
"           ..==...              ",
"             ...                ",
"                                ",
"                                ",
"                                "};
