/* XPM */
static char * rp7doc_xpm[] = {
"32 32 201 2",
"  	c None",
". 	c #020204",
"+ 	c #D2C694",
"@ 	c #FEFAD0",
"# 	c #FEFED7",
"$ 	c #D2CE8E",
"% 	c #CDBF90",
"& 	c #FEFEE6",
"* 	c #FEFEDE",
"= 	c #E4E09C",
"- 	c #BCA278",
"; 	c #FEFADE",
"> 	c #FEFAB2",
", 	c #FEFEF4",
"' 	c #FEFEED",
") 	c #FEFED0",
"! 	c #FAF6B2",
"~ 	c #F6F3E6",
"{ 	c #FEFEC8",
"] 	c #FEFEBA",
"^ 	c #FAFABA",
"/ 	c #FAFAF4",
"( 	c #FEFEC1",
"_ 	c #FEFEB2",
": 	c #FEFEAB",
"< 	c #FAEFB2",
"[ 	c #D9D25A",
"} 	c #FEFEFC",
"| 	c #FAF39C",
"1 	c #A59E3D",
"2 	c #492258",
"3 	c #070D3F",
"4 	c #050E40",
"5 	c #090E3E",
"6 	c #603267",
"7 	c #FEFEAF",
"8 	c #777627",
"9 	c #CDBF8A",
"0 	c #13216A",
"a 	c #2900FE",
"b 	c #2910EE",
"c 	c #1F0FD5",
"d 	c #2006C5",
"e 	c #1F02C1",
"f 	c #1D0ACE",
"g 	c #2419E6",
"h 	c #0D0E4D",
"i 	c #F6F39C",
"j 	c #121669",
"k 	c #1B12A3",
"l 	c #0A104B",
"m 	c #05081B",
"n 	c #01070F",
"o 	c #010307",
"p 	c #010105",
"q 	c #00050B",
"r 	c #030C18",
"s 	c #0C0838",
"t 	c #141787",
"u 	c #090849",
"v 	c #E0DD78",
"w 	c #080E51",
"x 	c #1E19CE",
"y 	c #080A31",
"z 	c #000000",
"A 	c #010000",
"B 	c #0B0C0A",
"C 	c #050A11",
"D 	c #030810",
"E 	c #FEF69C",
"F 	c #0A0646",
"G 	c #2404EE",
"H 	c #020D1E",
"I 	c #060706",
"J 	c #101110",
"K 	c #121412",
"L 	c #040404",
"M 	c #171A17",
"N 	c #040302",
"O 	c #161916",
"P 	c #11110F",
"Q 	c #171616",
"R 	c #BBBCBA",
"S 	c #E8E89C",
"T 	c #08033A",
"U 	c #1802A1",
"V 	c #575755",
"W 	c #CCCFD1",
"X 	c #8D918D",
"Y 	c #B3B6B5",
"Z 	c #A0A09D",
"` 	c #9E9D9B",
" .	c #43413C",
"..	c #90928D",
"+.	c #D1D2D0",
"@.	c #575C57",
"#.	c #D4D6D4",
"$.	c #070504",
"%.	c #FEFAA1",
"&.	c #060C2E",
"*.	c #181AB1",
"=.	c #9EA09E",
"-.	c #737573",
";.	c #292A29",
">.	c #E8E9E8",
",.	c #A1A3A1",
"'.	c #939392",
").	c #C8C8C8",
"!.	c #A7A8A7",
"~.	c #EFF1F2",
"{.	c #8A8B89",
"].	c #969593",
"^.	c #EBE89C",
"/.	c #051427",
"(.	c #2421EE",
"_.	c #13204E",
":.	c #494542",
"<.	c #161616",
"[.	c #595956",
"}.	c #545351",
"|.	c #232220",
"1.	c #555854",
"2.	c #4D4B49",
"3.	c #4E4C49",
"4.	c #3F3C38",
"5.	c #222222",
"6.	c #FEFAC1",
"7.	c #08131F",
"8.	c #2913EB",
"9.	c #260EEF",
"0.	c #102184",
"a.	c #00050C",
"b.	c #000712",
"c.	c #000003",
"d.	c #FAF3A4",
"e.	c #020817",
"f.	c #2208E3",
"g.	c #261AEF",
"h.	c #1A0FAB",
"i.	c #11266D",
"j.	c #070A3F",
"k.	c #050027",
"l.	c #040118",
"m.	c #000409",
"n.	c #110C6C",
"o.	c #2114C5",
"p.	c #00030A",
"q.	c #E4E069",
"r.	c #7A792A",
"s.	c #00070E",
"t.	c #2007DA",
"u.	c #2900FF",
"v.	c #131A83",
"w.	c #000002",
"x.	c #09113C",
"y.	c #1B1CC2",
"z.	c #2806FC",
"A.	c #2101CF",
"B.	c #000103",
"C.	c #BFBC53",
"D.	c #D5C195",
"E.	c #010208",
"F.	c #2202D4",
"G.	c #2609E4",
"H.	c #0C1D3A",
"I.	c #1D12A6",
"J.	c #2805F3",
"K.	c #1D12C4",
"L.	c #FEFAA4",
"M.	c #000001",
"N.	c #12198F",
"O.	c #2300DA",
"P.	c #18029F",
"Q.	c #1F11B5",
"R.	c #0F2A80",
"S.	c #EBE886",
"T.	c #84812E",
"U.	c #EFE47F",
"V.	c #010101",
"W.	c #D5D269",
"X.	c #BFB444",
"Y.	c #F6EB7F",
"Z.	c #401740",
"`.	c #431A43",
" +	c #C3B84C",
".+	c #E8E87F",
"++	c #FEFEA4",
"@+	c #FEFE9C",
"#+	c #F6F386",
"$+	c #E0D278",
"%+	c #FEFE95",
"&+	c #E4D569",
"*+	c #EFE895",
"=+	c #DAD566",
"-+	c #F6E886",
";+	c #FEFE8E",
">+	c #FEFA95",
",+	c #A2A236",
"'+	c #FEEF95",
")+	c #1A1A04",
"!+	c #161604",
"                        . .                                     ",
"                        . + . .                                 ",
"                        . @ # $ . . .                           ",
"                      . % & * * = $ - . . . .                   ",
"                      . @ & * ; # # & # > % - . . . .           ",
"                    . % , ' & & & * * # # * ) ! = $ - . . .     ",
"                    . ~ , ' ' ' & & * # # ) ) { ] ] ^ = $ - . . ",
"                    . / ' , ' ' & & & * # ) { { ( ] _ _ : < [ . ",
"                  . % } , , , , ' & * * # ) ) { ( ] ] _ : | 1 . ",
"                  . 2 3 4 4 4 4 4 4 4 4 4 4 4 4 5 6 _ _ : 7 8 . ",
"                . 9 0 a a a a a b c d e f g a a a h _ _ _ i .   ",
"                . & j a a a k l m n o p q r s t b u _ : > v .   ",
"              . 9 , w a x y z z z z z z z z A B C D _ ] E [ .   ",
"              . * & F G H I J K L M N z O P Q R N z _ _ S 1 .   ",
"            . @ * * T U z V W X Y Z `  ...+.@.#.$.z _ _ %.8 .   ",
"          . % # # # &.*.z =.-.;.>.,.'.).!.~.{.].z z : _ ^..     ",
"          . ) ) ) # /.(._.:.<.z [.}.|.1.2.3.4.5.z z : 6.[ .     ",
"        . 9 { { { ) 7.8.9.0.a.z z z z z z z z z b.c.: d.1 .     ",
"      . 9 { ( ( { { e.f.a a g.h.i.j.k.l.z z m.n.o.p._ q.r..     ",
"      . ] ] ( ( { ( s.t.u.a u.a u.a u.v.w.x.y.z.A.B.> C..       ",
"    . D.] _ ] ] ] ( E.F.u.u.u.u.u.u.G.H.I.J.u.u.K.z L.1 . .     ",
"  . % ! : : _ ] ] ] M.N.O.O.O.O.O.O.P.Q.O.O.O.O.R.z S.r.. . . . ",
". T.U.: _ : _ _ _ _ z z z z z z z z z z z z z z z V.W.. . . . . ",
"  . . X.Y.L.: : _ _ Z.z z z z z z z z z z z z z z `.C.. . . .   ",
"      . .  +.+++_ : : : : : : : : : ++++++++@+@+++#+1 . . .     ",
"          . . X.$+Y.> : : : ++++++++++@+@+@+@+%+@+q.8 . . .     ",
"              . . . X.&+*+E : ++++++@+@+@+%+%+%+#+1 . . .       ",
"                    . . . X.=+-+: ++@+%+%+;+;+>+[ 8 . .         ",
"                          . . . X.&+.+>+@+%+>+#+,+. .           ",
"                                . . . X.=+.+'+=+8 .             ",
"                                      )+!+. ,+r..               ",
"                                            . .                 "};
