/* XPM */
static char * rp7mini_xpm[] = {
"16 15 133 2",
"  	c None",
". 	c #492258",
"+ 	c #070D3F",
"@ 	c #050E40",
"# 	c #090E3E",
"$ 	c #603267",
"% 	c #13216A",
"& 	c #2900FE",
"* 	c #2910EE",
"= 	c #1F0FD5",
"- 	c #2006C5",
"; 	c #1F02C1",
"> 	c #1D0ACE",
", 	c #2419E6",
"' 	c #0D0E4D",
") 	c #121669",
"! 	c #1B12A3",
"~ 	c #0A104B",
"{ 	c #05081B",
"] 	c #01070F",
"^ 	c #010307",
"/ 	c #010105",
"( 	c #00050B",
"_ 	c #030C18",
": 	c #0C0838",
"< 	c #141787",
"[ 	c #090849",
"} 	c #080E51",
"| 	c #1E19CE",
"1 	c #080A31",
"2 	c #000000",
"3 	c #010000",
"4 	c #0B0C0A",
"5 	c #050A11",
"6 	c #030810",
"7 	c #0A0646",
"8 	c #2404EE",
"9 	c #020D1E",
"0 	c #060706",
"a 	c #101110",
"b 	c #121412",
"c 	c #040404",
"d 	c #171A17",
"e 	c #040302",
"f 	c #161916",
"g 	c #11110F",
"h 	c #171616",
"i 	c #BBBCBA",
"j 	c #08033A",
"k 	c #1802A1",
"l 	c #575755",
"m 	c #CCCFD1",
"n 	c #8D918D",
"o 	c #B3B6B5",
"p 	c #A0A09D",
"q 	c #9E9D9B",
"r 	c #43413C",
"s 	c #90928D",
"t 	c #D1D2D0",
"u 	c #575C57",
"v 	c #D4D6D4",
"w 	c #070504",
"x 	c #060C2E",
"y 	c #181AB1",
"z 	c #9EA09E",
"A 	c #737573",
"B 	c #292A29",
"C 	c #E8E9E8",
"D 	c #A1A3A1",
"E 	c #939392",
"F 	c #C8C8C8",
"G 	c #A7A8A7",
"H 	c #EFF1F2",
"I 	c #8A8B89",
"J 	c #969593",
"K 	c #051427",
"L 	c #2421EE",
"M 	c #13204E",
"N 	c #494542",
"O 	c #161616",
"P 	c #595956",
"Q 	c #545351",
"R 	c #232220",
"S 	c #555854",
"T 	c #4D4B49",
"U 	c #4E4C49",
"V 	c #3F3C38",
"W 	c #222222",
"X 	c #08131F",
"Y 	c #2913EB",
"Z 	c #260EEF",
"` 	c #102184",
" .	c #00050C",
"..	c #000712",
"+.	c #000003",
"@.	c #020817",
"#.	c #2208E3",
"$.	c #261AEF",
"%.	c #1A0FAB",
"&.	c #11266D",
"*.	c #070A3F",
"=.	c #050027",
"-.	c #040118",
";.	c #000409",
">.	c #110C6C",
",.	c #2114C5",
"'.	c #00030A",
").	c #00070E",
"!.	c #2007DA",
"~.	c #2900FF",
"{.	c #131A83",
"].	c #000002",
"^.	c #09113C",
"/.	c #1B1CC2",
"(.	c #2806FC",
"_.	c #2101CF",
":.	c #000103",
"<.	c #010208",
"[.	c #2202D4",
"}.	c #2609E4",
"|.	c #0C1D3A",
"1.	c #1D12A6",
"2.	c #2805F3",
"3.	c #1D12C4",
"4.	c #000001",
"5.	c #12198F",
"6.	c #2300DA",
"7.	c #18029F",
"8.	c #1F11B5",
"9.	c #0F2A80",
"0.	c #010101",
"a.	c #401740",
"b.	c #431A43",
". + @ @ @ @ @ @ @ @ @ @ @ @ # $ ",
"% & & & & & * = - ; > , & & & ' ",
") & & & ! ~ { ] ^ / ( _ : < * [ ",
"} & | 1 2 2 2 2 2 2 2 2 3 4 5 6 ",
"7 8 9 0 a b c d e 2 f g h i e 2 ",
"j k 2 l m n o p q r s t u v w 2 ",
"x y 2 z A B C D E F G H I J 2 2 ",
"K L M N O 2 P Q R S T U V W 2 2 ",
"X Y Z `  .2 2 2 2 2 2 2 2 2 ..+.",
"@.#.& & $.%.&.*.=.-.2 2 ;.>.,.'.",
").!.~.& ~.& ~.& ~.{.].^./.(._.:.",
"<.[.~.~.~.~.~.~.}.|.1.2.~.~.3.2 ",
"4.5.6.6.6.6.6.6.7.8.6.6.6.6.9.2 ",
"2 2 2 2 2 2 2 2 2 2 2 2 2 2 2 0.",
"a.2 2 2 2 2 2 2 2 2 2 2 2 2 2 b."};
