/* XPM */
static char * selectall_xpm[] = {
"24 24 6 1",
" 	c None",
".	c #FFFFFF",
"+	c #C0C0C0",
"@	c #CCCCFF",
"#	c #CCCCCC",
"$	c #000000",
"  $$$$$$$$$$            ",
"  $........$            ",
"  $.#######$            ",
"  $.#$$$$$$$$$$         ",
"  $.#$.....###$         ",
"  $.#$....#$$$$$$$      ",
"  $.#$...#$$.....$      ",
"  $.#$..#$.$.....$      ",
"  $.#$.#$$$$..@@.$      ",
"  $.#$.#$.....@@.$      ",
"  $.#$.#$...@@@@.$      ",
"  $.#$.#$..@@@$$.$      ",
"  $.#$.#$.@@@@$$$$      ",
"  $$$$.#$.@@@@$$$$      ",
"     $.#$.@@@@$$$$$     ",
"     $.#$.@@@@$$$$$$    ",
"     $$$$.@@@@$$$$$$$   ",
"        $.....$$$$$     ",
"        $$$$$$$$$$$$    ",
"              $  $$$    ",
"                  $$$   ",
"                  $$$   ",
"                   $$   ",
"                        "};
