/* XPM */
static char * Smart1_xpm[] = {
"32 32 26 1",
" 	c None",
".	c #FF9999",
"+	c #FF9966",
"@	c #CC3333",
"#	c #FF6666",
"$	c #990000",
"%	c #9B0505",
"&	c #9A0404",
"*	c #9D0C0C",
"=	c #9D0B0B",
"-	c #990101",
";	c #A21818",
">	c #CD3737",
",	c #9D0A0A",
"'	c #9B0707",
")	c #9F0F0F",
"!	c #A11414",
"~	c #9E0E0E",
"{	c #A31B1B",
"]	c #CD3838",
"^	c #9F1010",
"/	c #A51F1F",
"(	c #9C0808",
"_	c #9F1111",
":	c #A62121",
"<	c #CF4040",
"                                ",
"                       .        ",
"                       ..       ",
"                       .+.      ",
"                       +@+@     ",
"                       .@@@@    ",
"                       .@@@@@   ",
"          .+####+++++++#@@@@@@  ",
"          +#++++#@@@@@@@@@@@@@@ ",
"          +++####@@@@@@@@@@@@@@@",
"          .+##@@@@@@@@@@@@@@@@$$",
"          .+#@@@@@@@@@@@@@@@@$$ ",
"          .#@@@@@@@@@@@@@@@@$$  ",
"          .#@@@@$$$$$$$$@@@$$   ",
"          .#@@@$$      @@@$$    ",
"          .#@@@@$      $$$$     ",
"          .#@@@$$      %%&      ",
"          .#@@@@$      *=       ",
"          .#@@@$-      ;        ",
"          .#@@@@%               ",
" . .. ...++#@@@>,               ",
" # ## ##+@@@@@@')               ",
" @ @@ @@@@@@@@>,!               ",
" @ @@ @@@@@@@@>~{               ",
" @ @@ @@@@@@$@]^/               ",
" @ @@ @@@@$$@-(_:               ",
" $ $$ $@$$$$$-(<:               ",
"                                ",
"                                ",
"                                ",
"                                ",
"                                "};
