/* XPM */
static char * restore_xpm[] = {
"32 32 6 1",
" 	c None",
".	c #FF9999",
"+	c #FF9966",
"@	c #FF6666",
"#	c #CC3333",
"$	c #990000",
"                                ",
"                                ",
"                                ",
"                                ",
"     .+@@@++++++++++++++++++    ",
"     +@+++@@###############$    ",
"     +++@@@################$    ",
"     .+@@##################$    ",
"     .+@###################$    ",
"     .@@###################$    ",
"     .@####$$$$$$$$$#######$    ",
"     .@####$         .#####$    ",
"     .@####$         .#####$    ",
"     .#####$         .#####$    ",
"     .#####$         .#####$    ",
"     .#####$         .#####$    ",
"     .#####$         .#####$    ",
"     .#####$         .#####$    ",
"     .#####$         .#####$    ",
"     .#####$      ....#####$    ",
"......#########$$ .#######$#    ",
" #############$$  .######$#$    ",
"  ###########$$   .#####$#$$    ",
"   #########$$    .####$#$#$    ",
"    #######$$     .##$#$$#$$    ",
"     #####$$      .$$$$$$$#$    ",
"      ###$$                     ",
"       #$$                      ",
"        $                       ",
"                                ",
"                                ",
"                                "};
