/* XPM */
static char * sound_xpm[] = {
"32 32 11 1",
" 	c None",
".	c #000000",
"+	c #333399",
"@	c #CCCCCC",
"#	c #CCCCFF",
"$	c #9999FF",
"%	c #9999CC",
"&	c #999999",
"*	c #99CCFF",
"=	c #FFFFFF",
"-	c #6666CC",
"                                ",
"                                ",
"                                ",
"                                ",
"                                ",
"                                ",
"              ..                ",
"              .+.               ",
"    @         .+#..             ",
"     @        .+$##.            ",
"      @       .+$###.           ",
"       @      .+$####.          ",
"        %    &++*#####......    ",
"            &#++$$#########+.   ",
"            %#++$$$$$======+.   ",
"           %##++#####==#=#=+.   ",
"   @@@&&&  &##++===#=#$$$$$+.   ",
"           %#$++=#=##$$$$$$+.   ",
"           &#$++$$$$$$$$$$$+.   ",
"            &$++$$$$$$-----..   ",
"        %   .+++*$$$$-......    ",
"       @     .++$$$$-.          ",
"      @       .+$$$-.           ",
"     @        .+$--.            ",
"    @         .++..             ",
"              ...               ",
"              .                 ",
"                                ",
"                                ",
"                                ",
"                                ",
"                                "};
