/* XPM */
static char * status_clr_16_xpm[] = {
"16 16 12 1",
" 	c None",
".	c #000000",
"+	c #33CCCC",
"@	c #CCFFFF",
"#	c #FFFFFF",
"$	c #313131",
"%	c #CECECE",
"&	c #636363",
"*	c #949494",
"=	c #9C9C9C",
"-	c #319C00",
";	c #FFFF63",
"                ",
"       ......   ",
"       .++@@.   ",
"    ....+++@.   ",
"   .##$.++++... ",
"  .##%......##. ",
" .....#######.. ",
" .#%%%.......&. ",
" .#%%*%%%%%%.&. ",
" .#%%=%%%--%.&. ",
" .#%%*%%%--%.&. ",
" .#%%*%%%;;%... ",
" .####%%%;;%..  ",
"  ...#######.   ",
"     ........   ",
"                "};
