/* XPM */
static char * status_generic_ntwrk_16_xpm[] = {
"16 16 25 1",
" 	c None",
".	c #ADA990",
"+	c #000000",
"@	c #FFFFFF",
"#	c #C0C0C0",
"$	c #330033",
"%	c #111111",
"&	c #0C0C0C",
"*	c #1C1C1C",
"=	c #CC9966",
"-	c #FF9966",
";	c #996633",
">	c #4D4D4D",
",	c #040404",
"'	c #FFCC66",
")	c #393939",
"!	c #161616",
"~	c #CC6600",
"{	c #339900",
"]	c #FFFF00",
"^	c #FFFF66",
"/	c #3333FF",
"(	c #666666",
"_	c #808080",
":	c #FF9900",
"        .++++   ",
"        +@@#+   ",
"    ++++@##@+   ",
"   +..+@@@@+$   ",
"  +%&*=--;;>;,  ",
"  +'--)!!!!!;&  ",
"  +'-=;~~;-!~&  ",
"  +'-==;{{-!~+  ",
"  +'-=--{{-!~+  ",
"  +''---]^-!+   ",
"   ++-'''~-!    ",
"     ******&    ",
"       /(       ",
"__ ____:(____ __",
"// ////:(//// //",
"       ::       "};
