/* XPM */
static char * status_bw_16_xpm[] = {
"16 16 10 1",
" 	c None",
".	c #000000",
"+	c #FFFFFF",
"@	c #333333",
"#	c #CCCCCC",
"$	c #666666",
"%	c #969696",
"&	c #999999",
"*	c #339900",
"=	c #FFFF66",
"                ",
"       ......   ",
"       .++++.   ",
"    ....++++.   ",
"   .++@.####... ",
"  .++#......++. ",
" .....+++++++.. ",
" .+###.......$. ",
" .+##%######.$. ",
" .+##&###**#.$. ",
" .+##%###**#.$. ",
" .+##%###==#... ",
" .++++###==#..  ",
"  ...+++++++.   ",
"     ........   ",
"                "};
