/* XPM */
static char * status_bw_ntwrk_16_xpm[] = {
"16 16 39 1",
" 	c None",
".	c #111111",
"+	c #000000",
"@	c #292929",
"#	c #161616",
"$	c #FFFFFF",
"%	c #666666",
"&	c #777777",
"*	c #A0A0A4",
"=	c #333333",
"-	c #555555",
";	c #330033",
">	c #999999",
",	c #E3E3E3",
"'	c #808080",
")	c #868686",
"!	c #C0C0C0",
"~	c #0C0C0C",
"{	c #1C1C1C",
"]	c #B2B2B2",
"^	c #DDDDDD",
"/	c #F1F1F1",
"(	c #5F5F5F",
"_	c #040404",
":	c #EAEAEA",
"<	c #CCCCCC",
"[	c #CBCBCB",
"}	c #080808",
"|	c #4D4D4D",
"1	c #99CC99",
"2	c #009900",
"3	c #99CC33",
"4	c #F8F8F8",
"5	c #C0DCC0",
"6	c #FFFF66",
"7	c #FFFFCC",
"8	c #FFFBF0",
"9	c #3333FF",
"0	c #FF9900",
"      .+++@     ",
"      #$$$%     ",
"   &*=.$$$-;    ",
"  >,,=$''')!#   ",
" .~{{]^^^^/(_   ",
" =:<[=####}|~   ",
" =:<*!<[1!{|~   ",
" =:<]!<]22{|~   ",
" =:<*!<!33{=_   ",
" =4:^<<566{+>   ",
"  ==!4//78{>    ",
"    ={{{{{~     ",
"       9%       ",
"'' ''''0%'''' ''",
"99 99990%9999 99",
"       00       "};
