/* XPM */
static char * status_clr_ntwrk_16_xpm[] = {
"16 16 43 1",
" 	c None",
".	c #111111",
"+	c #000000",
"@	c #292929",
"#	c #161616",
"$	c #99FFFF",
"%	c #666666",
"&	c #777777",
"*	c #A0A0A4",
"=	c #393939",
"-	c #33CCCC",
";	c #555555",
">	c #330033",
",	c #E3E3E3",
"'	c #333333",
")	c #868686",
"!	c #C0C0C0",
"~	c #0C0C0C",
"{	c #1C1C1C",
"]	c #B2B2B2",
"^	c #DDDDDD",
"/	c #F1F1F1",
"(	c #5F5F5F",
"_	c #040404",
":	c #424242",
"<	c #EAEAEA",
"[	c #CCCCCC",
"}	c #CBCBCB",
"|	c #080808",
"1	c #4D4D4D",
"2	c #99CC99",
"3	c #009900",
"4	c #99CC33",
"5	c #222222",
"6	c #F8F8F8",
"7	c #C0DCC0",
"8	c #FFFF66",
"9	c #999999",
"0	c #FFFFCC",
"a	c #FFFBF0",
"b	c #3333FF",
"c	c #808080",
"d	c #FF9900",
"      .+++@     ",
"      #$$$%     ",
"   &*=.$$-;>    ",
"  &,,'----)!#   ",
" .~{{]^^^^/(_   ",
" :<[}=####|1~   ",
" :<[*![}2!{1~   ",
" :<[]![]33{1~   ",
" :<[*![!44{5_   ",
" :6<^[[788{+9   ",
"  ::!6//0a{9    ",
"    '{{{{{~     ",
"       b%       ",
"cc ccccd%cccc cc",
"bb bbbbd%bbbb bb",
"       dd       "};
