/* XPM */
static char * tgz_xpm[] = {
"32 32 18 1",
" 	c None",
".	c #000000",
"+	c #FFFFFF",
"@	c #9999FF",
"#	c #6666FF",
"$	c #3333FF",
"%	c #0000FF",
"&	c #0000CC",
"*	c #CCCCFF",
"=	c #000099",
"-	c #000066",
";	c #000033",
">	c #330033",
",	c #333366",
"'	c #3333CC",
")	c #330066",
"!	c #660066",
"~	c #333333",
"                                ",
"           ..........           ",
"           .+++@#$%&.           ",
"           .+++@#$%&.           ",
"           .+*#$%&&=.           ",
"     .......*@$&&&=-.......     ",
"      ...+++*#$&==---;;..>      ",
"        ..,@#'&=--;;-..)        ",
"          >..=-;;;;..>          ",
"            >..;...>            ",
"              !..>              ",
"                                ",
"   ..........................   ",
"   .++++++++++++++++++++++++.   ",
"   .++....................++.   ",
"   .++++++++++++++++++++++++.   ",
"   .++.................+++++.   ",
"   .++++++++++++++++++++++++.   ",
"   .++++++++++++++++++++++++.   ",
"   ..~.......................   ",
"                                ",
"              ....              ",
"            ...++...            ",
"          >..+++++*...          ",
"        ...++++**@@@';.>        ",
"      ...+++++*@@##'=;...>      ",
"     .......++*##''=.......     ",
"           .**@$'=-;.           ",
"           .*@#&=-;;.           ",
"           .''=;;....           ",
"           ..........           ",
"                                "};
