/* XPM */
static char * thousand_test_xpm[] = {
"172 30 253 2",
"  	c None",
". 	c #FF1005",
"+ 	c #FE2610",
"@ 	c #FF4006",
"# 	c #FF5A07",
"$ 	c #FF7107",
"% 	c #FF8605",
"& 	c #FF9904",
"* 	c #FFA905",
"= 	c #FFB904",
"- 	c #FFC805",
"; 	c #FFD805",
"> 	c #FFEA05",
", 	c #FB4A1C",
"' 	c #FD8417",
") 	c #FC971A",
"! 	c #FDA817",
"~ 	c #FDB818",
"{ 	c #FDC818",
"] 	c #FDD818",
"^ 	c #FDE818",
"/ 	c #FCF914",
"( 	c #F96121",
"_ 	c #F87423",
": 	c #F43529",
"< 	c #F08A2D",
"[ 	c #F5A527",
"} 	c #F5B728",
"| 	c #F5C827",
"1 	c #F6D827",
"2 	c #F5E828",
"3 	c #EB5332",
"4 	c #EA6E34",
"5 	c #EEA330",
"6 	c #ECB431",
"7 	c #EDC331",
"8 	c #EDD731",
"9 	c #ECE931",
"0 	c #DF433A",
"a 	c #DD7E3B",
"b 	c #E6A137",
"c 	c #E6CB37",
"d 	c #E2DE39",
"e 	c #DB933C",
"f 	c #E3B839",
"g 	c #D5653D",
"h 	c #D9A53C",
"i 	c #D9B73C",
"j 	c #D9C83C",
"k 	c #D7D73C",
"l 	c #C94C3F",
"m 	c #C77C3F",
"n 	c #C7923F",
"o 	c #C8A53F",
"p 	c #C7B63F",
"q 	c #C7C63F",
"r 	c #BA663F",
"s 	c #B0493E",
"t 	c #B5813F",
"u 	c #B6973F",
"v 	c #B5AB3F",
"w 	c #A0623C",
"x 	c #9C783C",
"y 	c #A5863D",
"z 	c #A5963D",
"A 	c #A1A43D",
"B 	c #93403A",
"C 	c #925139",
"D 	c #8F8839",
"E 	c #94963B",
"F 	c #8C6538",
"G 	c #8C7738",
"H 	c #753731",
"I 	c #7D4834",
"J 	c #7D5834",
"K 	c #7D6834",
"L 	c #7B7935",
"M 	c #6F472F",
"N 	c #6F5A2F",
"O 	c #6E6B2F",
"P 	c #552B27",
"Q 	c #583827",
"R 	c #5F492A",
"S 	c #5D5B2A",
"T 	c #514725",
"U 	c #41211D",
"V 	c #412B1D",
"W 	c #41361D",
"X 	c #3F401D",
"Y 	c #311C17",
"Z 	c #312817",
"` 	c #303017",
" .	c #231411",
"..	c #231D11",
"+.	c #212311",
"@.	c #170D0B",
"#.	c #17120B",
"$.	c #16160B",
"%.	c #0B0605",
"&.	c #090905",
"*.	c #090B05",
"=.	c #FDFC05",
"-.	c #E6FF05",
";.	c #C9FF0A",
">.	c #AEFF09",
",.	c #8FFE0D",
"'.	c #73FE0E",
").	c #54FE0D",
"!.	c #37FF0A",
"~.	c #1EFF07",
"{.	c #08FE04",
"].	c #0BF712",
"^.	c #06E61F",
"/.	c #08D136",
"(.	c #06B451",
"_.	c #089275",
":.	c #077492",
"<.	c #0755B3",
"[.	c #1CAB6B",
"}.	c #E3FD17",
"|.	c #20CA4E",
"1.	c #1B6EA9",
"2.	c #22F91E",
"3.	c #23E833",
"4.	c #278D8F",
"5.	c #F5F523",
"6.	c #C8F527",
"7.	c #ACF329",
"8.	c #38F22A",
"9.	c #3058C5",
"0.	c #E0F32A",
"a.	c #8FEE2F",
"b.	c #71ED30",
"c.	c #53EE2F",
"d.	c #3ADC3E",
"e.	c #36AC6C",
"f.	c #3C937C",
"g.	c #356FAC",
"h.	c #D3E836",
"i.	c #3BC74B",
"j.	c #3C7C93",
"k.	c #BFDF3A",
"l.	c #A7D73C",
"m.	c #3EB055",
"n.	c #88D13D",
"o.	c #6DCF3E",
"p.	c #51CE3E",
"q.	c #B6BD3F",
"r.	c #9DBA3F",
"s.	c #3E8E5A",
"t.	c #3E5C90",
"u.	c #84AF3E",
"v.	c #68B03E",
"w.	c #47AF3F",
"x.	c #3D7372",
"y.	c #57933A",
"z.	c #3E913D",
"A.	c #72933A",
"B.	c #387052",
"C.	c #385371",
"D.	c #5F7832",
"E.	c #4A7531",
"F.	c #357434",
"G.	c #315455",
"H.	c #2E5D3D",
"I.	c #2E3E5D",
"J.	c #495828",
"K.	c #3A5526",
"L.	c #2D5D2D",
"M.	c #28433B",
"N.	c #283946",
"O.	c #274E27",
"P.	c #30411D",
"Q.	c #203F20",
"R.	c #1D302F",
"S.	c #1F203E",
"T.	c #243117",
"U.	c #182E1B",
"V.	c #1C1B28",
"W.	c #132113",
"X.	c #13121F",
"Y.	c #11170B",
"Z.	c #0C160C",
"`.	c #0B1011",
" +	c #060A05",
".+	c #060707",
"++	c #06050A",
"@+	c #0C47C7",
"#+	c #0836D5",
"$+	c #0422E5",
"%+	c #0513F5",
"&+	c #0805FE",
"*+	c #1604F1",
"=+	c #2305E0",
"-+	c #3107CC",
";+	c #4607B2",
">+	c #58089C",
",+	c #701F87",
"'+	c #3F11C5",
")+	c #1814FB",
"!+	c #5819AF",
"~+	c #64169E",
"{+	c #162AEC",
"]+	c #2B14E8",
"^+	c #4E1CBE",
"/+	c #2648D7",
"(+	c #2522F7",
"_+	c #3E21D9",
":+	c #773B96",
"<+	c #2838E7",
"[+	c #3625E8",
"}+	c #4A28CD",
"|+	c #6626AA",
"1+	c #6F29A0",
"2+	c #2F2CF1",
"3+	c #552FC2",
"4+	c #5D2DB8",
"5+	c #3A35E5",
"6+	c #4638D6",
"7+	c #6339B1",
"8+	c #6A39A8",
"9+	c #7139A0",
"0+	c #7E4A8D",
"a+	c #3B42D8",
"b+	c #4F3AC7",
"c+	c #563CBC",
"d+	c #3E5AB1",
"e+	c #583FB0",
"f+	c #4242C6",
"g+	c #6440A0",
"h+	c #6C418F",
"i+	c #4341B5",
"j+	c #5340A2",
"k+	c #5B4091",
"l+	c #6C4976",
"m+	c #4141A2",
"n+	c #5F3F7C",
"o+	c #4D3D8C",
"p+	c #3C3C8E",
"q+	c #4B3A7A",
"r+	c #4E3766",
"s+	c #363474",
"t+	c #3B3062",
"u+	c #453156",
"v+	c #2C2C5C",
"w+	c #342B53",
"x+	c #3C2B4B",
"y+	c #27274D",
"z+	c #312541",
"A+	c #281F35",
"B+	c #19182F",
"C+	c #0B0B15",
"D+	c #0E0B12",
". . . . . . . . . + + + @ @ @ @ @ @ # # # # # $ $ $ $ $ % % % % & & & & & * * * * * = = = = = = - - - - - ; ; ; ; ; > > > > > > =.=.=.=.=.=.=.=.-.-.-.-.;.;.;.>.>.>.>.,.,.,.'.'.'.'.).).).!.!.!.!.~.~.~.{.{.{.{.{.{.].^.^.^./././.(.(.(.(._._._._.:.:.:.:.<.<.<.@+#+#+$+$+$+%+%+&+&+&+&+&+&+&+&+&+*+*+*+=+=+=+=+-+-+-+-+-+-+;+;+;+;+;+;+>+>+>+>+>+>+>+,+",
". . . . . . . . . + + + @ @ @ @ @ @ # # # # # $ $ $ $ $ % % % % & & & & & * * * * * = = = = = = - - - - - ; ; ; ; ; > > > > > > =.=.=.=.=.=.=.=.-.-.-.-.;.;.;.>.>.>.>.,.,.,.'.'.'.'.).).).!.!.!.!.~.~.~.{.{.{.{.{.{.].^.^.^./././.(.(.(.(._._._._.:.:.:.:.<.<.<.@+#+#+$+$+$+%+%+&+&+&+&+&+&+&+&+&+*+*+*+=+=+=+=+-+-+-+-+-+-+;+;+;+;+;+;+>+>+>+>+>+>+>+,+",
". . . . . . . + + + + @ @ @ @ @ @ # # # # # # $ $ $ $ % % % % % & & & & * * * * * * = = = = = = - - - - - ; ; ; ; ; > > > > > > =.=.=.=.=.=.=.=.-.-.-.-.;.;.;.>.>.>.>.,.,.,.,.'.'.'.).).).).!.!.!.~.~.~.~.{.{.{.{.].].^.^.^./././.(.(.(.(._._._._.:.:.:.:.<.<.<.@+#+#+$+$+$+%+%+&+&+&+&+&+&+&+&+*+*+*+*+=+=+=+=+-+-+-+-+-+'+'+;+;+;+;+;+>+>+>+>+>+>+>+,+",
". . . . . . + + + + + @ @ @ @ @ # # # # # # $ $ $ $ $ % % % % % & & & & * * * * * * = = = = = - - - - - - ; ; ; ; ; > > > > > > =.=.=.=.=.=.=.=.-.-.-.-.;.;.;.;.>.>.>.,.,.,.,.'.'.'.'.).).).!.!.!.!.~.~.~.~.{.{.].].].^.^.^./././.(.(.(.[._._._._.:.:.:.:.<.<.<.@+@+#+#+$+$+%+%+%+&+&+&+&+&+)+)+*+*+*+=+=+=+=+-+-+-+-+'+'+'+'+;+;+;+;+!+>+>+>+>+~+~+~+,+",
". . . + + + + + + + @ @ @ @ , , # # # # # $ $ $ $ ' ' ' ' ' ' ) ) ) ) ! ! ! ! ! ! ~ ~ ~ ~ ~ ~ { { { { { { ] ] ] ] ] ^ ^ ^ ^ ^ / / / / / / / / / }.}.}.}.;.;.;.;.>.>.>.,.,.,.,.'.'.'.'.).).).).!.!.!.!.~.~.~.].].].].].^.^./././.|.(.(.(.[.[._._._.:.:.:.1.1.<.<.@+@+#+#+{+{+{+)+)+)+)+)+)+)+)+)+)+)+]+]+]+]+]+-+-+'+'+'+'+'+'+^+^+!+!+!+!+~+~+~+~+~+~+,+",
"+ + + + + + + + + + , , , , , , , ( ( ( ( ( _ _ ' ' ' ' ' ' ) ) ) ) ) ! ! ! ! ! ~ ~ ~ ~ ~ ~ { { { { { { { ] ] ] ] ] ^ ^ ^ ^ ^ ^ / / / / / / / / }.}.}.}.}.;.;.;.>.>.>.,.,.,.,.,.'.'.'.'.).).).).!.!.!.2.2.2.2.2.2.2.2.3.3.3./.|.|.|.(.[.[.[._._.4.4.:.1.1.1.1.<.@+@+/+#+{+{+{+{+)+)+)+)+)+)+)+)+(+]+]+]+]+]+_+_+_+_+'+'+^+^+^+^+^+!+!+!+!+~+~+~+~+~+~+:+",
"+ + + + + : : : : , , , , , , ( ( ( ( ( _ _ _ _ _ ' ' ' ' ) ) ) ) ) ! ! ! ! ! ~ ~ ~ ~ ~ ~ ~ { { { { { { { ] ] ] ] ] ^ ^ ^ ^ ^ ^ 5.5.5.5.5.5.5.5.5.}.}.}.6.6.6.6.7.7.7.7.,.,.,.,.'.'.'.'.).).).).8.8.8.2.2.2.2.2.2.2.3.3.3.3.|.|.|.|.[.[.[.[.[.4.4.4.4.1.1.1.1.9.9./+/+/+<+<+{+{+(+(+(+(+(+(+(+(+(+(+[+[+[+_+_+_+_+}+}+}+^+^+^+^+^+!+!+|+|+|+|+|+1+1+1+:+",
": : : : : : : : : , , , , , ( ( ( ( ( ( _ _ _ _ _ < < < < < ) ) [ [ [ [ [ [ [ } } } } } } } | | | | | | | 1 1 1 1 1 1 2 2 2 2 2 5.5.5.5.5.5.5.5.5.0.0.0.6.6.6.6.7.7.7.7.a.a.a.a.a.b.b.b.b.c.c.c.c.8.8.8.8.2.2.2.2.3.3.3.3.3.|.|.|.|.[.[.[.[.[.4.4.4.4.1.1.1.1.9.9./+/+/+<+<+<+2+(+(+(+(+(+(+(+2+2+[+[+[+[+_+_+_+}+}+}+}+}+3+3+4+4+4+4+|+|+|+|+1+1+1+1+:+",
": : : : : : : : : : 3 3 3 3 ( ( ( ( ( _ _ _ _ _ < < < < < < < < [ [ [ [ [ [ [ } } } } } } } } | | | | | | | 1 1 1 1 1 1 2 2 2 2 2 2 2 5.5.5.5.0.0.0.0.0.6.6.6.6.7.7.7.7.a.a.a.a.a.b.b.b.b.c.c.c.c.c.8.8.8.8.8.8.3.3.3.3.3.d.|.|.|.|.e.e.e.e.f.4.4.4.4.4.g.g.g.9.9.9./+/+/+<+<+<+2+2+2+2+2+2+2+2+2+[+[+[+_+_+_+}+}+}+}+3+3+3+3+4+4+4+4+|+|+|+1+1+1+1+1+:+",
": : : : : : : : 3 3 3 3 3 3 3 4 4 4 4 4 4 4 4 < < < < < < < < 5 5 5 5 5 5 5 5 6 6 6 6 6 6 6 7 7 7 7 7 7 7 7 8 8 8 8 8 8 8 8 9 9 9 9 9 9 9 9 9 9 0.0.0.h.6.6.6.6.7.7.7.7.a.a.a.a.a.b.b.b.b.b.c.c.c.c.c.8.8.8.8.8.8.3.3.d.d.d.i.i.i.e.e.e.e.e.f.4.4.4.4.j.g.g.g.g.9.9.9./+/+/+<+<+<+2+2+2+2+2+2+5+5+5+5+5+6+6+6+}+}+3+3+3+3+3+4+4+4+7+7+7+8+8+8+9+9+9+9+0+",
": : : 0 0 0 0 3 3 3 3 3 3 3 3 4 4 4 4 4 4 4 4 a < < < < < < < b b b b b 5 b 5 6 6 6 6 6 6 6 6 7 7 7 7 7 7 c c c c 8 8 8 8 8 8 d 9 9 9 9 9 9 9 9 h.h.h.h.h.k.k.k.7.7.7.a.a.a.a.a.a.b.b.b.b.b.c.c.c.c.c.8.8.8.8.8.d.d.d.d.d.i.i.i.i.e.e.e.e.f.f.f.4.4.j.j.g.g.g.g.9.9.9./+a+a+a+5+5+5+5+5+5+5+5+5+5+5+6+6+6+6+6+b+b+b+3+3+c+c+4+7+7+7+7+8+8+8+9+9+9+9+:+0+",
"0 0 0 0 0 0 0 0 0 3 3 3 3 3 4 4 4 4 4 4 4 a a a a a a a e e e e b b b b b b b b b f f f f f f f f f f f f c c c c c c c c d d d d d d d d d d d h.h.h.h.k.k.k.k.l.l.l.l.a.a.a.a.a.b.b.b.b.b.c.c.c.c.c.d.d.d.d.d.d.d.d.d.i.i.i.i.m.e.e.e.e.f.f.f.f.j.j.j.j.g.g.g.d+9.9.9.a+a+a+a+a+5+5+5+5+5+5+5+6+6+6+6+6+b+b+b+b+c+c+c+c+7+7+7+7+7+8+8+8+9+9+9+9+:+:+0+",
"0 0 0 0 0 0 0 0 0 0 0 g g g g g g g g g a a a a a a a a e e e e e e e e h h h h h h h h i i i i i i i i i i j j j j j j j j k k k k k k k k k k k k k.k.k.k.k.l.l.l.l.l.n.n.n.n.n.n.o.o.o.o.o.p.p.p.p.d.d.d.d.d.d.d.d.i.i.i.i.m.m.e.e.e.e.f.f.f.f.j.j.j.j.g.g.g.d+d+9.9.9.a+a+a+a+a+a+a+a+a+6+6+6+6+6+6+b+b+b+b+c+c+c+c+e+e+7+7+7+8+8+8+9+9+9+9+:+:+:+0+",
"0 0 0 0 0 0 l l l l l g g g g g g g g g g a a a a a a a e e e e e e e e e h h h h h h h h h h i i i i i i i i i i j j j j j j j j k k k k k k k k k.k.k.k.l.l.l.l.l.l.n.n.n.n.n.n.o.o.o.o.o.o.p.p.p.p.p.p.d.d.d.d.d.i.i.i.i.m.m.m.e.e.e.f.f.f.f.f.j.j.j.j.g.g.g.d+d+d+9.f+f+f+f+a+a+a+a+a+6+6+6+6+f+b+b+b+b+c+c+c+c+e+e+e+e+e+7+g+g+g+g+g+9+9+:+:+:+:+0+",
"l l l l l l l l l l l l l g g g g g g g g m m m m m m m m n n n n n n n n n n o o o o o o o o o o o o p p p p p p p p p q q q q q q q q q q q q q q q q.q.l.l.l.l.l.n.n.n.n.n.n.n.o.o.o.o.o.o.p.p.p.p.p.p.p.i.i.i.i.i.i.i.m.m.m.m.e.e.e.f.f.f.f.f.j.j.j.j.j.g.g.d+d+d+d+d+f+f+f+f+f+f+f+f+f+f+f+f+f+b+b+c+c+c+e+e+e+e+e+e+e+g+g+g+g+g+g+g+h+h+h+h+h+h+0+",
"l l l l l l l l l l l l l r r r r r r r r m m m m m m m m m m n n n n n n n n n n n n o o o o o o o o o o o o p p p p p p p p p p q q q q q q q q.q.q.q.q.r.r.r.r.r.r.n.n.n.n.n.o.o.o.o.o.o.p.p.p.p.p.p.p.i.i.i.i.i.i.i.m.m.m.m.m.e.s.s.f.f.f.f.f.j.j.j.j.j.t.t.d+d+d+d+d+i+i+f+f+f+f+f+f+f+f+f+f+i+i+i+i+e+e+e+e+j+j+j+j+g+g+g+g+g+g+h+h+h+h+h+h+h+h+0+",
"s s s s s s s s s s s s r r r r r r r r r r r r r t t t t t t t t t t t t u u u u u u u u u u u u u u u v v v v v v v v v v v v q.q.q.q.q.q.q.q.q.q.q.r.r.r.r.r.r.r.u.u.u.u.u.u.v.v.v.v.v.v.v.v.w.w.w.w.w.w.w.w.w.w.w.w.m.m.m.m.s.s.s.s.f.f.f.x.x.x.j.j.j.t.t.t.t.d+d+d+d+i+i+i+i+i+i+i+i+i+i+i+i+i+i+i+i+j+j+j+j+j+j+j+j+k+k+k+k+k+k+k+h+h+h+h+h+h+h+l+",
"s s s s s s s s s s s s s s s r r r r r r r r r r r r t t t t t t t t t t t t t t t u u u u u u u u u u u u u u u v v v v v v v v v v v v v v v v A r.r.r.r.r.u.u.u.u.u.u.u.u.v.v.v.v.v.v.v.v.w.w.w.w.w.w.w.w.w.w.w.w.w.m.m.s.s.s.s.s.s.s.x.x.x.x.x.x.x.t.t.t.t.t.t.t.m+m+m+m+i+i+i+i+i+i+i+i+i+i+m+m+m+j+j+j+j+j+j+j+k+k+k+k+k+k+k+k+k+n+n+n+n+n+n+n+l+",
"s s s s s s s s s s s s s w w w w w w w w w w w w w w x x x x x x x x x y y y y y y y y y y y y y y z z z z z z z z z z z z A A A A A A A A A A A A A A A u.u.u.u.u.u.u.u.v.v.v.v.v.v.v.v.y.w.w.w.w.w.w.w.w.w.w.w.w.z.z.z.z.s.s.s.s.s.s.s.x.x.x.x.x.x.x.x.t.t.t.t.t.t.m+m+m+m+m+m+m+m+m+m+m+m+m+m+m+m+m+m+o+o+o+o+o+o+o+o+o+o+o+k+n+n+n+n+n+n+n+n+n+n+l+",
"B B B B B B B B B B C C C C C C C C C C w w w w w w w w w w w x x x x x x x x x x x x x x x x x x D D D D D D D D E E E E E E E E E E E E E E E E E E E E E A.A.A.A.A.A.A.A.A.A.y.y.y.y.y.y.y.y.y.z.z.z.z.z.z.z.z.z.z.z.z.z.z.s.s.s.B.B.B.B.x.x.x.x.x.C.C.C.C.C.C.t.p+p+p+p+p+p+p+p+p+p+p+p+p+p+p+p+p+p+o+o+o+o+o+o+o+o+q+q+q+q+q+q+q+n+n+n+n+n+n+n+n+l+",
"B B B B B B B B B B B B B C C C C C C C C C C F F F F F F F F F F F F F F F F G G G G G G G G G G G G G G G G G G D D D D D D D D D D D D D D D D D D A.A.A.A.A.A.A.A.A.A.y.y.y.y.y.y.y.y.y.y.z.z.z.z.z.z.z.z.z.z.z.z.z.z.z.B.B.B.B.B.B.B.B.B.B.B.C.C.C.C.C.C.C.C.C.C.p+p+p+p+p+p+p+p+p+p+p+p+p+p+p+p+p+q+q+q+q+q+q+q+q+q+q+q+q+q+q+r+r+r+r+r+r+r+r+r+r+",
"H H H H H H H H H H I I I I I I I I I I I I J J J J J J J J J J J J J K K K K K K K K K K K K K K K K K K K L L L L L L L L L L L L L L L L L L L L L L L L D.D.D.D.D.D.D.D.D.D.D.E.E.E.E.E.E.E.E.F.F.F.F.F.F.F.F.F.F.F.F.F.F.F.B.B.B.B.B.G.G.G.G.G.G.G.G.C.C.C.C.C.s+s+s+s+s+s+s+s+s+s+s+s+s+s+s+s+s+s+s+s+s+s+s+s+s+t+t+r+r+r+r+r+r+r+r+r+r+r+r+r+r+r+",
"H H H H H H H H H H H H H H M M M M M M M M M M M M M M M M M N N N N N N N N N N N N N N N N N N N N N N O O O O O O O O O O O O O O O O O O O O O O O D.D.D.D.D.D.D.E.E.E.E.E.E.E.E.E.E.E.F.F.F.F.F.F.F.F.F.F.F.F.F.F.H.H.H.H.H.H.H.H.H.H.G.G.G.G.G.G.I.I.I.I.I.I.I.I.I.I.s+s+s+s+s+s+s+s+s+s+s+s+t+t+t+t+t+t+t+t+t+t+t+t+t+t+u+u+u+u+u+u+u+u+u+u+u+u+",
"P P P P P P P P Q Q Q Q Q Q Q Q Q Q Q Q Q Q Q Q R R R R R R R R R R R R R R R R R R R R R R R S R R S S S S S S S S S S S S S S S S S S S S S S S S S S S S J.J.J.J.J.J.J.J.J.J.J.J.K.K.K.K.K.L.L.L.L.L.L.L.L.L.L.L.L.L.L.L.L.L.L.H.M.M.M.M.M.M.M.M.N.N.N.N.N.N.N.I.v+v+v+v+v+v+v+v+v+v+v+v+v+v+v+v+v+v+v+v+w+w+w+w+w+w+w+w+w+w+x+x+x+x+x+x+x+x+x+x+x+x+",
"P P P P P P P P P P P P P P P P P P P P Q Q Q Q Q Q Q Q Q Q Q Q Q Q T T T T T T T T T T T T T T T T T T T T T T T T T T T T T T T T T T T T T T J.J.J.J.J.J.J.J.K.K.K.K.K.K.K.K.K.K.K.K.K.O.O.O.O.O.O.O.O.O.O.O.O.O.O.O.O.O.O.O.O.M.M.M.M.M.M.M.M.M.N.N.N.N.N.N.N.y+y+y+y+y+y+y+y+y+y+y+y+y+y+y+y+y+y+y+y+y+y+y+y+y+z+z+z+z+z+z+z+z+z+z+z+z+z+z+z+z+z+z+",
"U U U U U U U U U U U U U U V V V V V V V V V V V V V V V V W W W W W W W W W W W W W W W W W W W W W W W W W W X X X X X X X X X X X X X X X X X X X X X X X P.P.P.P.P.P.P.P.P.P.P.P.P.P.Q.Q.Q.Q.Q.Q.Q.Q.Q.Q.Q.Q.Q.Q.Q.Q.Q.Q.Q.Q.Q.R.R.R.R.R.R.R.R.R.R.R.R.R.S.S.S.S.S.S.S.S.S.S.S.S.S.S.S.S.S.S.S.S.S.S.S.S.S.S.A+A+A+A+A+A+A+A+A+A+A+A+A+A+A+A+A+A+A+",
"Y Y Y Y Y Y Y Y Y Y Y Y Y Y Y Y Y Y Y Y Y Y Y Y Z Z Z Z Z Z Z Z Z Z Z Z Z Z Z Z Z Z Z Z Z Z Z Z Z Z Z Z ` Z Z ` ` ` ` ` ` ` ` ` ` ` ` ` ` ` ` ` ` ` ` ` ` ` ` T.T.T.T.T.T.T.T.T.T.T.T.T.T.T.T.U.U.U.U.U.U.U.U.U.U.U.U.U.U.U.U.U.U.U.U.U.U.U.U.U.V.V.V.V.V.V.V.V.V.B+B+B+B+B+B+B+B+B+B+B+B+B+B+B+B+B+B+B+B+B+B+B+B+B+B+B+V.V.V.V.V.V.V.V.V.V.V.V.V.V.V.V.",
" . . . . . . . . . . . . . . . . . . . . . . . . ...............................................................+...+.+.+.+.+.+.+.+.+.+.+.+.+.+.+.+.+.+.+.+.+.+.+.+.+.+.+.+.+.W.W.W.W.W.W.W.W.W.W.W.W.W.W.W.W.W.W.W.W.W.W.W.W.W.W.W.W.W.W.W.W.W.W.X.X.X.X.X.X.X.X.X.X.X.X.X.X.X.X.X.X.X.X.X.X.X.X.X.X.X.X.X.X.X.X.X.X.X.X.X.X.X.X.X.X.X.X.X.X.X.X.X.X.X.",
"@.@.@.@.@.@.@.@.@.@.@.@.@.@.@.@.@.@.@.@.@.@.@.@.@.@.#.#.#.#.#.#.#.#.#.#.#.#.#.#.#.#.#.#.#.#.#.#.#.#.#.#.#.#.$.$.#.$.$.$.$.$.$.$.$.$.$.$.$.$.$.$.$.$.$.$.$.Y.Y.Y.Y.Y.Y.Y.Y.Y.Y.Y.Y.Y.Y.Z.Z.Z.Z.Z.Z.Z.Z.Z.Z.Z.Z.Z.Z.Z.Z.Z.Z.Z.Z.Z.Z.Z.`.`.`.`.`.`.`.`.`.`.`.`.`.`.C+C+C+C+C+C+C+C+C+C+C+C+C+C+C+C+C+C+C+C+C+C+C+C+C+D+D+D+D+D+D+D+D+D+D+D+D+D+D+D+D+D+D+D+",
"%.%.%.%.%.%.%.%.%.%.%.%.%.%.%.%.%.%.%.&.%.%.&.%.%.%.%.%.%.%.&.&.&.&.&.&.&.%.&.&.&.&.&.&.&.&.&.&.&.&.&.&.&.&.&.&.&.&.&.&.&.*.*.*.*.*.*.*.*.*.*.*.*.*.*.*.*.*.*.*.*.*.*.*.&.*. + + + + + + + + + + + + + + + + + + + + + + + + + + + +.+.+.+.+.+.+.+.+.+.+.+.+.+++++++++++++++++++++++++++++++++++++++++++++++++++++++++++++++++++++++++++++++++++++++++.+"};
