/* XPM */
static char * tools32_xpm[] = {
"32 32 128 2",
"  	c None",
". 	c #000000",
"+ 	c #FFF6B4",
"@ 	c #FFFFFF",
"# 	c #FFF6D5",
"$ 	c #FFFAE6",
"% 	c #F6EAA4",
"& 	c #F6EEBD",
"* 	c #F6F2CD",
"= 	c #FFFAEE",
"- 	c #EEE294",
"; 	c #D5C662",
"> 	c #F6E69C",
", 	c #E6DA83",
"' 	c #BDAE5A",
") 	c #B4B600",
"! 	c #EEDE83",
"~ 	c #DECE73",
"{ 	c #DECA73",
"] 	c #A4A100",
"^ 	c #ACAA00",
"/ 	c #ACAE00",
"( 	c #B4B200",
"_ 	c #D5C673",
": 	c #9C8941",
"< 	c #837D08",
"[ 	c #8B8500",
"} 	c #8B8D00",
"| 	c #949100",
"1 	c #9C9D00",
"2 	c #CDBE6A",
"3 	c #CDBA6A",
"4 	c #C5B662",
"5 	c #BDB262",
"6 	c #EEE283",
"7 	c #CDBA52",
"8 	c #736131",
"9 	c #625D08",
"0 	c #6A6508",
"a 	c #736D08",
"b 	c #737108",
"c 	c #7B7908",
"d 	c #838100",
"e 	c #838500",
"f 	c #B4AA5A",
"g 	c #ACA55A",
"h 	c #ACA15A",
"i 	c #ACA152",
"j 	c #FFEE94",
"k 	c #5A5D5A",
"l 	c #4A4410",
"m 	c #524C08",
"n 	c #525008",
"o 	c #5A5908",
"p 	c #A49D52",
"q 	c #A49952",
"r 	c #9C954A",
"s 	c #9C914A",
"t 	c #948D4A",
"u 	c #948941",
"v 	c #837539",
"w 	c #6A5D20",
"x 	c #6A695A",
"y 	c #413C08",
"z 	c #5A5500",
"A 	c #8B8541",
"B 	c #8B8141",
"C 	c #7B6D31",
"D 	c #7B795A",
"E 	c #393808",
"F 	c #414008",
"G 	c #837939",
"H 	c #7B7539",
"I 	c #7B7531",
"J 	c #625D29",
"K 	c #FFFADE",
"L 	c #B4AE94",
"M 	c #948D6A",
"N 	c #FFF2AC",
"O 	c #F6EEA4",
"P 	c #313008",
"Q 	c #736D31",
"R 	c #6A6929",
"S 	c #625929",
"T 	c #FFF2BD",
"U 	c #FFF6CD",
"V 	c #6A5510",
"W 	c #E6DABD",
"X 	c #FFF6C5",
"Y 	c #312808",
"Z 	c #5A5920",
"` 	c #7B6510",
" .	c #7B7508",
"..	c #948D00",
"+.	c #AC9939",
"@.	c #FFEEA4",
"#.	c #836D10",
"$.	c #9C9900",
"%.	c #FFFFE6",
"&.	c #BDB229",
"*.	c #525508",
"=.	c #949500",
"-.	c #8B8900",
";.	c #FFFAD5",
">.	c #BDB29C",
",.	c #BDBE00",
"'.	c #BDB600",
").	c #9C9500",
"!.	c #A49D00",
"~.	c #FFFAC5",
"{.	c #DED6CD",
"].	c #000099",
"^.	c #0000FF",
"/.	c #A4E6A4",
"(.	c #66CC66",
"_.	c #FFFAB4",
":.	c #C1F9C1",
"<.	c #FFFAAC",
"[.	c #0303C6",
"}.	c #020265",
"|.	c #FFF6A4",
"1.	c #FFF69C",
"2.	c #FFF694",
"3.	c #68B468",
"4.	c #FFF683",
"5.	c #FFF26A",
"6.	c #FFF67B",
"7.	c #FFF262",
"                        .             .                         ",
"                    . . + .         . @ . .                     ",
"                . . + + + + .     . # $ @ @ . .                 ",
"            . . % % % % % % % . . & & * * # = @ . .             ",
"        . . - - - - - - - - ; ; @ @ > % & & * * # $ . .         ",
"    . . , , , , , , , , ' ' ) ) ! ! @ @ > > % & & * * # . .     ",
"  . ~ ~ { ~ ~ ~ ~ ~ ' ' ] ^ / ( ~ { _ _ @ @ - - > % & & * * .   ",
"    . ; ; ; ; ; : : < [ } | 1 ] 2 2 3 4 4 5 @ @ ! 6 > > % .     ",
"      . 7 7 8 8 9 0 a b c d e } f f f g g g h i @ @ 6 6 .       ",
"  . . j k l l l m n o 9 0 a b c p q q r s s t t u v w x @ . .   ",
"      . j j j l l y l m n z 9 0 u u A A A B B C C = = @ .       ",
"        . D j j j l l E F l m n G G H I I J J K K = F .         ",
"        . L M D N N O E E P E F Q R R S S T U U F F V .         ",
"        . @ W L M D X X X Y Y Y Z m m T T U F F `  ....         ",
"        . @ = @ W L M D $ $ $ @ +.@.@.@.z z #.d $.| } .         ",
"        . @ %.= %.K W L M D M M &.+.#.*.#.d 1 =.| -.d .         ",
"        . %.= %.K %.K ;.W L M >.,.'.).....!.).| . . d .         ",
"        . %.K %.;.;.;.;.~.~.W {.) ( . ].^.^.]./.(.(.]..         ",
"        . K K ;.;.;.~.~.X + _.+ ( . ].].@ @ :./.(.(.].]..       ",
"        . %.;.;.;.~.X _._.+ _.<.. ^./.@ @ @ :.^./.(.[.].}..     ",
"        . ;.;.~.~.~._._._.<.+ . . (./.:.:.:.:./.(./.[.].}..     ",
"        . ;.~._.+ _.+ + + |.1.. ].^.^.[.[././././.^.[.].}.}..   ",
"        . ~.~.~._.+ <.<.<.<.<.. (.^.^.^.[.[./.].].^.[.].}.}..   ",
"        . _.+ _._.|.|.1.2.2.2.. (.(.[.^.^.^.[././.].].].}.}..   ",
"        . + <.+ |.<.1.1.1.2.2.. (.(.[.^.^.^.^.[.[.(.(.3.}.}..   ",
"        . + <.<.1.1.2.2.2.2.4.. ].].[.^.^.^.^.^.[.].(.3.}.}..   ",
"          . . 1.1.1.2.2.4.4.4.. [.[.[.^.^.^.^.[.[.].(.3.}.}..   ",
"              . . 2.2.4.4.5.4.. . [.[.[.[.[.[.[.].].(.3.}..     ",
"                  . . 5.4.5.5.5.. ].].[.[.[.[.].].].3.].}..     ",
"                      . . 5.5.6.b . ].].].].].].}.}.3.}..       ",
"                          . . 7.b . . ].].}.}.}.}.}.. .         ",
"                              . .     . . . . . }.. .           "};
