/* XPM */
static char * tools16_xpm[] = {
"16 16 12 1",
" 	c None",
".	c #000000",
"+	c #FFFFC5",
"@	c #838100",
"#	c #C5C200",
"$	c #66CC66",
"%	c #99CCCC",
"&	c #669999",
"*	c #FFFFFF",
"=	c #BED4FF",
"-	c #26824F",
";	c #333399",
"     ..   .     ",
"   ..++...+..   ",
" ..++..@#..++.. ",
".++..@@@###..++.",
"...@@@@@####....",
" .+..@@@##..#.  ",
" .+++..@..###.  ",
" .+++++.#####.  ",
" .++++++##....  ",
" .++++++#.$%&.. ",
" .++++++.$*=$-..",
" .++++++.$==;$;.",
" .#+++++.-$;;&..",
"  ..#+++..---;..",
"    ..#+...;.;. ",
"      ..  ....  "};
