/* XPM */
static char * view_x_xpm[] = {
"24 24 9 1",
" 	c None",
".	c #FFFFFF",
"+	c #C0C0C0",
"@	c #FEFEFE",
"#	c #FCFCFC",
"$	c #F5F5F5",
"%	c #F4F4F4",
"&	c #C0C0C0",
"*	c #808080",
"       ***  ****        ",
"      ***.**$%****      ",
"     **&....**##*****   ",
"*   *.**......* .@@**** ",
"** *..****....*    *****",
"*****..*..**.&* ********",
"*.**.***....&&**********",
"* .*....**$.$&****...**.",
"*  *..**********..   ** ",
"** ******&******    *** ",
".*********&******  ***. ",
" ******&&&**&**.******  ",
" *******&&&**&* .***..  ",
" .***&&&*&**&&*  ...    ",
"  .****&&***&&*         ",
"   *&******&&&*         ",
"   **&*****&&&*         ",
"   ***&*&&&$&&*         ",
"   .****&&&&&&*         ",
"    ..****&$&&*         ",
"      ..****&&*         ",
"        ..*****         ",
"          ..***         ",
"            ...         "};
