/* XPM */
static char * view_xpm[] = {
"24 24 19 1",
" 	c None",
".	c #FFFFFF",
"+	c #C0C0C0",
"@	c #CCCCFF",
"#	c #CCCCCC",
"$	c #CCCC99",
"%	c #9999FF",
"&	c #999999",
"*	c #999966",
"=	c #996666",
"-	c #666666",
";	c #666633",
">	c #663333",
",	c #333366",
"'	c #333333",
")	c #333300",
"!	c #000066",
"~	c #000033",
"{	c #000000",
"       {{{  {{{&        ",
"      {%%.{{  &{{&      ",
"     {{%....{{  &{{{&   ",
"{   {.{%......{    '{{& ",
"'- {..{%!!....{    *'{~,",
"{'-{{..{..!!.@{ &-'''{{{",
"{ {{.{{{....@@{&''-&&-{,",
"{  {....!!@.@@#'-#   ;' ",
"{  {..!&'''-&&''     '' ",
"{{ {$-''#@#'{{''    ;{- ",
" {&{'{'&!,@'>{{-&  -{'  ",
" {{{{'@@@@#'@@{ >=-{{-  ",
" {{{{@!!@@&)@@{  '{{    ",
"  &-'@@@!#'-@@{         ",
"   &&'&@@-'&@@{         ",
"   {@-)''{-@@@{         ",
"   {@@-'-!@@@@{         ",
"   {-&@@@@@@@@{         ",
"    {{&-@@@@@@{         ",
"      {{&-@@@@{         ",
"        {{-&@@{         ",
"          {{&-{         ",
"            {{{         ",
"                        "};
