/* XPM */
static char * o32_xpm[] = {
"32 32 65 1",
" 	c None",
".	c #030305",
"+	c #828457",
"@	c #BFC384",
"#	c #FE0204",
"$	c #404561",
"%	c #9AA294",
"&	c #D8E4A3",
"*	c #526484",
"=	c #5464A7",
"-	c #FEC2C4",
";	c #7084CB",
">	c #CAD595",
",	c #A6A681",
"'	c #6574AB",
")	c #E4F3AD",
"!	c #B2B482",
"~	c #C8D4FC",
"{	c #7994DE",
"]	c #485472",
"^	c #272346",
"/	c #677392",
"(	c #909378",
"_	c #B4C8FC",
":	c #FDFEF8",
"<	c #8DB1FB",
"[	c #6B6CBB",
"}	c #A8BCFA",
"|	c #CEDC91",
"1	c #707AA8",
"2	c #4F5DB7",
"3	c #646C88",
"4	c #828CD8",
"5	c #36335B",
"6	c #DBDDE6",
"7	c #121214",
"8	c #80A6F6",
"9	c #9496BC",
"0	c #9EA2D4",
"a	c #DEE8FC",
"b	c #77794C",
"c	c #808494",
"d	c #5F66D7",
"e	c #9C9C82",
"f	c #94A9F1",
"g	c #D1DCF8",
"h	c #DFECAD",
"i	c #7E9DED",
"j	c #211D31",
"k	c #C2CEFC",
"l	c #728CDC",
"m	c #4E5C7F",
"n	c #7379DA",
"o	c #C4CD8A",
"p	c #8C8E88",
"q	c #B9BC87",
"r	c #ACAE79",
"s	c #5A6CA4",
"t	c #322C51",
"u	c #737A7C",
"v	c #434C61",
"w	c #888C54",
"x	c #596C90",
"y	c #EAFDB6",
"z	c #3C3D6B",
"            ***mmm..            ",
"         *x';e%%rq@@e..         ",
"       *';;;4%,!@qoq!,+..       ",
"      /fi{l49r!q@q@q!,rb..      ",
"     'f}<<}6&>>hh|>@ree+b5.     ",
"    'f}~gyy66g6h|>|@c(eww+b.    ",
"   xi}_ga::~~~g&o>oqc(e(ww+5.   ",
"  *i}~g:::::k_}09!q|>e(e(ww+j.  ",
"  '<_ga::::::::hhh)h>uu(+**tj.  ",
" vf<~ga:::::::::yy)o&o@e]v357j. ",
" ]<<ga::::::::::yyyoh>opvz$5j^. ",
" *<<gaa:::::::::yyh%!e(3]zzzt^7 ",
"vf}<___::::::::yyyyqp33m]zzzt^j.",
"v8<<<<}ga:::yyyyyyy|,/==]zzvt^^.",
"v8<<<<}~a::yyyyyy))>!1s=$zz]5^^7",
"v8<<<8<<kggyyy))&>>q(3*mz55vz^^7",
"vi<8<<88<ff}))&|>@o,/*m]zt55t^^7",
"vl8i8<8888i0h&h|>@!/mm]z5t5tt^^7",
"v;{l{8{88il4&&||>o!/m]vz55ttt^^7",
"v';llll88lnn||>>................",
" ]1;lllllndd,ooo.::::::::::::::7",
" vx1111;;nd21,!r.:::::::::::-#:.",
" v*3x'1''[d=prrr.:::::::::::-#:.",
"  v*mx1's[d2de,,.::::::::::::::.",
"  v*mmxxxss=dn[2.::.........:::.",
"   v*]mm*x*m[ees.::::::::::::::.",
"    vv]]mmm][p(s.::.......:.:::.",
"     vvvmm]$$vmm.::::::::::::::.",
"      tj$zvv]]]].::::::::::::::.",
"       j.tj5]]]].::::::::::::::.",
"         ...vvvv................",
"            ........            "};
