/* XPM */
static char *wpicon[] = {
/* width height num_colors chars_per_pixel */
"    32    32       39            1",
/* colors */
". c #ffffff",
"# c #000000",
"a c #0f7c7a",
"b c #8ec1c1",
"c c #073938",
"d c #ffffff",
"e c #706889",
"f c #363343",
"g c #212121",
"h c #dedede",
"i c #ff0000",
"j c #ffff00",
"k c #e5e5e5",
"l c #d3d3d3",
"m c #ededed",
"n c #bf0000",
"o c #00bf00",
"p c #bfbf00",
"q c #0000bf",
"r c #bf00bf",
"s c #c0c0c0",
"t c #808080",
"u c #00bfbf",
"v c #ffcc99",
"w c #ff3366",
"x c #ff3333",
"y c #330033",
"z c #ccccff",
"A c #333333",
"B c #333366",
"C c #3333cc",
"D c #cc9966",
"E c #3366cc",
"F c #cc3333",
"G c #663333",
"H c #9999ff",
"I c #6666cc",
"J c #6666ff",
"K c #996666",
/* pixels */
"######tt#t#t#qqqqqqqqqqqqqqqqqq.",
"#p#p###tt#ttqnqnqr#r#rqnqnqnqnq.",
"####p#t#t#ttqqqq#q#qq#qqqqqqqq.s",
"##p##tt#t#tptt#rqnqr#r#r#r#r#rs.",
"t###t##t#tst#tq#qq#qq#qq#q#qq.s.",
"tt#tt#t#ts..pttt#r#r#r#rqnqnq.ss",
"t#tt#t#ttnp..nptq#qqtq#qtq#q.s.s",
"#tt##ttpnppt..jptrq#q#r#q#rts.s.",
"t###tt#npnpn...spttqnqq#tq#.s.ss",
"ttttt#t#nppjs...jptrq#rq#rs.s.s.",
"t#t#t##tn#pjjs...spst#qnqq.s.s.s",
"q#qttt#noipjsps...jjsq#q#.s.s.s.",
"qnq#qtt##ptpjjjs...spstrs.s.ss.s",
"q#r#q#t##npipsjjs...spjjs.s.s.s.",
"q#qr#r#t##nppisjjs...jisjs.s.s.s",
"qr#qq#qqt#oipppsjjs...spjjs.s.s.",
"#q#r#r#q#t##pipisjjs...sipjs.s.s",
"qnqq#qr#q#n#nppppsjjs....pjjs.s.",
"qqnqr#qr#rttn#pipisjjs....jt.s.s",
"#r#qnq#rq#qtpn#ppppsjjs....js.s.",
"qnqqnqr#rqnqttnnptip##pj...jss.s",
"rqnrqnqnqnqnqpp#nppj###jj...js.s",
"#r#qnqnqr#rqnrnp#npip##jij..js.s",
"r#rr#rqnqrnr#rppn#nppjj#ppj.js.s",
"rqnqrnqnr#rqtsstpno#pipp#npj.js.",
"nqnr#rr#rqnss.s.tpnn#pips#pi.js.",
"rnqr#r#rnq.s.s.sstppn#pppi#pjjss",
"qr#rr#rqs.s.s.s.s.ntpptnjpp#tsjs",
"n#r#rr#.s.s.s.s.s.s.siptntji#psj",
"nr#nqs.s.s.s.s.s.s.s.ss.pitpp#i.",
"#nrs.s.s.s.s.ss.s.s.s.ss.sstip#s",
"rss.s.s.s.s.s.s.ss.s.s.s.s.s.tp#"
};
