/* XPM */
static char * wp_32_xpm[] = {
"32 32 126 2",
"  	c None",
". 	c #FFFFFF",
"+ 	c #FFFFF7",
"@ 	c #FFFFCE",
"# 	c #FFFF9C",
"$ 	c #FFFF66",
"% 	c #FFFF00",
"& 	c #FFDF00",
"* 	c #FFCE9C",
"= 	c #FFCE63",
"- 	c #FFCE31",
"; 	c #FFCCFF",
"> 	c #FFCCCC",
", 	c #FFCC99",
"' 	c #FFCC66",
") 	c #FFCC33",
"! 	c #FF9999",
"~ 	c #FF9933",
"{ 	c #FF66FF",
"] 	c #FF00FF",
"^ 	c #FF0000",
"/ 	c #F1F1F1",
"( 	c #EFD6C6",
"_ 	c #E7E7D6",
": 	c #D6D6D6",
"< 	c #D4DFFF",
"[ 	c #D4DF00",
"} 	c #D4BF00",
"| 	c #CECE9C",
"1 	c #CECE63",
"2 	c #CECE31",
"3 	c #CE9C63",
"4 	c #CE9C31",
"5 	c #CE9C00",
"6 	c #CCCCFF",
"7 	c #CCCCCC",
"8 	c #CCCC99",
"9 	c #CCCC66",
"0 	c #CCCC33",
"a 	c #CC9999",
"b 	c #CC9966",
"c 	c #CC9933",
"d 	c #CC66CC",
"e 	c #CC6666",
"f 	c #CC6633",
"g 	c #CC00CC",
"h 	c #CC0000",
"i 	c #C6C6C6",
"j 	c #C0DCC0",
"k 	c #C0C0C0",
"l 	c #AEAEAE",
"m 	c #ADAD94",
"n 	c #AABFAA",
"o 	c #AABF00",
"p 	c #AA9FAA",
"q 	c #AA9F55",
"r 	c #AA9F00",
"s 	c #A1A1A1",
"t 	c #A0A0A4",
"u 	c #9C9C63",
"v 	c #9C6331",
"w 	c #9C6300",
"x 	c #99FFFF",
"y 	c #9999FF",
"z 	c #999999",
"A 	c #999933",
"B 	c #996633",
"C 	c #996600",
"D 	c #993399",
"E 	c #990033",
"F 	c #990000",
"G 	c #939393",
"H 	c #868686",
"I 	c #848484",
"J 	c #848400",
"K 	c #840084",
"L 	c #808080",
"M 	c #808000",
"N 	c #800080",
"O 	c #800000",
"P 	c #7F7F00",
"Q 	c #7F5F00",
"R 	c #737373",
"S 	c #66CC00",
"T 	c #6666CC",
"U 	c #666666",
"V 	c #663333",
"W 	c #663300",
"X 	c #636363",
"Y 	c #636331",
"Z 	c #636300",
"` 	c #63319C",
" .	c #633163",
"..	c #633131",
"+.	c #633100",
"@.	c #630063",
"#.	c #555F55",
"$.	c #555F00",
"%.	c #553F55",
"&.	c #553F00",
"*.	c #525252",
"=.	c #4A4A4A",
"-.	c #424242",
";.	c #393939",
">.	c #33CCFF",
",.	c #339900",
"'.	c #3366FF",
").	c #333399",
"!.	c #333333",
"~.	c #3300CC",
"{.	c #31319C",
"].	c #313163",
"^.	c #313131",
"/.	c #313100",
"(.	c #31009C",
"_.	c #310063",
":.	c #310000",
"<.	c #2A3F55",
"[.	c #2A3F00",
"}.	c #2A1F55",
"|.	c #2A1F00",
"1.	c #292929",
"2.	c #212121",
"3.	c #181818",
"4.	c #101010",
"5.	c #080808",
"/././././.2.*.U =.*.1.R /.(.(.(.(._.(.(.(.(.(.(.(.(.(.(.(.(.(.  ",
"/./././././.2.=.*.;.;.R )._._._._.(._._._.(._._._._._._._._.).  ",
"/./././././.=.*.;.-.-.R ].(._.(._._._.(._._.(._.(._.(._.(.(.    ",
"1.3./././.=.*.!.-.-.R Y H ]._._._._._._._._._._._._._._._.).    ",
"-.1.2.1.=.*.!.;.-.R i Y Y H ]._._._._._._._._._._._._._._.      ",
"*.=.!.=.*.!.!.-.R 3 + + Y Y H ]._._._._._._._._._._.]._.).      ",
"*.*.=.*.;.;.;.R Y v 3 _ + Y 4 R ]._.]._.]._.]._.]._._._.        ",
";.=.*.1.;.;.R w w w w 3 + . = 4 R ` _._._._._._._._._.`         ",
"=.*./.1.;.R W W w w w w + + . = 4 H ` _._._._._.]._._.          ",
"*.=.=.=.R /.V W W w w - * + + . = 4 u ` ]._._._._._.            ",
"*.*.*.U =./.|.V V W 2 = - * + + . = 4 m ]._.]._._.).            ",
"].;._.=.U =./.V W 4 4 2 = - * + . . = - | ]._._._.              ",
"_._._._._.U =./.[.v 4 4 1 - - * + . . * 4 | ` _.                ",
"_._._._._._.U 3././.4 4 4 1 = - * + . . * 5 1 -                 ",
"_._._._._._._.=.3.4.W 4 4 4 1 = - # + . . = 4 1 -               ",
"_._._._._._._._.;.3./.w 4 4 4 1 = = # + . . * 5 1 -             ",
"_._._._._._._._._.-.:.:.w 4 4 4 1 = = * . . . * 4 2 -           ",
"_._._._._._._._._._.V /.W w 4 4 4 1 = = # . . . ( 4 2 -         ",
"_._._._._._._._._._. .v W W w 4 4 4 1 = = * . . . @ - 1         ",
"_._._._.@._._.@._._._. .v W W w 4 4 4 1 = = * . . . @ -         ",
"_._._._.@._.@._.@._.@._. .v W W w 4 4 4 :.5.Z - + . . -         ",
"_._._._._.@.@.@.@.@.@.@.@.w w W W w 4 4 4.5.5.- = + . . -       ",
"_._._._.@.@._._.@.@.@.@.@.@.v w [.W w 4 Z 5.5.- 5 = + . -       ",
"_._._.@._.@.@.@.@.@.@.@.@.@.v 4 W /.W w - - - 5.w 5 = + -       ",
"_._._.@.@.@.@.@.@.@.@.@. .    v 4 W /.W w 4 4 4 5.w 5 = . -     ",
"_._.@.@._.@.@.@.@.@.@.          v 4 W W W w 4 4 4 5.w 4 @ -     ",
"_._.@.@.@.@.@.@.@.                v 4 w W W w 4 4 4 5.4 = -     ",
"_._.@.@.@.@.@.@.                    v v v w v w 4 4 4 5.v * -   ",
"_._.@.@.@.@.@.                            v v v v 4 4 4 5.4 * - ",
"_.@.@.@.@.                                      v v v 4 4 5.v @ ",
"_.@.@.                                                v v 4 5.m ",
"_.                                                        v 4 5."};
