/* XPM */
static char * wpfont_32_xpm[] = {
"32 32 84 1",
" 	c None",
".	c #FFFFFF",
"+	c #FFFF66",
"@	c #FFFF00",
"#	c #FFCCFF",
"$	c #FFCCCC",
"%	c #FFCC99",
"&	c #FFCC66",
"*	c #FFCC33",
"=	c #FFCC00",
"-	c #FF9999",
";	c #FF9933",
">	c #FF66FF",
",	c #FF33CC",
"'	c #FF0000",
")	c #CCFFCC",
"!	c #CCCCFF",
"~	c #CCCCCC",
"{	c #CCCC99",
"]	c #CCCC66",
"^	c #CCCC33",
"/	c #CCCC00",
"(	c #CC9999",
"_	c #CC9966",
":	c #CC9933",
"<	c #CC66CC",
"[	c #CC6666",
"}	c #CC6633",
"|	c #CC00CC",
"1	c #CC0000",
"2	c #99FFFF",
"3	c #99CC99",
"4	c #99CC00",
"5	c #9999FF",
"6	c #999999",
"7	c #999966",
"8	c #999933",
"9	c #999900",
"0	c #996699",
"a	c #996666",
"b	c #996633",
"c	c #996600",
"d	c #993399",
"e	c #990099",
"f	c #990066",
"g	c #990033",
"h	c #990000",
"i	c #66CC00",
"j	c #669999",
"k	c #669966",
"l	c #669900",
"m	c #6666CC",
"n	c #666699",
"o	c #666666",
"p	c #666600",
"q	c #663366",
"r	c #663333",
"s	c #663300",
"t	c #660099",
"u	c #660066",
"v	c #660000",
"w	c #33CCFF",
"x	c #339900",
"y	c #3366FF",
"z	c #336666",
"A	c #336600",
"B	c #333399",
"C	c #333366",
"D	c #333333",
"E	c #333300",
"F	c #3300CC",
"G	c #330000",
"H	c #00FFFF",
"I	c #00FF00",
"J	c #009999",
"K	c #009966",
"L	c #009900",
"M	c #006699",
"N	c #006666",
"O	c #006600",
"P	c #0000FF",
"Q	c #000099",
"R	c #000066",
"S	c #000000",
"eP.ekQ.P6R6P7P~P~P.P6   ~.6R  6u",
"P7QoQ..oQof~PHP~P.P P  ~.oQ  oP ",
" R6R.t7Q7P~P~PkM7PkP7P~P6R  6P  ",
"RjPnP7QoP~P~PjajfnP0P~P~R  kPPP ",
"6PafjRnP~P~PPajfnP7PkP~R.Q7P.P  ",
"P.PjR6P~PoPRJoSSSSSSS~R6Rn..P   ",
"..a 0PoPePRMPS''''hhS6oQ7.6P    ",
".jPkPoJ7PRPP6ShhhhhhhSQ7.oP     ",
"aPaP6KQPQPPPS''''hhhhS6P.P      ",
"Pt.~NQPRPPP6S'''''hhhhS         ",
"..~MRPQPPP6S''''''hhhhS6        ",
"P~PRPRPPPo6S'''''''hhhhS        ",
"~P.PQPPP7JS''''''''hhhhS6       ",
"P PRSPPnP6S'''SS''''hhhhS       ",
" PQPPP7PaS''''SS''''hhhhS6      ",
"PRP6o6Pj6S'''SP6S''''hhhhS      ",
"6P6u6PoPS''''S7PS''''hhhhS6     ",
"PoPaP6P6S'''SnP, S''''hhhhS     ",
"6PQPoP6S''''SSSSSS''''hhhhS6    ",
"   7PP6S'''''''''''''''hhhhS    ",
"  kPP~S''''''''''''''''hhhhS6   ",
" 0PH~6S'''hhhhhhhhhh''''hhhhS   ",
"kP~PPS''''hhhSSSSSSS''''hhhhhS  ",
"~~PR6S'''hhhS       S''''hhhhS  ",
"oP  S''''hhS        S''''hhhS   ",
"~  6S'''hhS          S''''hS    ",
"  QS''''hS           S''''hS    ",
" 7PSSSSSS             SSSSS     ",
"tPnRPP>                         ",
"P7Q                             ",
"nP                              ",
"S                               "};
