/* XPM */
static char * XMMS_32_xpm[] = {
"32 32 16 1",
" 	c None",
".	c #FFFFFF",
"+	c #FFFF00",
"@	c #CCCCCC",
"#	c #9999FF",
"$	c #999999",
"%	c #999966",
"&	c #999900",
"*	c #868686",
"=	c #6666FF",
"-	c #666699",
";	c #666666",
">	c #666600",
",	c #003399",
"'	c #0000CC",
")	c #000000",
"                                ",
"                         ##     ",
"                       ##',     ",
"                     ##''',     ",
"                  ###''''',     ",
"                  '''''''',     ",
"                  ''''''',,     ",
"                  ''''',,       ",
"                  ''',,         ",
"                  '',           ",
"                  ',            ",
"         '$ ;$    ',            ",
"         $'     $ ',            ",
"&>    $        '' ',            ",
"++&       +@      ',            ",
"  ++>    -+@ ;    ',            ",
"   >++>+ %. ;+    ',            ",
"     &+$+-+;+-    ',            ",
"   -   +%+.+-     ',            ",
"       ;-.++++@'  ',            ",
"      $%.%.+$;''  ',            ",
"   %-  +--%-+$==''',            ",
"   -%    %+'';$===',            ",
"        %-+'#.'#==',            ",
"        ,=##..##===,            ",
"        ,=##.###===,            ",
"         ,#####===',            ",
"         ,=###====,)            ",
"          ,,====,,)))           ",
"            ,,,,)))))           ",
"              ))))))            ",
"                                "};
