/* XPM */
static char * 3floppy_mount_xpm[] = {
"16 16 11 1",
" 	c None",
".	c #000000",
"+	c #FFFFFF",
"@	c #999999",
"#	c #0000FF",
"$	c #CCCCFF",
"%	c #9999FF",
"&	c #9999CC",
"*	c #008000",
"=	c #00C000",
"-	c #00FF00",
"                ",
"  ...........   ",
" .++@#####@++.  ",
" .+$@+++++@$%.@ ",
" .+$@+++++@%%.& ",
" .+$@+++++@%%.@ ",
" .+$@@@@@@@%%.& ",
" .+$$$$$$%%%%.@ ",
" .+$$@@@@@.%%.& ",
" .+$$@@@+@.%%.@ ",
" .+$$@@@+@.%%.& ",
" .+$$@@@+@.%%.@ ",
".....@@@@@.%%.& ",
".**=.........&  ",
".=--.@&@@@&@@   ",
".....           "};
