/* XPM */
static char * 3floppy_unmount_xpm[] = {
"16 16 8 1",
" 	c None",
".	c #000000",
"+	c #FFFFFF",
"@	c #999999",
"#	c #0000FF",
"$	c #CCCCFF",
"%	c #9999FF",
"&	c #9999CC",
"                ",
"  ...........   ",
" .++@#####@++.  ",
" .+$@+++++@$%.@ ",
" .+$@+++++@%%.& ",
" .+$@+++++@%%.@ ",
" .+$@@@@@@@%%.& ",
" .+$$$$$$%%%%.@ ",
" .+$$@@@@@.%%.& ",
" .+$$@@@+@.%%.@ ",
" .+$$@@@+@.%%.& ",
" .+$$@@@+@.%%.@ ",
" .+$$@@@@@.%%.& ",
"  ...........&  ",
"  &@@@&@@@&@@   ",
"                "};
