/* XPM */
static char * cdrom_unmount_xpm[] = {
"16 16 27 1",
" 	c None",
".	c #CCCCCC",
"+	c #999999",
"@	c #000000",
"#	c #99CC99",
"$	c #CC99CC",
"%	c #FFCCCC",
"&	c #FFFFCC",
"*	c #CCCCFF",
"=	c #CCCC99",
"-	c #99CCCC",
";	c #CCFFFF",
">	c #FFFFFF",
",	c #CCFFCC",
"'	c #FFFF99",
")	c #FFCCFF",
"!	c #99FFCC",
"~	c #CC99FF",
"{	c #669999",
"]	c #99CCFF",
"^	c #999966",
"/	c #666666",
"(	c #333366",
"_	c #000033",
":	c #333333",
"<	c #333300",
"[	c #003333",
"    .+@@@@+.    ",
"   +@@+..+@@+   ",
"   @#....$.+@.  ",
"  @+%&%*=-%.+@  ",
" +@*;&>...&;+@+ ",
" @+,;>'*=)>..+@ ",
" @+;.;-@@>.))$@ ",
" @.)*)@,>+.))-@ ",
" @**))@>)+***.@ ",
" @$)**&@+$!;*~@ ",
" @+*.;>..,.*.{@ ",
" +@..>..>&&-]@  ",
"  @+>&..)>&&+@@ ",
"  +@**.*,>'=@@@ ",
"    @^..*%/(_@  ",
"     @::<[:@@   "};
