/* XPM */
static char * collabra_xpm[] = {
"16 16 13 1",
" 	c None",
".	c #0000FF",
"+	c #008183",
"#	c #FFFFFF",
"$	c #FF0000",
"%	c #6265CD",
"&	c #008100",
"*	c #FFFF00",
"=	c #838183",
"-	c #C5C2C5",
";	c #9C99FF",
">	c #313062",
",	c #202020",
".+.+.+.++.+.+.+.",
"+.+.+.+..+.+.+. ",
".+.+.+.++.+.+.  ",
"+.+.+.+.#$###.#%",
".+.+.+..#&#####%",
"+.+.+.+##*#*#*#%",
".+.+.+#####==##%",
"+.+.+#*=-*#*=*#%",
"+.+.;;;;;;;*%*#%",
".+.%;------>#%-%",
"+.+%-#+++##>*%#%",
".+.%-*#####>%#*%",
"+.+%-######>#-#%",
".+.%-*,>#,#>$.*%",
"+.  ;----*;>    ",
".        >>     "};
