/* XPM */
static char * composer_xpm[] = {
"18 18 12 1",
" 	c None",
".	c #008080",
"+	c #0000FF",
"@	c #C0C0C0",
"#	c #000000",
"$	c #FFFFFF",
"%	c #FFFF00",
"&	c #808080",
"*	c #000080",
"=	c #808000",
"-	c #800000",
";	c #00FFFF",
".+++++......+++++.",
"+.....++++++.....@",
"+.....++++++....#$",
"+.....+++%@&&..#$$",
"+...&**%$$%@@&#$$$",
"+...&==*$%%@$@@#$$",
".+++&-=-$$$$@@@&$$",
".++@=%$-#@$$@@@@@&",
".+$$$$&+##@$@@@$##",
".+$$$$$..##@$@$#@$",
".++$$$$$&.##&$#@$$",
".++*$$$$$&.##&@$$$",
"+...$$%%%%@###&$$$",
"+....$%%%%$@##*#$$",
"+...#@#%%$@$&@.##&",
"+..#$$@#$@&$$#;.##",
"+.#$$$$@@&$$$$#..#",
".@$$$$$$@$$$$$$&##"};
