/* XPM */
static char *mini-corelworld[] = {
"16 16 16 1",
"a c #000000",
"b c #800000",
"c c #008000",
"d c #808000",
"e c #000080",
"f c #800080",
"g c #008080",
"h c #808080",
"i c None",
"j c #ff0000",
"k c #00ff00",
"l c #ffff00",
"m c #0000ff",
"n c #ff00ff",
"o c #00ffff",
"p c #ffffff",
"iiiiiijjjbiiiiii",
"iiijiijjjjiijiii",
"iijjjijeebijjjii",
"ijjjjeemhhejjjbi",
"iibjehpphhpejbii",
"iiiemmepphmeeiii",
"jjjpmmmpppmeeiii",
"jjmpemmepmmeeeii",
"jjmepmmmephheeii",
"bjbpemmmmppheiii",
"iiiemmmmmepheiii",
"iijjpemmeehejjii",
"ijjjjeeeeehjjjbi",
"iijjbijeebijjbii",
"iiibiijjjbiibiii",
"iiiiiijbjbiiiiii"
};
