/* XPM */
static char * clipart_xpm[] = {
"16 16 12 1",
" 	c None",
".	c #000000",
"+	c #00FFFF",
"@	c #FFFFFF",
"#	c #999999",
"$	c #00FF00",
"%	c #009900",
"&	c #006600",
"*	c #009999",
"=	c #006666",
"-	c #006699",
";	c #009966",
"................",
".++++++++++@+++.",
".++++++++#@@#.+.",
".+++@#++++...++.",
".+#@@@.++++++++.",
".++...#++++...+.",
".+++++++++.$%$..",
".+..%.+++.$&$$$.",
".*=%&-.+.$%$%$$.",
".=%&%;-.$&$&$$$.",
".*&;-&%*.$$$$$$.",
".;-%=%%&=..$$$$.",
".&;-*&&**=*.....",
".*&%&*==*=*=*=*.",
".=*=*=**=*=*=*=.",
"................"};
