/* XPM */
static char * buscomm_xpm[] = {
"16 16 9 1",
" 	c None",
".	c #000000",
"+	c #FFFF00",
"@	c #FFFFFF",
"#	c #FF0000",
"$	c #990000",
"%	c #660000",
"&	c #999999",
"*	c #666666",
"                ",
"                ",
"  .....         ",
" .+++++.        ",
".@@@@@@@....... ",
".@@+#+##+#@+@+. ",
".@+#$#%$###@+@.&",
".@@+#+@@+#@+@+.*",
".@+##@+@+@+@+@.&",
".@@##+@+@+@+@+.*",
".@+@#@+@+#+@+@.&",
".@@#######$+@+.*",
".@+@#@#$+%+@+@.&",
"...............*",
" &*&*&*&*&*&*&*&",
"                "};
