/* XPM */
static char * jabber_xpm[] = {
"16 16 27 1",
" 	c None",
".	c #99CC99",
"+	c #663366",
"@	c #669966",
"#	c #CCCCCC",
"$	c #999999",
"%	c #330000",
"&	c #000000",
"*	c #666666",
"=	c #CCFFCC",
"-	c #333300",
";	c #996600",
">	c #336600",
",	c #333333",
"'	c #669900",
")	c #FFCC00",
"!	c #FFFF00",
"~	c #CCCC00",
"{	c #999900",
"]	c #666699",
"^	c #666600",
"/	c #CCCCFF",
"(	c #99CC00",
"_	c #333366",
":	c #999966",
"<	c #663300",
"[	c #336666",
"      .+  @#    ",
"    $ #  #%#    ",
"   $&*$$##=     ",
" #*&&&-;>-$  .# ",
"@-,-%')!~{-#.-$ ",
"$*]@^!!!-^-- /  ",
"   +%(!!^)^&/   ",
" $ +&{!!!!~-#*$ ",
" _$#-^!!!!^-#.* ",
"   /_:!^-~^*    ",
"    .-{!<--     ",
"     $-~~-#     ",
"      +--[      ",
"      $&&*      ",
"      $&&,/     ",
"      .+_]      "};
