/* XPM */
static char * designerfx_xpm[] = {
"16 16 12 1",
" 	c None",
".	c #000000",
"+	c #CC66CC",
"@	c #FFFFFF",
"#	c #990099",
"$	c #660066",
"%	c #999999",
"&	c #993399",
"*	c #CC00CC",
"=	c #CCCCCC",
"-	c #FFCCFF",
";	c #FF66FF",
"                ",
"................",
".++@@++@@++@@++.",
".++@@++@@++@@++.",
".#$%%$#%%$#%%$#.",
".&&%%&&%%&&%%&&.",
".**=%**=%**=%**.",
".--@@--@@--@@--.",
".;;==;;==;;==;;.",
".**%=**%=**%=**.",
".&&%%&&%%&&%%&&.",
".$#%%$#%%$#%%$#.",
".++@@++@@++@@++.",
".++@@++@@++@@++.",
"................",
"                "};
