/* XPM */
static char * searchinternet_xpm[] = {
"16 16 8 1",
" 	c None",
".	c #000099",
"+	c #0000FF",
"@	c #CCCCCC",
"#	c #FFFFFF",
"$	c #999999",
"%	c #000000",
"&	c #00FFFF",
"    .....       ",
"   ..+@@@..     ",
"  ....@@@...    ",
" .+@#$+#@+...   ",
"..@@##%%%%...   ",
".##.#%#&#&%...  ",
".#..%#&#&#&%%.  ",
"...+%&#&#&#%..  ",
".@@+%#&#&#&%..  ",
"..@+%&#&#&#%.   ",
" ...+%&#&#%%.   ",
"  ..++%%%%%%%%  ",
"   ........%%%  ",
"    .....   %%% ",
"             %%%",
"              %%"};
