/* XPM */
static char * textfx_xpm[] = {
"16 16 9 1",
" 	c None",
".	c #000000",
"+	c #000099",
"@	c #000066",
"#	c #FFFF00",
"$	c #FFFFFF",
"%	c #FF0000",
"&	c #999999",
"*	c #990000",
"       ...... +@",
"      .#$#$#$.@+",
"     .#.#$#$#$+@",
"    .#.#.#$#$#@+",
"   .#.#.#.#$#.+@",
"  .#...#.#... @+",
"   ..%%.#..&    ",
"    .%%%.**.    ",
"   .%*%%***.&   ",
"   .%..%%***.   ",
"  .%.$.%%***.&  ",
"  .%...*%%***.  ",
" .%%%%%%%%***.& ",
" .%**...%%%***. ",
".%%*.   .%%**.  ",
"....     ....   "};
