/* XPM */
static char * graphcomm_xpm[] = {
"16 16 9 1",
" 	c None",
".	c #FFFFFF",
"+	c #999999",
"@	c #000000",
"#	c #CCCCCC",
"$	c #666666",
"%	c #FF0000",
"&	c #990000",
"*	c #660000",
".......+@       ",
" ...#$+@        ",
" ..###$@        ",
" ...#$+@        ",
" ..###$@        ",
" ...#$+@        ",
" ..###$@        ",
" ...#$+@        ",
" ..###$@        ",
" ...#$+@        ",
"  ...+@         ",
"  $+$@@      %% ",
"  +$+$@    %&*& ",
"   &%%   %%*    ",
"   *%%%%%%%     ",
"    &*&*&*&     "};
