/* XPM */
static char * whatsnew_xpm[] = {
"16 16 14 1",
" 	c None",
".	c #000099",
"+	c #999999",
"@	c #000066",
"#	c #669966",
"$	c #996699",
"%	c #669999",
"&	c #999966",
"*	c #666699",
"=	c #666666",
"-	c #FFFF00",
";	c #996666",
">	c #FFFFFF",
",	c #000000",
"  .   .  +@+ #. ",
"  @   @+@.@ $@ @",
"  .   @   @%@  .",
"  @  &.   +@  *&",
" +@+@.@  #.=. @ ",
"@.@  - .;.   .& ",
"  -%>-,#-    =..",
"  >->->-+,   .  ",
"   ,---+,,.&*@  ",
" --------- .@.@.",
"  ++---*+,, .   ",
"  >-,-+-,,  @   ",
" #-,>-,+-.@.&   ",
"$. ,>-, +, @.@.@",
"@    -,  ,&.    ",
"      ,   .=    "};
