/* XPM */
static char * vdrive_xpm[] = {
"16 16 10 1",
" 	c None",
".	c #FFFF00",
"+	c #000000",
"@	c #CCCCCC",
"#	c #FFFFFF",
"$	c #666666",
"%	c #999999",
"&	c #333333",
"*	c #FF0000",
"=	c #66CC00",
"                ",
".               ",
"+. +.    ++     ",
" ++++. +.@#++   ",
"  +  ++++.@#@++ ",
"      +@@+.@@@#+",
"     +@@@@+@@@$+",
"    +%##@@@@@$$+",
"   +##%%###@$$$+",
"   +%$##%%%&$$$+",
"   +%$@%##$&$$+ ",
"   +%$@%%$$&$+  ",
"   +%$@*%$$&+   ",
"    ++@%=$$+    ",
"      ++%$+     ",
"        ++      "};
