/* XPM */
static char * exec16_xpm[] = {
"16 16 12 1",
" 	c None",
".	c #000000",
"+	c #FFFFFF",
"@	c #999900",
"#	c #A1A1A1",
"$	c #666600",
"%	c #C9C9C9",
"&	c #5D5D5D",
"*	c #FFFF00",
"=	c #666699",
"-	c #CCCC99",
";	c #999966",
"        . ...   ",
"        ..+@+. .",
"      ...#$%.@$@",
"     .#&%.&*@$..",
"   ..#&.+&@*%&  ",
"   .&%%++%$@=...",
"    .#&+=.#..   ",
"   ...=%-%%##.  ",
"   .#%-=%%&#%.  ",
"   ..&#-&#&&#.  ",
"    .#.+%&#..   ",
" ....&%+++%%.   ",
"......#.=%...   ",
" ......;%&      ",
"    ......      ",
"                "};
