/* XPM */
static char * Fax16_xpm[] = {
"16 16 75 1",
" 	c None",
".	c #2B2B2B",
"+	c #EFEDDE",
"@	c #FFFFF9",
"#	c #F2EFE0",
"$	c #F9F8E9",
"%	c #FEFCED",
"&	c #FAF7E8",
"*	c #FCF9EA",
"=	c #FFFFF3",
"-	c #F1EDDE",
";	c #A3A197",
">	c #D2CFC2",
",	c #FFFFF0",
"'	c #FFFFF1",
")	c #EEEBDC",
"!	c #9F9D93",
"~	c #949495",
"{	c #6A6963",
"]	c #FFFFF7",
"^	c #FEFBEC",
"/	c #FFFFF4",
"(	c #C5C3B7",
"_	c #ACACAC",
":	c #FFFFFF",
"<	c #666664",
"[	c #9A988F",
"}	c #F4F1E1",
"|	c #CAC8BC",
"1	c #434343",
"2	c #878788",
"3	c #676662",
"4	c #B2B1A6",
"5	c #F8F7E8",
"6	c #3C3B37",
"7	c #060707",
"8	c #1F1F1F",
"9	c #333333",
"0	c #969696",
"a	c #545454",
"b	c #747474",
"c	c #CDCDCD",
"d	c #D2D2D2",
"e	c #BDBDBE",
"f	c #7C7C7C",
"g	c #605F5A",
"h	c #060505",
"i	c #2F2F2F",
"j	c #8B8B8B",
"k	c #AEAEAE",
"l	c #666666",
"m	c #C6C6C6",
"n	c #B7B7B7",
"o	c #787878",
"p	c #C9C9C9",
"q	c #C8C5C8",
"r	c #BCB6BF",
"s	c #9F9DA1",
"t	c #929292",
"u	c #B2B2B2",
"v	c #7F7F7F",
"w	c #A6A6A6",
"x	c #C4C4C4",
"y	c #A7A7A7",
"z	c #617359",
"A	c #51823C",
"B	c #6C8064",
"C	c #838184",
"D	c #C3C3C3",
"E	c #929093",
"F	c #51ED0E",
"G	c #858585",
"H	c #C0C0BF",
"I	c #B2B1B3",
"J	c #888888",
"                ",
"        ...     ",
"       .+@#...  ",
"      .$%&*=-;. ",
"    ..>,&&&')!. ",
"  ..~{]^&&/(..  ",
".._::<[}='|.... ",
".1::::23456789..",
".0ab:cdefghijkl.",
".mno1:pqrstuv11.",
"..wxy11zABC11<<.",
" ..y_DE1F11<<<..",
"   ..GHI1<<<..  ",
"     ..J1<..    ",
"       .1.      ",
"                "};
