/* XPM */
static char * hardware16_clear_xpm[] = {
"16 16 12 1",
" 	c None",
".	c #666666",
"+	c #FFFFFF",
"@	c #999999",
"#	c #333399",
"$	c #3333CC",
"%	c #6666CC",
"&	c #000000",
"*	c #CCCCCC",
"=	c #6666FF",
"-	c #9999FF",
";	c #9999CC",
"                ",
".+@@.           ",
".+++@@.         ",
".#@+++@.  ..    ",
".$$%@++&.+***&  ",
".$%%=-&&++*&&.  ",
".=%%$;&*&&&...  ",
"&&;$$;&@*&....  ",
"  &*%;&@*&....& ",
" &@&@*&@*&....&&",
"  &@&&&**&....& ",
"   &&&&**&...&  ",
"      &&@&..&   ",
"        &&&&    ",
"                ",
"                "};
