/* XPM */
static char * Host16_xpm[] = {
"16 16 22 1",
" 	c None",
".	c #000000",
"+	c #666666",
"@	c #CCCCCC",
"#	c #FFFFFF",
"$	c #C0C0C0",
"%	c #993399",
"&	c #999999",
"*	c #333366",
"=	c #000099",
"-	c #9999CC",
";	c #6666CC",
">	c #666699",
",	c #330066",
"'	c #3333FF",
")	c #CCCCFF",
"!	c #0000FF",
"~	c #330099",
"{	c #0000CC",
"]	c #003300",
"^	c #000066",
"/	c #669999",
"                ",
"     ....       ",
"    .++@@..     ",
"   .+@###@@..   ",
"$..%##@#@@.+.   ",
"..&####@@.++.   ",
".@#..##@.+++.   ",
".#*@@...++++.   ",
".@@==@.++++-;;; ",
".@*@@@.+++->-@,-",
".@@==@.++-')##'=",
".@@@@@.++-;!))'=",
"..&&@&.++~-!!;#>",
"  .&&@.++,{!!{@>",
"   ..+.+] ,={^/,",
"     .]]   ,^,, "};
