/* XPM */
static char * html_xpm[] = {
"16 16 24 1",
" 	c None",
".	c #000000",
"+	c #FFFFFF",
"@	c #CCCCFF",
"#	c #9999CC",
"$	c #000099",
"%	c #663366",
"&	c #999999",
"*	c #6666CC",
"=	c #666699",
"-	c #CCCCCC",
";	c #669999",
">	c #3333FF",
",	c #0000CC",
"'	c #9999FF",
")	c #6699FF",
"!	c #0000FF",
"~	c #3333CC",
"{	c #333399",
"]	c #330099",
"^	c #CC9999",
"/	c #000066",
"(	c #330066",
"_	c #CC99CC",
"                ",
"   ..........   ",
"   .+++++++@.   ",
"   .+++++++@.   ",
"   #$%&++++@.   ",
"  *=#-;#+++@.   ",
" @>,@+>$'+@@.   ",
" )*!~@>${@@@.   ",
" ]#!!*+={@@@.   ",
" ^,!!,-='@@@.   ",
"  -$,/;#@@@@..  ",
"   -/(_@@@@@....",
"   .+@@@@@@@... ",
"   .+@@@@@@@..  ",
"   ..........   ",
"                "};
