/* XPM */
static char * image_xpm[] = {
"16 16 9 1",
" 	c None",
".	c #000000",
"+	c #FFFFFF",
"@	c #CCCCFF",
"#	c #00FFFF",
"$	c #0099CC",
"%	c #009900",
"&	c #009999",
"*	c #00FF00",
"                ",
"  ..........    ",
"  .+++++++@.    ",
" ........+@.    ",
" .######.+@.    ",
" .$####%.+@.    ",
" .&&##%*.+@.    ",
" .$&*%**.@@.    ",
" .&&&***.@@.    ",
" .$&$&**.@@.    ",
" ........@@..   ",
"  .+++@@@@@.... ",
"  .+@@@@@@@...  ",
"  .+@@@@@@@..   ",
"  ..........    ",
"                "};
