/* XPM */
static char * isp16_xpm[] = {
"16 16 10 1",
" 	c None",
".	c #000000",
"+	c #FF0000",
"@	c #666666",
"#	c #CCCCCC",
"$	c #FFFFC0",
"%	c #808000",
"&	c #00CC33",
"*	c #FFFF00",
"=	c #999999",
"                ",
"                ",
"  ....    +     ",
"..@###.. +.+ +  ",
".#$%..@.+. .+.  ",
".#$.@@@..   .   ",
".#$.@@@.        ",
".#%.....   &    ",
"..@@###.. &.& & ",
"..#*%..@.&. .&. ",
" .#*.@@@..   .  ",
" .#*.@@@.       ",
" .#%.@@@.       ",
" .##.@@@.       ",
" ..=.@..        ",
"   ...          "};
