/* XPM */
static char * processor_16b[] = {
"16 16 217 2",
"  	c None",
". 	c #FFFFFF",
"+ 	c #CCFFFF",
"@ 	c #99FFFF",
"# 	c #66FFFF",
"$ 	c #33FFFF",
"% 	c #00FFFF",
"& 	c #FFCCFF",
"* 	c #CCCCFF",
"= 	c #99CCFF",
"- 	c #66CCFF",
"; 	c #33CCFF",
"> 	c #00CCFF",
", 	c #FF99FF",
"' 	c #CC99FF",
") 	c #9999FF",
"! 	c #6699FF",
"~ 	c #3399FF",
"{ 	c #0099FF",
"] 	c #FF66FF",
"^ 	c #CC66FF",
"/ 	c #9966FF",
"( 	c #6666FF",
"_ 	c #3366FF",
": 	c #0066FF",
"< 	c #FF33FF",
"[ 	c #CC33FF",
"} 	c #9933FF",
"| 	c #6633FF",
"1 	c #3333FF",
"2 	c #0033FF",
"3 	c #FF00FF",
"4 	c #CC00FF",
"5 	c #9900FF",
"6 	c #6600FF",
"7 	c #3300FF",
"8 	c #0000FF",
"9 	c #FFFFCC",
"0 	c #CCFFCC",
"a 	c #99FFCC",
"b 	c #66FFCC",
"c 	c #33FFCC",
"d 	c #00FFCC",
"e 	c #FFCCCC",
"f 	c #CCCCCC",
"g 	c #99CCCC",
"h 	c #66CCCC",
"i 	c #33CCCC",
"j 	c #00CCCC",
"k 	c #FF99CC",
"l 	c #CC99CC",
"m 	c #9999CC",
"n 	c #6699CC",
"o 	c #3399CC",
"p 	c #0099CC",
"q 	c #FF66CC",
"r 	c #CC66CC",
"s 	c #9966CC",
"t 	c #6666CC",
"u 	c #3366CC",
"v 	c #0066CC",
"w 	c #FF33CC",
"x 	c #CC33CC",
"y 	c #9933CC",
"z 	c #6633CC",
"A 	c #3333CC",
"B 	c #0033CC",
"C 	c #FF00CC",
"D 	c #CC00CC",
"E 	c #9900CC",
"F 	c #6600CC",
"G 	c #3300CC",
"H 	c #0000CC",
"I 	c #FFFF99",
"J 	c #CCFF99",
"K 	c #99FF99",
"L 	c #66FF99",
"M 	c #33FF99",
"N 	c #00FF99",
"O 	c #FFCC99",
"P 	c #CCCC99",
"Q 	c #99CC99",
"R 	c #66CC99",
"S 	c #33CC99",
"T 	c #00CC99",
"U 	c #FF9999",
"V 	c #CC9999",
"W 	c #999999",
"X 	c #669999",
"Y 	c #339999",
"Z 	c #009999",
"` 	c #FF6699",
" .	c #CC6699",
"..	c #996699",
"+.	c #666699",
"@.	c #336699",
"#.	c #006699",
"$.	c #FF3399",
"%.	c #CC3399",
"&.	c #993399",
"*.	c #663399",
"=.	c #333399",
"-.	c #003399",
";.	c #FF0099",
">.	c #CC0099",
",.	c #990099",
"'.	c #660099",
").	c #330099",
"!.	c #000099",
"~.	c #FFFF66",
"{.	c #CCFF66",
"].	c #99FF66",
"^.	c #66FF66",
"/.	c #33FF66",
"(.	c #00FF66",
"_.	c #FFCC66",
":.	c #CCCC66",
"<.	c #99CC66",
"[.	c #66CC66",
"}.	c #33CC66",
"|.	c #00CC66",
"1.	c #FF9966",
"2.	c #CC9966",
"3.	c #999966",
"4.	c #669966",
"5.	c #339966",
"6.	c #009966",
"7.	c #FF6666",
"8.	c #CC6666",
"9.	c #996666",
"0.	c #666666",
"a.	c #336666",
"b.	c #006666",
"c.	c #FF3366",
"d.	c #CC3366",
"e.	c #993366",
"f.	c #663366",
"g.	c #333366",
"h.	c #003366",
"i.	c #FF0066",
"j.	c #CC0066",
"k.	c #990066",
"l.	c #660066",
"m.	c #330066",
"n.	c #000066",
"o.	c #FFFF33",
"p.	c #CCFF33",
"q.	c #99FF33",
"r.	c #66FF33",
"s.	c #33FF33",
"t.	c #00FF33",
"u.	c #FFCC33",
"v.	c #CCCC33",
"w.	c #99CC33",
"x.	c #66CC33",
"y.	c #33CC33",
"z.	c #00CC33",
"A.	c #FF9933",
"B.	c #CC9933",
"C.	c #999933",
"D.	c #669933",
"E.	c #339933",
"F.	c #009933",
"G.	c #FF6633",
"H.	c #CC6633",
"I.	c #996633",
"J.	c #666633",
"K.	c #336633",
"L.	c #006633",
"M.	c #FF3333",
"N.	c #CC3333",
"O.	c #993333",
"P.	c #663333",
"Q.	c #333333",
"R.	c #003333",
"S.	c #FF0033",
"T.	c #CC0033",
"U.	c #990033",
"V.	c #660033",
"W.	c #330033",
"X.	c #000033",
"Y.	c #FFFF00",
"Z.	c #CCFF00",
"`.	c #99FF00",
" +	c #66FF00",
".+	c #33FF00",
"++	c #00FF00",
"@+	c #FFCC00",
"#+	c #CCCC00",
"$+	c #99CC00",
"%+	c #66CC00",
"&+	c #33CC00",
"*+	c #00CC00",
"=+	c #FF9900",
"-+	c #CC9900",
";+	c #999900",
">+	c #669900",
",+	c #339900",
"'+	c #009900",
")+	c #FF6600",
"!+	c #CC6600",
"~+	c #996600",
"{+	c #666600",
"]+	c #336600",
"^+	c #006600",
"/+	c #FF3300",
"(+	c #CC3300",
"_+	c #993300",
":+	c #663300",
"<+	c #333300",
"[+	c #003300",
"}+	c #FF0000",
"|+	c #CC0000",
"1+	c #990000",
"2+	c #660000",
"3+	c #330000",
"4+	c #000000",
"                                ",
"          W W W W W             ",
"        4+4+4+4+4+4+4+          ",
"        4+f . . . W 4+f         ",
"        4+f f . W W 4+f         ",
"          4+f . W 4+f           ",
"          4+f . W 4+f           ",
"            4+. 4+W             ",
"            4+f 4+f             ",
"          4+4+4+4+4+f           ",
"            4+. 4+f             ",
"          4+f 4+f 4+f           ",
"        4+f f . f f 4+4+4+4+    ",
"        4+4+4+4+4+4+4+f   4+    ",
"          4+      4+      4+4+4+",
"                                "};
