/* XPM */
static char * kdestart_xpm[] = {
"16 16 13 1",
" 	c None",
".	c #CC6666",
"+	c #FF9999",
"@	c #663333",
"#	c #FFFFFF",
"$	c #FFCCCC",
"%	c #333333",
"&	c #990033",
"*	c #000099",
"=	c #CCCCCC",
"-	c #0000FF",
";	c #999999",
">	c #990000",
"       .....    ",
"      .+.+..@#  ",
"    .$$$$$%&@#  ",
"     .$$$%*@@   ",
"    *=.$%==*@#  ",
"   *--*%#=-**   ",
"  ;----###-**;  ",
"  --*--*#--***  ",
"  -*#---*#==**  ",
"  >=*----##=*   ",
"   *----%*==*   ",
"   @**-%$.=*    ",
"   @@*%$$$.     ",
"   @&%$$$$$.    ",
"   @..+.+.      ",
"    .....       "};
