/* XPM */
static char * Dumpsterfull16_xpm[] = {
"16 16 9 1",
" 	c None",
".	c #000000",
"+	c #009933",
"@	c #666666",
"#	c #999999",
"$	c #FFFFFF",
"%	c #CCCCCC",
"&	c #00CC33",
"*	c #009966",
"     .          ",
"    .+.         ",
"  ..+++.  @     ",
"..++++++. @@    ",
".++++++@#.@@    ",
" .+++@@$@$.@    ",
"  .+@$$@%@%.@   ",
"   .$#$$@%@.@@  ",
"   ..##@%@#..@@ ",
"  ..&..%#..+.@@@",
"  .&.&...+++.@@@",
"  .&&..+++++.@@ ",
"   ..&.+++++.   ",
"   .&&.*++..    ",
"    .&.+..      ",
"     ...        "};
