/* XPM */
static char * UNC_folder_16_xpm[] = {
"16 16 13 1",
" 	c None",
".	c #000000",
"+	c #9C9CFF",
"@	c #FFFFFF",
"#	c #FFFFCE",
"$	c #CECEFF",
"%	c #848484",
"&	c #636363",
"*	c #7B7B7B",
"=	c #CECECE",
"-	c #FF9C00",
";	c #00CE31",
">	c #9C9C9C",
"    .....       ",
"   .+++++.      ",
"  .+++++++..... ",
"  .@@@@@@@@@@#. ",
"  .@$$$$$$$$$+.%",
"  .&&&$$$$$+++.*",
" .&@@=..$-.+++.%",
"..@=..&.;..+++.%",
".=..&&&..+++++.*",
".==.&&&.++++++.%",
".==.&&&........%",
".==.&&&.%*%%*%%*",
".==.&&&.        ",
"..>.&..         ",
"  ...           ",
"                "};
