/* XPM */
static char * UNC_file_16_xpm[] = {
"16 16 10 1",
" 	c None",
".	c #000000",
"+	c #FFFFFF",
"@	c #CECEFF",
"#	c #636363",
"$	c #CECECE",
"%	c #FF9C00",
"&	c #00CE31",
"*	c #9C9CFF",
"=	c #9C9C9C",
"       .........",
"       .++++++@.",
"       .++++++@.",
"       .+++++@@.",
"       .+++++@@.",
"    ###.++@+@@@.",
"  .#++$..+%.@@@.",
" ..+$..#.&..@@@.",
" .$..###..*@@@@.",
" .$$.###.@@@@@@.",
" .$$.###.@@@@@@.",
" .$$.###.@@@@@@.",
" .$$.###........",
" ..=.#..        ",
"   ...          ",
"                "};
