/* XPM */
static char *mini-password[] = {
/* width height num_colors chars_per_pixel */
"    16    16        9            1",
/* colors */
". c None",
"# c #7b7b7b",
"a c #848484",
"b c #c6c6c6",
"c c #630000",
"d c #9c0000",
"e c #ff9c00",
"f c #c0c0c0",
"g c #000000",
/* pixels */
"fffffffffgggffff",
"fffffffffg.gffff",
"ffffffffgggggfff",
"fffffffggdddggff",
"ffffgggg....dgff",
"fffg...gee..dgff",
"ffg.ggg.gee.dgff",
"ffg.gfg.geedggff",
"ffggggggge.dgfff",
"fg......ag.dgfgf",
"fg.bbbbbag.dgggf",
"fg.bbbbbagccgggf",
"fg.bbbbbag.dggff",
"fg.bbbbbaggggfff",
"fgaa###aagffffff",
"fgggggggggffffff"
};
