/* XPM */
static char * conutil16_xpm[] = {
"16 16 90 1",
" 	c None",
".	c #000000",
"+	c #CCCCCC",
"@	c #FFFFFF",
"#	c #BDBA85",
"$	c #C5C88B",
"%	c #CACD8B",
"&	c #A2A167",
"*	c #A4A1A4",
"=	c #D5E193",
"-	c #BBC685",
";	c #989B80",
">	c #969865",
",	c #C2CD95",
"'	c #979E87",
")	c #8D9168",
"!	c #94995D",
"~	c #E0EDAE",
"{	c #C1CB92",
"]	c #969973",
"^	c #646968",
"/	c #494B56",
"(	c #7A7A7A",
"_	c #CAD8A5",
":	c #BAC191",
"<	c #8E9481",
"[	c #42456C",
"}	c #3B385B",
"|	c #D5E299",
"1	c #808689",
"2	c #505F92",
"3	c #404872",
"4	c #3F3F70",
"5	c #2F2A54",
"6	c #8A8F8B",
"7	c #4E5E98",
"8	c #3C3D6A",
"9	c #3F4275",
"0	c #35315E",
"a	c #7FA7F9",
"b	c #7FA9FB",
"c	c #5C6488",
"d	c #363268",
"e	c #363165",
"f	c #302A4E",
"g	c #748CD7",
"h	c #7593E1",
"i	c #7B9EF0",
"j	c #7A98F9",
"k	c #7B85E3",
"l	c #CDDA96",
"m	c #646083",
"n	c #332C54",
"o	c #2E274E",
"p	c #5A6997",
"q	c #7283BF",
"r	c #6F86CF",
"s	c #6C7EE4",
"t	c #5A63D1",
"u	c #9DA585",
"v	c #BCC56A",
"w	c #302B40",
"x	c #130E29",
"y	c #5A6B8B",
"z	c #6876A7",
"A	c #636FB9",
"B	c #5761C8",
"C	c #8187A5",
"D	c #A5A873",
"E	c #6C777B",
"F	c #777577",
"G	c #3D4D66",
"H	c #54637E",
"I	c #546993",
"J	c #5261AB",
"K	c #7C79B9",
"L	c #7D8098",
"M	c #5C6A98",
"N	c #3F51A0",
"O	c #4C5B72",
"P	c #495573",
"Q	c #636575",
"R	c #697383",
"S	c #56618F",
"T	c #404B87",
"U	c #3F3F6F",
"V	c #465269",
"W	c #4A5877",
"X	c #444E70",
"Y	c #41496D",
"   ........     ",
"  +++@.#$%&..   ",
" +.*++@.=-;>..  ",
".+*.**+@.,')!.. ",
".++@.*+@.~{]^/. ",
".++@@(+@._:<[}..",
"..+++++@.|12345.",
"...+++++@.67890.",
".ab....++@.cdef.",
".ghijkl.++@.mno.",
".pqrstuv.++@.wx.",
" .yzABCDE.++@.F ",
" .GHIJKLMN.++@. ",
"  ..OPQRSTU.++@.",
"   ...VWXY...++.",
"     ...... ...."};
