/* XPM */
static char * conwiz16_xpm[] = {
"16 16 125 2",
"  	c None",
". 	c #202020",
"+ 	c #000000",
"@ 	c #697DC8",
"# 	c #9E9FA5",
"$ 	c #BDBA85",
"% 	c #C5C88B",
"& 	c #CACD8B",
"* 	c #A2A167",
"= 	c #FFFFFF",
"- 	c #575A5F",
"; 	c #595A60",
"> 	c #D3D5D2",
", 	c #F0FECC",
"' 	c #D5E193",
") 	c #BBC685",
"! 	c #989B80",
"~ 	c #969865",
"{ 	c #8AA3E1",
"] 	c #E9E9E9",
"^ 	c #BBC0A1",
"/ 	c #C2CD95",
"( 	c #979E87",
"_ 	c #8D9168",
": 	c #94995D",
"< 	c #C3D6FF",
"[ 	c #E4E8EF",
"} 	c #3D4037",
"| 	c #BFBFBF",
"1 	c #5C5E57",
"2 	c #C1CB92",
"3 	c #969973",
"4 	c #646968",
"5 	c #494B56",
"6 	c #86A4EA",
"7 	c #D2E2FF",
"8 	c #E1EEBF",
"9 	c #6B705D",
"0 	c #CFCFCF",
"a 	c #575852",
"b 	c #737869",
"c 	c #42456C",
"d 	c #3B385B",
"e 	c #95BAFE",
"f 	c #9EBDFF",
"g 	c #CAD9FD",
"h 	c #5B5F50",
"i 	c #DFDFDF",
"j 	c #585858",
"k 	c #4B5989",
"l 	c #404872",
"m 	c #3F3F70",
"n 	c #2F2A54",
"o 	c #88B4FF",
"p 	c #83ADFF",
"q 	c #9CB9FF",
"r 	c #D3DFFB",
"s 	c #EBF4DE",
"t 	c #4E5047",
"u 	c #4C4F4C",
"v 	c #4E5E98",
"w 	c #3C3D6A",
"x 	c #3F4275",
"y 	c #35315E",
"z 	c #7FA7F9",
"A 	c #7FA9FB",
"B 	c #80AAFE",
"C 	c #88A8FF",
"D 	c #646D99",
"E 	c #444441",
"F 	c #566286",
"G 	c #434D79",
"H 	c #363268",
"I 	c #363165",
"J 	c #302A4E",
"K 	c #748CD7",
"L 	c #7593E1",
"M 	c #7B9EF0",
"N 	c #728EE9",
"O 	c #47484E",
"P 	c #8F8F8F",
"Q 	c #6F7461",
"R 	c #444E7E",
"S 	c #3B3E71",
"T 	c #353063",
"U 	c #332C54",
"V 	c #2E274E",
"W 	c #5A6997",
"X 	c #7283BF",
"Y 	c #6F86CF",
"Z 	c #707070",
"` 	c #484E5B",
" .	c #3B3E76",
"..	c #383874",
"+.	c #322C4D",
"@.	c #302B40",
"#.	c #130E29",
"$.	c #5A6B8B",
"%.	c #6876A7",
"&.	c #292C3E",
"*.	c #9F9F9F",
"=.	c #191732",
"-.	c #36305E",
";.	c #332D51",
">.	c #2E274B",
",.	c #3D4D66",
"'.	c #54637E",
").	c #546993",
"!.	c #3D4980",
"~.	c #3F3E56",
"{.	c #1E1D2B",
"].	c #302A60",
"^.	c #17123A",
"/.	c #4C5B72",
"(.	c #495573",
"_.	c #636575",
":.	c #5C6573",
"<.	c #2B3047",
"[.	c #545458",
"}.	c #EFEFEF",
"|.	c #414144",
"1.	c #465269",
"2.	c #4A5877",
"3.	c #444E70",
"4.	c #41496D",
". .       + + + + + +           ",
"  . . + + @ # $ % & * + +       ",
"    . = - ; > , ' ) ! ~ + +     ",
"  + { ; ] ] ; ; ^ / ( _ : + +   ",
"  + < [ } ] = | 1 ; 2 3 4 5 +   ",
"+ 6 7 , 8 9 0 = = | a b c d + + ",
"+ e f g , , h i = = j k l m n + ",
"+ o p q r s t = = | u v w x y + ",
"+ z A B C D | = = E F G H I J + ",
"+ K L M N O = = P Q R S T U V + ",
"+ W X Y ; i = = Z `  ...+.@.#.+ ",
"  + $.%.&.*.= = = P =.-.;.>.+   ",
"  + ,.'.).!.~.Z i = ] {.].^.+   ",
"    + + /.(._.:.<.[.] }.|.+     ",
"      + + + 1.2.3.4.+ . . . .   ",
"          + + + + + +     . . . "};
