/* XPM */
static char * monitor icon 16_xpm[] = {
"16 16 8 1",
" 	c None",
".	c #000000",
"+	c #C0C0C0",
"@	c #000066",
"#	c #0000C0",
"$	c #C00000",
"%	c #808080",
"&	c #FFFFFF",
"                ",
"  ............  ",
" .++++++++++++. ",
" .+@@@@@@@@@@+. ",
" .+##########+. ",
" .+##########+. ",
" .+##########+. ",
" .+##########+. ",
" .+##########+. ",
" .+##########+. ",
" .++++++++++$+. ",
"  ............  ",
"     .%&&%.     ",
"   .%%%%%%%%.   ",
"   ..........   ",
"                "};
