/* XPM */
static char * Oservices16_xpm[] = {
"16 16 119 2",
"  	c None",
". 	c #000000",
"+ 	c #697DC8",
"@ 	c #9E9FA5",
"# 	c #BDBA85",
"$ 	c #C5C88B",
"% 	c #CACD8B",
"& 	c #A2A167",
"* 	c #9AB1F3",
"= 	c #B9CEF7",
"- 	c #CBD7E0",
"; 	c #D3D5D2",
"> 	c #F0FECC",
", 	c #D5E193",
"' 	c #BBC685",
") 	c #989B80",
"! 	c #969865",
"~ 	c #93AEF0",
"{ 	c #D7E3FF",
"] 	c #C9D2FF",
"^ 	c #C3C8E3",
"/ 	c #BBC0A1",
"( 	c #C2CD95",
"_ 	c #979E87",
": 	c #8D9168",
"< 	c #94995D",
"[ 	c #C3D6FF",
"} 	c #F3F7FF",
"| 	c #EAF2DF",
"1 	c #DFEEB7",
"2 	c #E0EDAE",
"3 	c #C1CB92",
"4 	c #969973",
"5 	c #646968",
"6 	c #494B56",
"7 	c #86A4EA",
"8 	c #D2E2FF",
"9 	c #EDFFBA",
"0 	c #CAD8A5",
"a 	c #BAC191",
"b 	c #8E9481",
"c 	c #42456C",
"d 	c #3B385B",
"e 	c #95BAFE",
"f 	c #9EBDFF",
"g 	c #CAD9FD",
"h 	c #EDFEC1",
"i 	c #ECFFB0",
"j 	c #D5E299",
"k 	c #808689",
"l 	c #505F92",
"m 	c #404872",
"n 	c #3F3F70",
"o 	c #2F2A54",
"p 	c #88B4FF",
"q 	c #83ADFF",
"r 	c #9CB9FF",
"s 	c #D3DFFB",
"t 	c #EBF4DE",
"u 	c #EBFEB4",
"v 	c #E1F7A6",
"w 	c #D9ECA1",
"x 	c #D2D98D",
"y 	c #878C88",
"z 	c #4E5E98",
"A 	c #3C3D6A",
"B 	c #3F4275",
"C 	c #35315E",
"D 	c #7FA7F9",
"E 	c #7FA9FB",
"F 	c #80AAFE",
"G 	c #88A8FF",
"H 	c #A0AFF6",
"I 	c #DFEDB0",
"J 	c #D3E598",
"K 	c #C3CF88",
"L 	c #9CA185",
"M 	c #566286",
"N 	c #434D79",
"O 	c #363268",
"P 	c #363165",
"Q 	c #302A4E",
"R 	c #748CD7",
"S 	c #7593E1",
"T 	c #7B9EF0",
"U 	c #7A98F9",
"V 	c #7B85E3",
"W 	c #CDDA96",
"X 	c #CBDD83",
"Y 	c #C9D37D",
"Z 	c #949B81",
"` 	c #444E7E",
" .	c #3B3E71",
"..	c #353063",
"+.	c #332C54",
"@.	c #2E274E",
"#.	c #5A6997",
"$.	c #7283BF",
"%.	c #6F86CF",
"&.	c #6C7EE4",
"*.	c #5A63D1",
"=.	c #9DA585",
"-.	c #5A6B8B",
";.	c #6876A7",
">.	c #636FB9",
",.	c #5761C8",
"'.	c #8187A5",
").	c #FFFFFF",
"!.	c #FF0000",
"~.	c #3D4D66",
"{.	c #54637E",
"].	c #546993",
"^.	c #5261AB",
"/.	c #7C79B9",
"(.	c #FFC0C0",
"_.	c #4C5B72",
":.	c #495573",
"<.	c #636575",
"[.	c #465269",
"          . . . . . .           ",
"      . . + @ # $ % & . .       ",
"    . * = - ; > , ' ) ! . .     ",
"  . ~ { > > ] ^ / ( _ : < . .   ",
"  . [ } > > > | 1 2 3 4 5 6 .   ",
". 7 8 > > > > > 9 0 a b c d . . ",
". e f g > > > h i j k l m n o . ",
". p q r s t u v w x y z A B C . ",
". D E F G H I J K L M N O P Q . ",
". R S T U V W X Y Z `  ...+.@.. ",
". #.$.%.&.*.=.. . . . . . . . . ",
"  . -.;.>.,.'.. ).).).).).).!.. ",
"  . ~.{.].^./.. ).).).).).(.).. ",
"    . . _.:.<.. ).. . ).. ).).. ",
"      . . . [.. ).).).).).).).. ",
"          . . . . . . . . . . . "};
