/* XPM */
static char * printer_xpm[] = {
"16 16 9 1",
" 	c None",
".	c #000000",
"+	c #FFFFFF",
"@	c #333333",
"#	c #CCCCCC",
"$	c #666666",
"%	c #999999",
"&	c #339900",
"*	c #FFFF66",
"                ",
"       ......   ",
"       .++++.   ",
"    ....++++.   ",
"   .++@.####... ",
"  .++#......++. ",
" .....+++++++.. ",
" .+###.......$. ",
" .+##%######.$. ",
" .+##%###&&#.$. ",
" .+##%###&&#.$. ",
" .+##%###**#... ",
" .++++###**#..  ",
"  ...+++++++.   ",
"     ........   ",
"                "};
