/* XPM */
static char * sound_xpm[] = {
"16 16 10 1",
" 	c None",
".	c #000000",
"+	c #999999",
"@	c #333399",
"#	c #CCCCFF",
"$	c #CCFFFF",
"%	c #FF00FF",
"&	c #9999FF",
"*	c #FFFFFF",
"=	c #6666CC",
"                ",
"                ",
"       .        ",
"  +    @..      ",
"   +   @#$.%%%%%",
"    + +@&##.... ",
"     .&@&&&***. ",
" +++ .&@***&&&. ",
"     .&@&&&&&&. ",
"    + .@&&&.... ",
"   +   .==.     ",
"  +    ...      ",
"       .        ",
"                ",
"                ",
"                "};
