/* XPM */
static char * tgz_xpm[] = {
"16 16 11 1",
" 	c None",
".	c #000000",
"+	c #000033",
"@	c #FFFFFF",
"#	c #CCCCFF",
"$	c #6666FF",
"%	c #9999FF",
"&	c #3333FF",
"*	c #0000FF",
"=	c #3333CC",
"-	c #0000CC",
"     ....+.     ",
"     .@@#$.     ",
"  ....@%%&....  ",
"   ..@%$&*...   ",
"     ......     ",
"       ..       ",
" .............. ",
" .@@@@@@@@@@@@. ",
" .@@@@@@@@@@@@. ",
" .............. ",
"       ..       ",
"     ..@@..     ",
"   ..@@@@%=..   ",
"  ....@%**-...  ",
"     .%*--.     ",
"     ......     "};
