/* XPM */
static char * USB_in_xpm[] = {
"16 16 11 1",
" 	c None",
".	c #FF6666",
"+	c #CC3333",
"@	c #990000",
"#	c #000000",
"$	c #949494",
"%	c #CECECE",
"&	c #FFFFFF",
"*	c #636363",
"=	c #319C00",
"-	c #FFFF63",
"       .+++@    ",
"       .+++@    ",
"       .+++@    ",
"     ...+++++@  ",
"      .+++++@   ",
"       .+++@    ",
"    ####.+@$### ",
"   #%&&&&@&&&&# ",
"  #%$&&&&&&&&## ",
" ############*# ",
" #&%%%%%%%%%#*# ",
" #&%%$%%%==%#*# ",
" #&%%$%%%--%##  ",
" #&&&&&&&&&&#   ",
"  ###########   ",
"                "};
