/* XPM */
static char * network_hub_xmp[] = {
"17 17 11 1",
" 	c None",
".	c #63639C",
"+	c #000063",
"@	c #9CCEFF",
"#	c #636363",
"$	c #CECECE",
"%	c #9C9C9C",
"&	c #313163",
"*	c #FFFFFF",
"=	c #3366CC",
"-	c #000000",
"   ....          ",
" ..+@+.++###     ",
" .@@@@@.+$%%##   ",
"..@.&.@+++*$%%## ",
".@@&*&@@.+$$*$%%#",
"..@.&.@+++=*$$*$#",
" .@@@@@.+*===*%##",
"  .+@+.&+***==###",
"   &+++==****=###",
"    #--$==***=###",
"   #*#--%$==*=###",
"  #*#$*#--%$==##-",
"  -$$*#$*#--%$#- ",
"   --$$*#$*#---  ",
"     --$$*#$#-   ",
"       --$$#-    ",
"         ---     "};
