/* XPM */
static char * USB_in_out_xpm[] = {
"16 16 11 1",
" 	c None",
".	c #FFFFFF",
"+	c #990000",
"@	c #FF6666",
"#	c #CC3333",
"$	c #CECECE",
"%	c #000000",
"&	c #636363",
"*	c #949494",
"=	c #319C00",
"-	c #FFFF63",
"           +    ",
"  @###+   @#+   ",
"  @###+  @###+  ",
"  @###+ @#####+ ",
"@@@####@+@#####+",
" @#####+ @###+  ",
"  @###+  @###+  ",
"   @#+$$$@###+% ",
"  %$@........%% ",
" %%%%%%%%%%%%&% ",
" %.$$$$$$$$$%&% ",
" %.$$*$$$==$%&% ",
" %.$$*$$$--$%%  ",
" %..........%   ",
"  %%%%%%%%%%%   ",
"                "};
