/* XPM */
static char * o16_xpm[] = {
"16 16 65 1",
" 	c None",
".	c #020204",
"+	c #828698",
"@	c #BAC394",
"#	c #FE0204",
"$	c #D5E399",
"%	c #404470",
"&	c #9EA484",
"*	c #566280",
"=	c #FEC2C4",
"-	c #CAD27C",
";	c #7084C4",
">	c #E2F6A4",
",	c #A2A264",
"'	c #6A76A4",
")	c #8AB6FC",
"!	c #2F294F",
"~	c #969A67",
"{	c #485470",
"]	c #5262AC",
"^	c #CAD6E4",
"/	c #3C3D6C",
"(	c #BECCEC",
"_	c #EAF4DC",
":	c #81A8F8",
"<	c #C4CC8F",
"[	c #D4E2FC",
"}	c #929884",
"|	c #3E4E64",
"1	c #646870",
"2	c #7692E4",
"3	c #353161",
"4	c #8EACF8",
"5	c #DEEEAE",
"6	c #A2AEF4",
"7	c #BEBA84",
"8	c #6C7ED8",
"9	c #8E926C",
"0	c #FEFEFC",
"a	c #626EBC",
"b	c #CEDCFC",
"c	c #4E5A74",
"d	c #9BBBFC",
"e	c #768ED4",
"f	c #CEDB8C",
"g	c #F1FEC9",
"h	c #7A9CF8",
"i	c #9A9A84",
"j	c #7E7ABC",
"k	c #D2D6D4",
"l	c #7A86E4",
"m	c #434D79",
"n	c #EAFEB4",
"o	c #82AEFC",
"p	c #596A91",
"q	c #9AB2F4",
"r	c #969E84",
"s	c #505E98",
"t	c #5862D0",
"u	c #F2F6FC",
"v	c #868E8C",
"w	c #CADAA4",
"x	c #4A4A54",
"y	c #9E9EA4",
"z	c #C6D4FC",
"     ......     ",
"   ..8y7<<,..   ",
"  .q(^kg$@i~..  ",
" .4[ggz(@<r9~.. ",
" .zuggg_55<~1x. ",
".:[gggggnw@}%/..",
".ddbggggn$+sm/!.",
".)odb_n>5fvs/%3.",
".:::465$<&*m33!.",
".e2hhlff-im/33!.",
".p;;8t&.........",
" .p'at+.000000#.",
" .|*p]j.00000=0.",
"  ..c{1.0..0.00.",
"   ...{.0000000.",
"     ..........."};
