/* XPM */
static char *wp8_small[] = {
/* width height num_colors chars_per_pixel */
"    16    16       11            1",
/* colors */
". c #ffffff",
"# c #000000",
"a c #ff0000",
"b c #ffff00",
"c c #bf0000",
"d c #00bf00",
"e c #bfbf00",
"f c #0000bf",
"g c #bf00bf",
"h c #c0c0c0",
"i c #808080",
/* pixels */
"###i###fffffffff",
"##eiiiff##fffff.",
"i#i##h#ff#ff##fh",
"ii##ie.effi#i#..",
"i#i#ee..eicfi#hh",
"iii#ceb..eiff...",
"fffi#ibb..eihhh.",
"ff###cehb..ab...",
"######eehb..ab..",
"fcgf#iceehb..b..",
"ffcggcicea#e..h.",
"##ccggcc#ee#a.b.",
"gcgfggihedee#e.h",
"gf##c...hecee#bh",
"cgg#hhhhhhhecb#h",
"#g.....hhhhh.ha#"
};
