/* XPM */
static char * wp_16_xpm[] = {
"16 16 143 2",
"  	c None",
". 	c #FFFFFF",
"+ 	c #FFFFF7",
"@ 	c #FFFFCE",
"# 	c #FFFF9C",
"$ 	c #FFFF66",
"% 	c #FFFF00",
"& 	c #FFDF00",
"* 	c #FFCE9C",
"= 	c #FFCE63",
"- 	c #FFCE31",
"; 	c #FFCCFF",
"> 	c #FFCCCC",
", 	c #FFCC99",
"' 	c #FFCC66",
") 	c #FFCC33",
"! 	c #FF9999",
"~ 	c #FF9933",
"{ 	c #FF66FF",
"] 	c #FF00FF",
"^ 	c #FF0000",
"/ 	c #F1F1F1",
"( 	c #EFD6C6",
"_ 	c #E7E7D6",
": 	c #D6D6D6",
"< 	c #D4DFFF",
"[ 	c #D4DF00",
"} 	c #D4BF00",
"| 	c #CECE9C",
"1 	c #CECE63",
"2 	c #CECE31",
"3 	c #CE9C63",
"4 	c #CE9C31",
"5 	c #CE9C00",
"6 	c #CCCCFF",
"7 	c #CCCCCC",
"8 	c #CCCC99",
"9 	c #CCCC66",
"0 	c #CCCC33",
"a 	c #CC9999",
"b 	c #CC9966",
"c 	c #CC9933",
"d 	c #CC66CC",
"e 	c #CC6666",
"f 	c #CC6633",
"g 	c #CC00CC",
"h 	c #CC0000",
"i 	c #C6C6C6",
"j 	c #C0DCC0",
"k 	c #C0C0C0",
"l 	c #AEAEAE",
"m 	c #ADAD94",
"n 	c #AABFAA",
"o 	c #AABF00",
"p 	c #AA9FAA",
"q 	c #AA9F55",
"r 	c #AA9F00",
"s 	c #A1A1A1",
"t 	c #A0A0A4",
"u 	c #9C9C63",
"v 	c #9C6331",
"w 	c #9C6300",
"x 	c #99FFFF",
"y 	c #9999FF",
"z 	c #999999",
"A 	c #999933",
"B 	c #996633",
"C 	c #996600",
"D 	c #993399",
"E 	c #990033",
"F 	c #990000",
"G 	c #939393",
"H 	c #868686",
"I 	c #848484",
"J 	c #848400",
"K 	c #840084",
"L 	c #808080",
"M 	c #808000",
"N 	c #800080",
"O 	c #800000",
"P 	c #7F7F00",
"Q 	c #7F5F00",
"R 	c #737373",
"S 	c #66CC00",
"T 	c #6666CC",
"U 	c #666666",
"V 	c #663333",
"W 	c #663300",
"X 	c #636363",
"Y 	c #636331",
"Z 	c #636300",
"` 	c #63319C",
" .	c #633163",
"..	c #633131",
"+.	c #633100",
"@.	c #630063",
"#.	c #555F55",
"$.	c #555F00",
"%.	c #553F55",
"&.	c #553F00",
"*.	c #525252",
"=.	c #4A4A4A",
"-.	c #424242",
";.	c #393939",
">.	c #33CCFF",
",.	c #339900",
"'.	c #3366FF",
").	c #333399",
"!.	c #333333",
"~.	c #3300CC",
"{.	c #31319C",
"].	c #313163",
"^.	c #313131",
"/.	c #313100",
"(.	c #31009C",
"_.	c #310063",
":.	c #310000",
"<.	c #2A3F55",
"[.	c #2A3F00",
"}.	c #2A1F55",
"|.	c #2A1F00",
"1.	c #292929",
"2.	c #212121",
"3.	c #181818",
"4.	c #101010",
"5.	c #080808",
"6.	c #040303",
"7.	c #030303",
"8.	c #030202",
"9.	c #020202",
"0.	c #020101",
"a.	c #020000",
"b.	c #010102",
"c.	c #010101",
"d.	c #010100",
"e.	c #010000",
"f.	c #00FFFF",
"g.	c #00FF00",
"h.	c #008080",
"i.	c #008000",
"j.	c #0000FF",
"k.	c #000099",
"l.	c #000084",
"6.6.i i 6.6.6.l.K l.K l.l.l.l.l.",
"6.6.6.i i 6.6.l.l.l.l.l.l.l.l.  ",
"6.6.6.6.i i 6.l.K l.K l.K l.l.  ",
"6.6.6.6.6.% % l.l.l.l.l.l.l.    ",
"6.6.6.6.i . . % % l.K l.K l.    ",
"6.6.6.J % i . . % % l.l.l.      ",
"6.6.6.J J % i . . % % l.        ",
"l.K l.K J J % i . . % %         ",
"l.K K l.% J J % i . . % %       ",
"l.K K K K % J J % 6.6.. %       ",
"l.K K K K K % J J 6.6.. % %     ",
"l.K K K K     % J J % 6.. %     ",
"l.K K K         % J J % 6.%     ",
"l.K K               J J % 6.%   ",
"l.K                       % 6.  ",
"l.                              "};
