/* XPM */
static char * paint32x32_xpm[] = {
"32 32 257 2",
"  	c None",
". 	c #000000",
"+ 	c #800000",
"@ 	c #008000",
"# 	c #808000",
"$ 	c #000080",
"% 	c #800080",
"& 	c #008080",
"* 	c #C0C0C0",
"= 	c #C0DCC0",
"- 	c #A6CAF0",
"; 	c #040404",
"> 	c #080808",
", 	c #0C0C0C",
"' 	c #111111",
") 	c #161616",
"! 	c #1C1C1C",
"~ 	c #222222",
"{ 	c #292929",
"] 	c #555555",
"^ 	c #4D4D4D",
"/ 	c #424242",
"( 	c #393939",
"_ 	c #FF7C80",
": 	c #FF5050",
"< 	c #D60093",
"[ 	c #CCECFF",
"} 	c #EFD6C6",
"| 	c #E7E7D6",
"1 	c #ADA990",
"2 	c #330000",
"3 	c #660000",
"4 	c #990000",
"5 	c #CC0000",
"6 	c #003300",
"7 	c #333300",
"8 	c #663300",
"9 	c #993300",
"0 	c #CC3300",
"a 	c #FF3300",
"b 	c #006600",
"c 	c #336600",
"d 	c #666600",
"e 	c #996600",
"f 	c #CC6600",
"g 	c #FF6600",
"h 	c #009900",
"i 	c #339900",
"j 	c #669900",
"k 	c #999900",
"l 	c #CC9900",
"m 	c #FF9900",
"n 	c #00CC00",
"o 	c #33CC00",
"p 	c #66CC00",
"q 	c #99CC00",
"r 	c #CCCC00",
"s 	c #FFCC00",
"t 	c #66FF00",
"u 	c #99FF00",
"v 	c #CCFF00",
"w 	c #000033",
"x 	c #330033",
"y 	c #660033",
"z 	c #990033",
"A 	c #CC0033",
"B 	c #FF0033",
"C 	c #003333",
"D 	c #333333",
"E 	c #663333",
"F 	c #993333",
"G 	c #CC3333",
"H 	c #FF3333",
"I 	c #006633",
"J 	c #336633",
"K 	c #666633",
"L 	c #996633",
"M 	c #CC6633",
"N 	c #FF6633",
"O 	c #009933",
"P 	c #339933",
"Q 	c #669933",
"R 	c #999933",
"S 	c #CC9933",
"T 	c #FF9933",
"U 	c #00CC33",
"V 	c #33CC33",
"W 	c #66CC33",
"X 	c #99CC33",
"Y 	c #CCCC33",
"Z 	c #FFCC33",
"` 	c #33FF33",
" .	c #66FF33",
"..	c #99FF33",
"+.	c #CCFF33",
"@.	c #FFFF33",
"#.	c #000066",
"$.	c #330066",
"%.	c #660066",
"&.	c #990066",
"*.	c #CC0066",
"=.	c #FF0066",
"-.	c #003366",
";.	c #333366",
">.	c #663366",
",.	c #993366",
"'.	c #CC3366",
").	c #FF3366",
"!.	c #006666",
"~.	c #336666",
"{.	c #666666",
"].	c #996666",
"^.	c #CC6666",
"/.	c #009966",
"(.	c #339966",
"_.	c #669966",
":.	c #999966",
"<.	c #CC9966",
"[.	c #FF9966",
"}.	c #00CC66",
"|.	c #33CC66",
"1.	c #99CC66",
"2.	c #CCCC66",
"3.	c #FFCC66",
"4.	c #00FF66",
"5.	c #33FF66",
"6.	c #99FF66",
"7.	c #CCFF66",
"8.	c #FF00CC",
"9.	c #CC00FF",
"0.	c #009999",
"a.	c #993399",
"b.	c #990099",
"c.	c #CC0099",
"d.	c #000099",
"e.	c #333399",
"f.	c #660099",
"g.	c #CC3399",
"h.	c #FF0099",
"i.	c #006699",
"j.	c #336699",
"k.	c #663399",
"l.	c #996699",
"m.	c #CC6699",
"n.	c #FF3399",
"o.	c #339999",
"p.	c #669999",
"q.	c #999999",
"r.	c #CC9999",
"s.	c #FF9999",
"t.	c #00CC99",
"u.	c #33CC99",
"v.	c #66CC66",
"w.	c #99CC99",
"x.	c #CCCC99",
"y.	c #FFCC99",
"z.	c #00FF99",
"A.	c #33FF99",
"B.	c #66CC99",
"C.	c #99FF99",
"D.	c #CCFF99",
"E.	c #FFFF99",
"F.	c #0000CC",
"G.	c #330099",
"H.	c #6600CC",
"I.	c #9900CC",
"J.	c #CC00CC",
"K.	c #003399",
"L.	c #3333CC",
"M.	c #6633CC",
"N.	c #9933CC",
"O.	c #CC33CC",
"P.	c #FF33CC",
"Q.	c #0066CC",
"R.	c #3366CC",
"S.	c #666699",
"T.	c #9966CC",
"U.	c #CC66CC",
"V.	c #FF6699",
"W.	c #0099CC",
"X.	c #3399CC",
"Y.	c #6699CC",
"Z.	c #9999CC",
"`.	c #CC99CC",
" +	c #FF99CC",
".+	c #00CCCC",
"++	c #33CCCC",
"@+	c #66CCCC",
"#+	c #99CCCC",
"$+	c #CCCCCC",
"%+	c #FFCCCC",
"&+	c #00FFCC",
"*+	c #33FFCC",
"=+	c #66FF99",
"-+	c #99FFCC",
";+	c #CCFFCC",
">+	c #FFFFCC",
",+	c #3300CC",
"'+	c #6600FF",
")+	c #9900FF",
"!+	c #0033CC",
"~+	c #3333FF",
"{+	c #6633FF",
"]+	c #9933FF",
"^+	c #CC33FF",
"/+	c #FF33FF",
"(+	c #0066FF",
"_+	c #3366FF",
":+	c #6666CC",
"<+	c #9966FF",
"[+	c #CC66FF",
"}+	c #FF66CC",
"|+	c #0099FF",
"1+	c #3399FF",
"2+	c #6699FF",
"3+	c #9999FF",
"4+	c #CC99FF",
"5+	c #FF99FF",
"6+	c #00CCFF",
"7+	c #33CCFF",
"8+	c #66CCFF",
"9+	c #99CCFF",
"0+	c #CCCCFF",
"a+	c #FFCCFF",
"b+	c #33FFFF",
"c+	c #66FFCC",
"d+	c #99FFFF",
"e+	c #CCFFFF",
"f+	c #FF6666",
"g+	c #66FF66",
"h+	c #FFFF66",
"i+	c #6666FF",
"j+	c #FF66FF",
"k+	c #66FFFF",
"l+	c #A50021",
"m+	c #5F5F5F",
"n+	c #777777",
"o+	c #868686",
"p+	c #969696",
"q+	c #CBCBCB",
"r+	c #B2B2B2",
"s+	c #D7D7D7",
"t+	c #DDDDDD",
"u+	c #E3E3E3",
"v+	c #EAEAEA",
"w+	c #F1F1F1",
"x+	c #F8F8F8",
"y+	c #FFFBF0",
"z+	c #A0A0A4",
"A+	c #808080",
"B+	c #FF0000",
"C+	c #00FF00",
"D+	c #FFFF00",
"E+	c #0000FF",
"F+	c #FF00FF",
"G+	c #00FFFF",
"H+	c #FFFFFF",
"                                                                ",
"      *                                                         ",
"      -.*                                       f e 8 8         ",
"        -.*                               f e 8 8               ",
"          -.*                       f e 8 8                     ",
"            -.*               f e 8 8                           ",
"              -.$+      f e 8 8                                 ",
"              f -.$+8 8 8 8                                     ",
"        G.u+y+8 e -.$+-.p+w+w+w+w+s+r+                          ",
"    ~+~+G.z+m+#.#.#.#.$+o+o+z+o+o+p+o+^                         ",
"  1+!+G.#.#.K.G.,+K.#.#.$+o+z+s+r+p+o+/                         ",
"1+!+G.  #.F.,+Q.1+(+G.#.-.-.z+w+r+p+o+/                         ",
"G.G.    ~+,+Q.1+(+F.G.p+-.o+z+w+r+p+o+/                         ",
"        {.Q.Q.(+F.G.p+r+o+o+z+w+r+o+o+/                         ",
"        {.r+i.F.G.{.p+r+r+p+z+* r+o+] m+] ] ] {.                ",
"        {.r+Q.F.{.{.r+r+r+p+p+o+r+o+p+* * * s+r+*               ",
"        {.r+Q.G.p+p+p+p+p+p+n+m+m+] z+r+* u+u+* * p+            ",
"        {.r+Q.F.p+n+m+m+m+m+^ ^ m+n+{.^ . , ! , ! m+/ / / / /   ",
"        {.r+Q.F.n+/ ] n+] n+n+n+n+] ] ] m+m+m+m+/ o+m+m+m+m+m+/ ",
"        {.r+(+F.n+/ z+$+$+^ ] ] ] ] ] / ^ ^ ^ / m+m+r+* r+z+z+/ ",
"        {.r+(+F.n+/ z+H+* ] {.] ] ] ] n+n+o+o+n+{.m+{.o+z+z+{./ ",
"        {.r+(+,+n+/ z+H+r+{.{.] {.{.p+o+m+m+m+o+r+m+{.o+{.r+{./ ",
"        {.r+F.{.n+/ z+u+r+{.{.{.^ o+o+m+n+n+n+m+n+r+m+o+{.r+{./ ",
"        {.r+F.r+n+/ z+u+r+{.m+o+{.p+m+p+r+r+r+r+m+{.m+o+{.r+{./ ",
"        {.r+,+z+n+/ z+H+r+{.m+{.p+p+p+r+^ D / / r+n+{.{.{.r+{./ ",
"        {.r+~+z+n+/ z+w+r+{.m+{.r+o+o+^ r+y+u+r+] o+{.{.{.r+{./ ",
"        {.1+~+p+n+/ z+u+r+m+m+{.r+o+n+D 3.3.3.3.D ] o+{.{.z+{./ ",
"        1+(+F.{.] / z+u+r+m+m+] p+p+{.D e l l l D {.p+o+o+z+{./ ",
"    1+~+~+~+G.] ] / z+r+r+m+m+] o+r+o+^ {.e e o+^ p+o+o+{.{.{./ ",
"    ~+G.G.$.        / / / / / / / m+r+n+/ / / ^ n+p+/ / / / /   ",
"                                    m+] o+{.n+o+{./             ",
"                                        m+m+m+m+                "};
