/* XPM */
static char * Debian32_xpm[] = {
"32 32 199 2",
"       c None",
".      c #070707",
"+      c #080808",
"@      c #000000",
"#      c #0F0F0F",
"$      c #FFF6C9",
"%      c #767676",
"&      c #727272",
"*      c #FFFFFF",
"=      c #0E0E0E",
"-      c #FFF6B4",
";      c #FFF6C7",
">      c #FFFAD7",
",      c #EFECD8",
"'      c #444444",
")      c #181B1C",
"!      c #191B1C",
"~      c #EFECE2",
"{      c #FFFAF1",
"]      c #F6EAA4",
"^      c #F6EAAE",
"/      c #F9F3C9",
"(      c #ECE8D1",
"_      c #33322D",
":      c #C80D45",
"<      c #E55883",
"[      c #B21F4C",
"}      c #32322F",
"|      c #ECEBDF",
"1      c #F9F7E2",
"2      c #FFF6DB",
"3      c #FFFAEE",
"4      c #EEE294",
"5      c #F1EAAB",
"6      c #F7EEC3",
"7      c #636155",
"8      c #FFD3E0",
"9      c #D93264",
"0      c #9B2A4F",
"a      c #646358",
"b      c #F9F7D9",
"c      c #F6F1CB",
"d      c #F6F2CD",
"e      c #FFF6D5",
"f      c #FFFAE6",
"g      c #E6DA83",
"h      c #EFE3A6",
"i      c #F1ECBB",
"j      c #1C1B17",
"k      c #8E3453",
"l      c #1F1F1F",
"m      c #F9F1C9",
"n      c #F6EEB7",
"o      c #F6EEBD",
"p      c #DECE73",
"q      c #DECA73",
"r      c #CEC286",
"s      c #DAD1A1",
"t      c #1A1A12",
"u      c #A13055",
"v      c #772A45",
"w      c #1D1C18",
"x      c #F6E69C",
"y      c #D5C662",
"z      c #9C8941",
"A      c #979433",
"B      c #B5B25F",
"C      c #545343",
"D      c #5A5847",
"E      c #DCD19C",
"F      c #C8BF7C",
"G      c #EEDE83",
"H      c #EEE283",
"I      c #CDBA52",
"J      c #736131",
"K      c #625D08",
"L      c #6A6508",
"M      c #7D771B",
"N      c #9C9A50",
"O      c #B3B26F",
"P      c #2A2922",
"Q      c #9B9877",
"R      c #C4BF8B",
"S      c #B4AE67",
"T      c #ACA15A",
"U      c #ACA152",
"V      c #FFEE94",
"W      c #5A5D5A",
"X      c #4A4410",
"Y      c #524C08",
"Z      c #525008",
"`      c #5A5908",
" .     c #78732D",
"..     c #979352",
"+.     c #AAA568",
"@.     c #484730",
"#.     c #171710",
"$.     c #191914",
"%.     c #525040",
"&.     c #C8C295",
"*.     c #BBB580",
"=.     c #AAA265",
"-.     c #9C914A",
";.     c #948D4A",
">.     c #948941",
",.     c #837539",
"'.     c #6A5D20",
").     c #6A695A",
"!.     c #413C08",
"~.     c #57510D",
"{.     c #696729",
"].     c #838042",
"^.     c #928F53",
"/.     c #9B995A",
"(.     c #B8B181",
"_.     c #B4AD7B",
":.     c #AAA570",
"<.     c #9A955A",
"[.     c #8C8647",
"}.     c #8B8141",
"|.     c #7B6D31",
"1.     c #7B795A",
"2.     c #393808",
"3.     c #414008",
"4.     c #554F1E",
"5.     c #686327",
"6.     c #716F33",
"7.     c #99925C",
"8.     c #938A52",
"9.     c #848046",
"0.     c #7B7531",
"a.     c #625D29",
"b.     c #FFFADE",
"c.     c #B4AE94",
"d.     c #948D6A",
"e.     c #FFF2AC",
"f.     c #F6EEA4",
"g.     c #313008",
"h.     c #736D31",
"i.     c #6A6929",
"j.     c #625929",
"k.     c #FFF2BD",
"l.     c #FFF6CD",
"m.     c #6A5510",
"n.     c #E6DABD",
"o.     c #FFF6C5",
"p.     c #312808",
"q.     c #5A5920",
"r.     c #7B6510",
"s.     c #7B7508",
"t.     c #948D00",
"u.     c #AC9939",
"v.     c #FFEEA4",
"w.     c #5A5500",
"x.     c #836D10",
"y.     c #838100",
"z.     c #9C9900",
"A.     c #949100",
"B.     c #8B8D00",
"C.     c #FFFFE6",
"D.     c #BDB229",
"E.     c #525508",
"F.     c #9C9D00",
"G.     c #949500",
"H.     c #8B8900",
"I.     c #FFFAD5",
"J.     c #BDB29C",
"K.     c #BDBE00",
"L.     c #BDB600",
"M.     c #9C9500",
"N.     c #A49D00",
"O.     c #838500",
"P.     c #FFFAC5",
"Q.     c #DED6CD",
"R.     c #B4B600",
"S.     c #B4B200",
"T.     c #ACAE00",
"U.     c #A4A500",
"V.     c #A4A100",
"W.     c #8B8500",
"X.     c #837D08",
"Y.     c #7B7908",
"Z.     c #FFFAB4",
"`.     c #7B7D08",
" +     c #737108",
".+     c #FFFAAC",
"++     c #6A6D08",
"@+     c #6A6908",
"#+     c #FFF6A4",
"$+     c #FFF69C",
"%+     c #737508",
"&+     c #736D08",
"*+     c #626108",
"=+     c #FFF694",
"-+     c #FFF683",
";+     c #626508",
">+     c #FFF26A",
",+     c #FFF67B",
"'+     c #FFF262",
"                        .             +                         ",
"                    @ # $ %         & * = @                     ",
"                @ @ - ; > , ' ) ! ' ~ { * * @ @                 ",
"            @ @ ] ] ^ / ( _ : < [ @ } | 1 2 3 * @ @             ",
"        @ @ 4 4 4 4 5 6 7 : 8 8 9 0 @ a b c d d e f @ @         ",
"    @ @ g g g g g g h i j : 8 8 9 0 k l m n ] o o d d e @ @     ",
"  @ p p q p p p p p r s t 0 9 9 9 u v w * * 4 4 x ] o o d d @   ",
"    @ y y y y y z z A B C @ 0 0 0 k v D E F * * G H x x ] @     ",
"      @ I I J J K L M N O P @ k v k P Q R S T U * * H H @       ",
"  @ @ V W X X X Y Z `  ...+.@.#.$.%.&.*.=.-.;.;.>.,.'.).* @ @   ",
"      @ V V V X X !.X ~.{.].^./.(._.:.<.[.}.}.|.|.3 3 * @       ",
"        @ 1.V V V X X 2.3.4.5.6.7.8.9.0.0.a.a.b.b.3 3.@         ",
"        @ c.d.1.e.e.f.2.2.g.2.3.h.i.i.j.j.k.l.l.3.3.m.@         ",
"        @ * n.c.d.1.o.o.o.p.p.p.q.Y Y k.k.l.3.3.r.s.t.@         ",
"        @ * 3 * n.c.d.1.f f f * u.v.v.v.w.w.x.y.z.A.B.@         ",
"        @ * C.3 C.b.n.c.d.1.d.d.D.u.x.E.x.y.F.G.A.H.y.@         ",
"        @ C.3 C.b.C.b.I.n.c.d.J.K.L.M.t.t.N.M.A.H.O.y.@         ",
"        @ C.b.C.I.I.I.I.P.P.n.Q.R.S.T.U.V.z.A.B.W.X.Y.@         ",
"        @ b.b.I.I.I.P.P.o.- Z.- S.T.U.F.z.A.B.W.y.`. +@         ",
"        @ C.I.I.I.P.o.Z.Z.- Z..+T.U.V.z.G.B.H.y.Y.s.++@         ",
"        @ I.I.P.P.P.Z.Z.Z..+- - U.V.z.A.B.H.y.Y.s. +@+@         ",
"        @ I.P.Z.- Z.- - - #+$+$+N.z.G.t.W.y.`.%+&+@+*+@ @       ",
"        @ P.P.P.Z.- .+.+.+.+.+#+F.G.t.H.O.`.s. +@+*+K @ @ @ @   ",
"        @ Z.- Z.Z.#+#+$+=+=+=+=+G.A.H.y.`.s.&+@+L K w.@ @ @ @ @ ",
"        @ - .+- #+.+$+$+$+=+=+=+A.H.y.X.s. +++L K ` E.@ @ @ @   ",
"        @ - .+.+$+$+=+=+=+=+-+-+H.O.`.Y. +@+;+*+` Z Y @ @       ",
"          @ @ $+$+$+=+=+-+-+-+-+O.X.Y. +++@+*+` E.@ @           ",
"              @ @ =+=+-+-+>+-+>+X.Y. +&+L K ` @ @               ",
"                  @ @ >+-+>+>+>+Y.%+&+L *+@ @                   ",
"                      @ @ >+>+,+ +&+@+@ @                       ",
"                          @ @ '+ +@ @                           ",
"                              @ @                               "};

