/* XPM */
static char * new32_xpm[] = {
"32 32 84 1",
" 	c None",
".	c #FF00FF",
"+	c #D42FD4",
"@	c #C930C9",
"#	c #D82FD8",
"$	c #200020",
"%	c #C631C6",
"&	c #000000",
"*	c #CA31CA",
"=	c #D92ED9",
"-	c #020202",
";	c #040404",
">	c #C831C8",
",	c #ED25ED",
"'	c #F41FF4",
")	c #EF25EF",
"!	c #060606",
"~	c #C031C0",
"{	c #030303",
"]	c #E829E8",
"^	c #090009",
"/	c #A635A6",
"(	c #1D091D",
"_	c #3D173D",
":	c #8D308D",
"<	c #F816F8",
"[	c #D333D3",
"}	c #D632D6",
"|	c #0D020D",
"1	c #FA13FA",
"2	c #762B76",
"3	c #C231C2",
"4	c #652565",
"5	c #FD09FD",
"6	c #B330B3",
"7	c #BF36BF",
"8	c #E52DE5",
"9	c #303030",
"0	c #656565",
"a	c #EE23EE",
"b	c #D62FD6",
"c	c #3A0C3A",
"d	c #B130B1",
"e	c #EC27EC",
"f	c #E62CE6",
"g	c #3D3D3D",
"h	c #161616",
"i	c #EB26EB",
"j	c #F21FF2",
"k	c #240224",
"l	c #CB30CB",
"m	c #110411",
"n	c #FE03FE",
"o	c #CF30CF",
"p	c #782478",
"q	c #CC31CC",
"r	c #903190",
"s	c #EF23EF",
"t	c #E728E7",
"u	c #B631B6",
"v	c #DF30DF",
"w	c #822E82",
"x	c #F914F9",
"y	c #912B91",
"z	c #A72FA7",
"A	c #FC0DFC",
"B	c #551755",
"C	c #C431C4",
"D	c #1A081A",
"E	c #160616",
"F	c #FF02FF",
"G	c #BC37BC",
"H	c #FD08FD",
"I	c #E22EE2",
"J	c #AE36AE",
"K	c #220C22",
"L	c #F61AF6",
"M	c #F123F1",
"N	c #1F1F1F",
"O	c #464646",
"P	c #484848",
"Q	c #595959",
"R	c #A92FA9",
"S	c #E12CE1",
"                                ",
"               +@               ",
"              #$$%              ",
"             #$&&$%             ",
"            #$&&&&$%            ",
"           #$&&&&&&$%           ",
"          #$&&&&&&&&$%          ",
"         #$&&&&&&&&&&$*         ",
"        =$&&&&&&--&&;-$>        ",
"       #$&&&&&&   ,')!&$~       ",
"      #$&&&&&&&&{   ]&&&$~      ",
"     #$&&&&&&&&&^   /&&&&$~     ",
"    #$&&&&&&&&&&(   _&&&&&$~    ",
"   #$&&&&&&&&&&&:  <^&&&&&&$~   ",
"  #$&&&&&&&&&&&&[  }&&&&&&&&$~  ",
" =$&&&&&&&&&&&&|1  2&&&&&&&&&$3 ",
" >$&&&&&&&&&&&&4  5^&&&&&&&&&$6 ",
"  %$&&&&&&&&&&&7  890abc&&&&$d  ",
"   %$&&&&&&&&&&e  fghi jk&&$d   ",
"    l$&&&&&&&&mn  /&&o  p&$d    ",
"     q$&&&&&&&r  s^&&t  u$d     ",
"      q$&&&&&&v  w&&$x  yz      ",
"       q$&&&&|< A^&&B   C       ",
"        o$&&&D  8&&&o           ",
"         q$&&EF G&&kH           ",
"          q$&&I J&&d            ",
"           q$&KLMNOH            ",
"            q$&&PQRS            ",
"             q$&&$z             ",
"              q$$d              ",
"               *u               ",
"                                "};
